%
O00001
(This Post Processor is distributed on an "AS IS" BASIS, )
(WITHOUT WARRANTIES OR CONDITIONS OF ANY KIND, either express or implied. )
N5 G21 G17 G40 G80 G90
N10 T01 M06 (42>9:0)
N15 G54 G90 G94
N20 S9000 M03
N25 G00 G90 X-1.681 Y9.185
N30 G43 H01 Z5. M08
N35 G98 G81 Z-1. R3. F1000.
N40 X1.681 Y9.815
N45 X.966 Y10.911
N50 X-.315 Y11.181
N55 X-1.411 Y10.466
N60 X-.966 Y8.089
N65 X1.411 Y8.534
N70 X2.703 Y9.685
N75 X2.307 Y10.92
N80 X1.383 Y11.83
N85 X.142 Y12.206
N90 X-1.132 Y11.962
N95 X-2.146 Y11.154
N100 X-2.669 Y9.967
N105 X-2.58 Y8.673
N110 X-1.9 Y7.569
N115 X-.785 Y6.907
N120 X.315 Y7.819
N125 X1.688 Y7.381
N130 X2.48 Y8.408
N135 X3.56 Y10.623
N140 X2.961 Y11.773
N145 X2.005 Y12.648
N150 X.808 Y13.144
N155 X-.488 Y13.201
N160 X-1.724 Y12.811
N165 X-2.752 Y12.022
N170 X-3.449 Y10.928
N175 X-3.729 Y9.662
N180 X-3.56 Y8.377
N185 X-2.961 Y7.227
N190 X-2.005 Y6.352
N195 X-.808 Y5.856
N200 X.51 Y6.839
N205 X1.724 Y6.189
N210 X2.752 Y6.978
N215 X3.449 Y8.072
N220 X3.729 Y9.338
N225 X4.819 Y9.733
N230 X4.61 Y10.924
N235 X4.111 Y12.026
N240 X3.353 Y12.969
N245 X2.385 Y13.694
N250 X1.267 Y14.155
N255 X.07 Y14.324
N260 X-1.132 Y14.19
N265 X-2.263 Y13.761
N270 X-3.252 Y13.065
N275 X-4.036 Y12.144
N280 X-4.567 Y11.057
N285 X-4.81 Y9.873
N290 X-4.752 Y8.665
N295 X-4.395 Y7.509
N300 X-3.762 Y6.479
N305 X-2.892 Y5.638
N310 X-1.841 Y5.04
N315 X-.674 Y4.722
N320 X.535 Y4.705
N325 X.488 Y5.799
N330 X1.711 Y4.989
N335 X2.779 Y5.556
N340 X3.673 Y6.371
N345 X4.336 Y7.383
N350 X4.726 Y8.527
N355 G80 Z35. M09
N360 G00 G90 M05
N365 G54 X160 Y0
N370 M30
%
