%
O00001
(This Post Processor is distributed on an "AS IS" BASIS, )
(WITHOUT WARRANTIES OR CONDITIONS OF ANY KIND, either express or implied. )
N5 G21 G17 G40 G80 G90
N10 T01 M06 (42>9:0)
N15 G54 G90 G94
N20 S9000 M03
N25 G00 G90 X6.148 Y1.726
N30 G43 H01 Z5. M08
N35 G98 G81 Z-1. R3. F1000.
N40 X9.51 Y2.356
N45 X8.795 Y3.453
N50 X7.514 Y3.722
N55 X6.417 Y3.007
N60 X6.863 Y.63
N65 X9.24 Y1.075
N70 X10.532 Y2.226
N75 X10.136 Y3.461
N80 X9.212 Y4.371
N85 X7.971 Y4.747
N90 X6.697 Y4.503
N95 X5.683 Y3.695
N100 X5.16 Y2.508
N105 X5.249 Y1.214
N110 X5.928 Y.11
N115 X7.043 Y-.552
N120 X8.144 Y.36
N125 X9.517 Y-.078
N130 X10.308 Y.949
N135 X11.389 Y3.164
N140 X10.79 Y4.314
N145 X9.834 Y5.189
N150 X8.636 Y5.685
N155 X7.341 Y5.742
N160 X6.105 Y5.352
N165 X5.077 Y4.563
N170 X4.38 Y3.469
N175 X4.1 Y2.204
N180 X4.269 Y.918
N185 X4.868 Y-.231
N190 X5.824 Y-1.107
N195 X7.021 Y-1.603
N200 X8.338 Y-.62
N205 X9.553 Y-1.27
N210 X10.581 Y-.48
N215 X11.277 Y.613
N220 X11.558 Y1.879
N225 X12.648 Y2.274
N230 X12.439 Y3.466
N235 X11.94 Y4.567
N240 X11.182 Y5.51
N245 X10.214 Y6.235
N250 X9.096 Y6.697
N255 X7.899 Y6.866
N260 X6.697 Y6.731
N265 X5.566 Y6.302
N270 X4.577 Y5.606
N275 X3.793 Y4.685
N280 X3.262 Y3.598
N285 X4.067 Y-.98
N290 X4.937 Y-1.821
N295 X5.988 Y-2.419
N300 X7.155 Y-2.736
N305 X8.364 Y-2.754
N310 X8.316 Y-1.66
N315 X9.54 Y-2.47
N320 X10.608 Y-1.903
N325 X11.502 Y-1.088
N330 X12.164 Y-.076
N335 X12.555 Y1.069
N340 G80 Z15. M09
N345 G00 G90 M05
N350 G54 X160 Y0
N355 M30
%
