%
O00001
(This Post Processor is distributed on an "AS IS" BASIS, )
(WITHOUT WARRANTIES OR CONDITIONS OF ANY KIND, either express or implied. )
N5 G21 G17 G40 G80 G90
N10 T01 M06 (42>9:0)
N15 G54 G90 G94
N20 S9000 M03
N25 G00 G90 X3.709 Y.3
N30 G43 H01 Z15. M08
N35 G98 G81 Z-.5 R5. F1000.
N40 X3.422 Y1.463
N45 X12.67 Y3.074
N50 X12.243 Y4.291
N55 X11.517 Y5.357
N60 X10.539 Y6.198
N65 X9.377 Y6.758
N70 X8.109 Y6.998
N75 X6.823 Y6.901
N80 X5.606 Y6.475
N85 X4.54 Y5.748
N90 X3.698 Y4.771
N95 X3.139 Y3.608
N100 X2.899 Y2.341
N105 X4.148 Y-1.229
N110 X5.126 Y-2.07
N115 X6.288 Y-2.63
N120 X7.556 Y-2.869
N125 X8.842 Y-2.773
N130 X10.06 Y-2.347
N135 X11.125 Y-1.62
N140 X11.967 Y-.642
N145 X12.526 Y.52
N150 X12.766 Y1.787
N155 G80 Z15. M09
N160 G00 G90 M05
N165 G54 X100 Y0
N170 M30
%
