%
O00001
(This Post Processor is distributed on an "AS IS" BASIS, )
(WITHOUT WARRANTIES OR CONDITIONS OF ANY KIND, either express or implied. )
N5 G21 G17 G40 G80 G90
N10 T01 M06 (42>9:0)
N15 G54 G90 G94
N20 S9000 M03
N25 G00 G90 X-2.337 Y-3.14
N30 G43 H01 Z5. M08
N35 G98 G81 Z-1. R3. F1000.
N40 X-3.196 Y-2.26
N45 X-3.702 Y1.272
N50 X-3.914 Y.06
N55 X-3.739 Y-1.157
N60 X-1.247 Y-3.71
N65 X-3.124 Y2.358
N70 X-4.827 Y1.924
N75 X-5.138 Y.775
N80 X-5.18 Y-.415
N85 X-4.949 Y-1.583
N90 X-4.459 Y-2.668
N95 X-3.735 Y-3.612
N100 X-2.815 Y-4.368
N105 X-1.747 Y-4.894
N110 X-.588 Y-5.163
N115 X-.034 Y-3.914
N120 X-2.239 Y3.211
N125 X-4.263 Y2.972
N130 X-5.774 Y2.584
N135 X-6.145 Y1.502
N140 X-6.315 Y.371
N145 X-6.278 Y-.772
N150 X-6.036 Y-1.89
N155 X-5.597 Y-2.947
N160 X-4.975 Y-3.906
N165 X-4.19 Y-4.739
N170 X-3.268 Y-5.416
N175 X-2.24 Y-5.916
N180 X-1.138 Y-6.222
N185 X.002 Y-6.325
N190 X1.141 Y-6.222
N195 X.602 Y-5.161
N200 X1.761 Y-4.889
N205 X1.182 Y-3.731
N210 X2.282 Y-3.18
N215 X-1.132 Y3.747
N220 X-3.475 Y3.864
N225 X-5.214 Y3.581
N230 X-7.584 Y.959
N235 X-7.636 Y-.373
N240 X-7.455 Y-1.693
N245 X-7.048 Y-2.962
N250 X-6.426 Y-4.14
N255 X-5.61 Y-5.194
N260 X-4.623 Y-6.089
N265 X-3.495 Y-6.799
N270 X-2.261 Y-7.303
N275 X-.959 Y-7.584
N280 X2.243 Y-5.915
N285 X2.827 Y-4.36
N290 X.087 Y3.913
N295 X-4.484 Y4.462
N300 X-7.303 Y2.261
N305 X-8.617 Y-1.854
N310 X-8.301 Y-2.963
N315 X-7.844 Y-4.021
N320 X-7.252 Y-5.011
N325 X-6.536 Y-5.914
N330 X-5.708 Y-6.717
N335 X-4.782 Y-7.404
N340 X-3.775 Y-7.965
N345 X-2.703 Y-8.39
N350 X-1.585 Y-8.671
N355 X-.439 Y-8.803
N360 X.714 Y-8.785
N365 X.373 Y-7.636
N370 X1.854 Y-8.617
N375 X1.693 Y-7.455
N380 X2.963 Y-8.301
N385 X4.021 Y-7.844
N390 X2.962 Y-7.048
N395 X3.271 Y-5.414
N400 X1.297 Y3.693
N405 X-5.194 Y5.61
N410 X-6.089 Y4.623
N415 X-6.799 Y3.495
N420 X-9.803 Y-1.711
N425 X-9.485 Y-3.012
N430 X-8.995 Y-4.258
N435 X-8.342 Y-5.427
N440 X-7.538 Y-6.497
N445 X-6.597 Y-7.45
N450 X-5.538 Y-8.268
N455 X-4.378 Y-8.937
N460 X-3.138 Y-9.444
N465 X-1.842 Y-9.779
N470 X-.513 Y-9.938
N475 X.826 Y-9.917
N480 X2.149 Y-9.717
N485 X3.434 Y-9.34
N490 X4.657 Y-8.795
N495 X4.14 Y-6.426
N500 G80 Z5. M09
N505 G00 G90 M05
N510 G54 X160 Y0
N515 M30
%
