%
O00001
(This Post Processor is distributed on an "AS IS" BASIS, )
(WITHOUT WARRANTIES OR CONDITIONS OF ANY KIND, either express or implied. )
N5 G21 G17 G40 G80 G90
N10 T01 M06 (42>9:0)
N15 G54 G90 G94
N20 S9000 M03
N25 G00 G90 X6.976 Y8.436
N30 G43 H01 Z5. M08
N35 G98 G81 Z-.5 R3. F1000.
N40 X6.35 Y9.083
N45 X-7.029 Y-9.518
N50 X-5.951 Y-10.227
N55 X-4.802 Y-10.814
N60 X-3.596 Y-11.272
N65 X-2.347 Y-11.597
N70 X-1.071 Y-11.783
N75 X.218 Y-11.83
N80 X1.505 Y-11.736
N85 X2.774 Y-11.502
N90 X4.009 Y-11.132
N95 X5.197 Y-10.629
N100 X6.324 Y-10.
N105 X7.375 Y-9.253
N110 X9.127 Y8.278
N115 X8.265 Y9.139
N120 X7.322 Y9.91
N125 X6.308 Y10.585
N130 X-9.823 Y-8.453
N135 X-8.905 Y-9.415
N140 X-7.893 Y-10.278
N145 X-6.798 Y-11.033
N150 X-5.632 Y-11.671
N155 X-4.406 Y-12.187
N160 X-3.134 Y-12.574
N165 X-1.829 Y-12.829
N170 X-.504 Y-12.949
N175 X2.147 Y-12.78
N180 X3.445 Y-12.493
N185 X4.707 Y-12.074
N190 X5.92 Y-11.528
N195 X7.07 Y-10.86
N200 X8.146 Y-10.079
N205 X9.136 Y-9.191
N210 X10.03 Y-8.206
N215 X11.322 Y7.366
N220 X10.515 Y8.479
N225 X9.598 Y9.504
N230 X8.583 Y10.43
N235 X7.478 Y11.248
N240 X6.296 Y11.95
N245 X5.049 Y12.528
N250 X-11.689 Y-7.717
N255 X-10.972 Y-8.706
N260 X-10.171 Y-9.629
N265 X-9.293 Y-10.479
N270 X-8.344 Y-11.249
N275 X-7.332 Y-11.934
N280 X-6.264 Y-12.527
N285 X-5.149 Y-13.026
N290 X-3.994 Y-13.425
N295 X-2.809 Y-13.722
N300 X-1.602 Y-13.914
N305 X.826 Y-12.933
N310 X2.054 Y-13.855
N315 X3.254 Y-13.623
N320 X4.429 Y-13.288
N325 X5.57 Y-12.851
N330 X6.669 Y-12.317
N335 X7.717 Y-11.689
N340 X8.706 Y-10.972
N345 X9.629 Y-10.171
N350 X10.479 Y-9.293
N355 X11.249 Y-8.344
N360 X11.934 Y-7.332
N365 X12.881 Y7.722
N370 X12.137 Y8.845
N375 X11.295 Y9.897
N380 X10.363 Y10.87
N385 X9.347 Y11.755
N390 X8.255 Y12.546
N395 X7.097 Y13.235
N400 X5.882 Y13.818
N405 X4.62 Y14.29
N410 X-13.521 Y-6.536
N415 X-12.881 Y-7.722
N420 X-12.137 Y-8.845
N425 X-11.295 Y-9.897
N430 X-10.363 Y-10.87
N435 X-9.347 Y-11.755
N440 X-8.255 Y-12.546
N445 X-7.097 Y-13.235
N450 X-5.882 Y-13.818
N455 X-4.62 Y-14.29
N460 X-3.321 Y-14.647
N465 X-1.994 Y-14.885
N470 X-.383 Y-14.001
N475 X-.652 Y-15.004
N480 X.839 Y-13.981
N485 X.696 Y-15.002
N490 X2.038 Y-14.879
N495 X3.363 Y-14.637
N500 X4.662 Y-14.276
N505 X5.923 Y-13.801
N510 X7.136 Y-13.215
N515 X8.292 Y-12.522
N520 X9.381 Y-11.728
N525 X10.394 Y-10.84
N530 X11.324 Y-9.865
N535 X12.163 Y-8.81
N540 X12.904 Y-7.684
N545 X13.54 Y-6.497
N550 X15.303 Y-4.827
N555 X15.642 Y-3.58
N560 X15.879 Y-2.31
N565 X14.655 Y6.535
N570 X14.082 Y7.693
N575 X13.417 Y8.801
N580 X12.665 Y9.852
N585 X11.832 Y10.839
N590 X10.921 Y11.756
N595 X9.94 Y12.597
N600 X8.894 Y13.356
N605 X7.79 Y14.028
N610 X6.636 Y14.609
N615 X5.439 Y15.096
N620 X4.207 Y15.485
N625 X2.947 Y15.773
N630 X1.668 Y15.959
N635 X.379 Y16.041
N640 X-.913 Y16.02
N645 X-2.199 Y15.894
N650 X-15.793 Y-2.838
N655 X-15.513 Y-4.099
N660 X-15.133 Y-5.334
N665 X-14.655 Y-6.535
N670 X-14.082 Y-7.693
N675 X-13.417 Y-8.801
N680 X-12.665 Y-9.852
N685 X-11.832 Y-10.839
N690 X-10.921 Y-11.756
N695 X-9.94 Y-12.597
N700 X-8.894 Y-13.356
N705 X-7.79 Y-14.028
N710 X-6.636 Y-14.609
N715 X-5.439 Y-15.096
N720 X-4.207 Y-15.485
N725 X-2.947 Y-15.773
N730 X-1.668 Y-15.959
N735 X-.379 Y-16.041
N740 X.913 Y-16.02
N745 X2.199 Y-15.894
N750 X3.471 Y-15.666
N755 X4.721 Y-15.336
N760 X5.939 Y-14.906
N765 X7.119 Y-14.38
N770 X8.253 Y-13.761
N775 X9.334 Y-13.052
N780 X10.354 Y-12.258
N785 X11.307 Y-11.385
N790 X12.186 Y-10.439
N795 X12.987 Y-9.424
N800 X13.703 Y-8.349
N805 X14.33 Y-7.219
N810 X14.865 Y-6.043
N815 G80 Z5. M09
N820 G00 G90 M05
N825 G54 X170 Y0
N830 M30
%
