%
O00001
(This Post Processor is distributed on an "AS IS" BASIS, )
(WITHOUT WARRANTIES OR CONDITIONS OF ANY KIND, either express or implied. )
N5 G21 G17 G40 G80 G90
N10 T01 M06 (42>9:0)
N15 G54 G90 G94
N20 S9000 M03
N25 G00 G90 X-.074 Y15.961
N30 G43 H01 Z5. M08
N35 G98 G81 Z-.2 R3. F1000.
N40 X-1.409 Y15.899
N45 X1.262 Y15.912
N50 X2.589 Y15.75
N55 X3.898 Y15.478
N60 X5.179 Y15.098
N65 X6.425 Y14.612
N70 X7.625 Y14.023
N75 X8.771 Y13.336
N80 X9.856 Y12.555
N85 X10.872 Y11.686
N90 X11.812 Y10.735
N95 X12.669 Y9.709
N100 X13.437 Y8.615
N105 X14.111 Y7.46
N110 X15.393 Y-4.221
N115 X14.986 Y-5.494
N120 X14.474 Y-6.729
N125 X13.86 Y-7.917
N130 X13.149 Y-9.049
N135 X12.346 Y-10.117
N140 X11.456 Y-11.115
N145 X10.486 Y-12.034
N150 X9.442 Y-12.87
N155 X8.332 Y-13.615
N160 X7.163 Y-14.264
N165 X5.945 Y-14.813
N170 X4.684 Y-15.259
N175 X3.391 Y-15.597
N180 X2.074 Y-15.826
N185 X.742 Y-15.944
N190 X-.594 Y-15.951
N195 X-1.927 Y-15.845
N200 X-3.246 Y-15.628
N205 X-4.543 Y-15.302
N210 X-5.807 Y-14.868
N215 X-7.031 Y-14.33
N220 X-8.205 Y-13.691
N225 X-9.322 Y-12.957
N230 X-10.374 Y-12.131
N235 X-11.352 Y-11.221
N240 X-12.251 Y-10.231
N245 X-13.065 Y-9.17
N250 X-13.786 Y-8.045
N255 X-14.411 Y-6.863
N260 X-14.935 Y-5.633
N265 X-15.354 Y-4.364
N270 X-15.665 Y-3.064
N275 G80 Z5. M09
N280 G00 G90 M05
N285 G54 X160 Y0
N290 M30
%
