%
O00001
(This Post Processor is distributed on an "AS IS" BASIS, )
(WITHOUT WARRANTIES OR CONDITIONS OF ANY KIND, either express or implied. )
N5 G21 G17 G40 G80 G90
N10 T01 M06 (42>9:0)
N15 G54 G90 G94
N20 S9000 M03
N25 G00 G90 X-7.997 Y5.023
N30 G43 H01 Z10. M08
N35 G98 G81 Z-.5 R3. F1000.
N40 X-8.629 Y3.836
N45 X-9.086 Y2.571
N50 X-7.202 Y6.108
N55 X-9.359 Y1.254
N60 X-6.261 Y7.069
N65 X-7.372 Y7.811
N70 X-8.224 Y6.909
N75 X-8.966 Y5.914
N80 X-9.588 Y4.84
N85 X-10.083 Y3.701
N90 X-10.443 Y2.513
N95 X-10.663 Y1.292
N100 X-10.741 Y.053
N105 X-9.443 Y-.088
N110 X-6.421 Y8.61
N115 X-7.405 Y9.526
N120 X-8.341 Y8.718
N125 X-9.189 Y7.818
N130 X-9.941 Y6.837
N135 X-10.589 Y5.783
N140 X-11.125 Y4.669
N145 X-11.545 Y3.506
N150 X-11.843 Y2.306
N155 X-12.017 Y1.081
N160 X-12.064 Y-.154
N165 X-11.985 Y-1.389
N170 X-11.78 Y-2.608
N175 X4.305 Y-3.421
N180 X3.569 Y-2.543
N185 X13.725 Y4.589
N190 X-6.391 Y10.234
N195 X-8.113 Y10.246
N200 X-9.024 Y9.454
N205 X-9.858 Y8.581
N210 X-10.608 Y7.635
N215 X-11.267 Y6.623
N220 X-11.83 Y5.555
N225 X-12.292 Y4.44
N230 X-12.649 Y3.287
N235 X-12.899 Y2.106
N240 X-13.038 Y.907
N245 X-13.066 Y-.3
N250 X-12.982 Y-1.504
N255 X-12.788 Y-2.696
N260 X-11.451 Y-3.8
N265 X7.413 Y-4.394
N270 X11.502 Y-2.895
N275 X14.187 Y3.113
N280 X13.71 Y5.259
N285 X-7.133 Y10.951
N290 X-11.053 Y9.239
N295 X-11.824 Y8.228
N300 X-12.504 Y7.154
N305 X-13.086 Y6.023
N310 X-13.566 Y4.846
N315 X-13.94 Y3.631
N320 X-14.206 Y2.387
N325 X-14.361 Y1.125
N330 X-14.405 Y-.146
N335 X-14.336 Y-1.415
N340 X-12.485 Y-3.864
N345 X-11.002 Y-4.952
N350 X4.708 Y-4.608
N355 X5.918 Y-4.275
N360 X8.969 Y-4.346
N365 X10.35 Y-3.714
N370 X12.621 Y-2.944
N375 X13.286 Y-1.779
N380 X13.824 Y-.109
N385 X14.365 Y1.481
N390 X15.251 Y2.936
N395 X14.969 Y4.194
N400 X14.499 Y5.393
N405 X-6.093 Y11.562
N410 X-10.195 Y10.177
N415 X-14.003 Y6.562
N420 X-14.503 Y5.367
N425 X-14.901 Y4.135
N430 X-15.195 Y2.873
N435 X-15.382 Y1.592
N440 X-15.461 Y.299
N445 X-14.155 Y-2.674
N450 X-12.075 Y-5.
N455 X5.503 Y-5.576
N460 X8.17 Y-5.696
N465 X9.468 Y-5.358
N470 X10.674 Y-4.77
N475 X11.739 Y-3.954
N480 X14.436 Y-2.077
N485 X14.927 Y-.886
N490 X15.23 Y.367
N495 X15.339 Y1.651
N500 X16.188 Y2.684
N505 X16.106 Y3.967
N510 X15.868 Y5.23
N515 X-4.869 Y13.558
N520 X-6.046 Y13.075
N525 X-7.175 Y12.491
N530 X-8.249 Y11.81
N535 X-9.258 Y11.037
N540 X-13.405 Y7.71
N545 X-16.027 Y3.116
N550 X-15.432 Y-.996
N555 X-14.86 Y-2.439
N560 X-13.864 Y-3.911
N565 X-10.437 Y-6.052
N570 X5.904 Y-6.666
N575 X7.191 Y-6.719
N580 X6.831 Y-5.769
N585 X8.472 Y-6.576
N590 X9.715 Y-6.239
N595 X10.893 Y-5.717
N600 X11.978 Y-5.022
N605 X12.945 Y-4.17
N610 X13.771 Y-3.181
N615 X15.499 Y-1.092
N620 X15.882 Y.135
N625 X16.113 Y1.4
N630 X17.158 Y2.986
N635 X16.946 Y4.039
N640 X16.59 Y5.053
N645 X-3.24 Y15.121
N650 X-4.493 Y14.797
N655 X-5.716 Y14.369
N660 X-6.898 Y13.84
N665 X-8.032 Y13.215
N670 X-9.11 Y12.496
N675 X-10.123 Y11.69
N680 X-11.066 Y10.802
N685 X-11.931 Y9.838
N690 X-12.713 Y8.805
N695 X-17.009 Y2.446
N700 X-17.146 Y1.153
N705 X-17.184 Y-.145
N710 X-17.124 Y-1.443
N715 X-12.661 Y-5.191
N720 X-11.562 Y-6.093
N725 X-9.763 Y-7.089
N730 X-8.458 Y-7.692
N735 X5.504 Y-7.876
N740 X6.789 Y-7.816
N745 X8.056 Y-7.6
N750 X9.288 Y-7.231
N755 X10.465 Y-6.715
N760 X11.571 Y-6.059
N765 X12.589 Y-5.274
N770 X13.503 Y-4.37
N775 X14.301 Y-3.362
N780 X14.97 Y-2.263
N785 X17.222 Y1.913
N790 G80 Z10. M09
N795 G00 G90 M05
N800 G54 X170 Y0
N805 M30
%
