%
O00001
(This Post Processor is distributed on an "AS IS" BASIS, )
(WITHOUT WARRANTIES OR CONDITIONS OF ANY KIND, either express or implied. )
N5 G21 G17 G40 G80 G90
N10 T01 M06 (42>9:0)
N15 G54 G90 G94
N20 S9000 M03
N25 G00 G90 X10.377 Y-3.688
N30 G43 H01 Z10. M08
N35 G98 G81 Z-.5 R3. F1000.
N40 X11.529 Y-2.869
N45 X5.945 Y-4.249
N50 X7.44 Y-4.368
N55 X8.996 Y-4.32
N60 X12.648 Y-2.918
N65 X13.313 Y-1.753
N70 X4.332 Y-3.395
N75 X5.53 Y-5.55
N80 X9.495 Y-5.332
N85 X10.701 Y-4.744
N90 X11.766 Y-3.928
N95 X13.798 Y-3.155
N100 X14.463 Y-2.051
N105 X14.954 Y-.86
N110 X13.851 Y-.083
N115 X3.596 Y-2.517
N120 X4.735 Y-4.581
N125 X5.931 Y-6.64
N130 X6.858 Y-5.743
N135 X7.218 Y-6.693
N140 X8.499 Y-6.55
N145 X9.742 Y-6.213
N150 X10.92 Y-5.691
N155 X12.005 Y-4.996
N160 X12.972 Y-4.144
N165 X14.328 Y-3.335
N170 X14.997 Y-2.237
N175 X15.526 Y-1.066
N180 X15.909 Y.162
N185 X15.257 Y.393
N190 X-14.483 Y1.045
N195 X-15.139 Y.61
N200 X-14.435 Y.26
N205 X5.531 Y-7.849
N210 X6.816 Y-7.79
N215 X8.083 Y-7.574
N220 X9.315 Y-7.205
N225 X10.492 Y-6.689
N230 X11.598 Y-6.033
N235 X12.616 Y-5.248
N240 X13.53 Y-4.344
N245 G80 Z10. M09
N250 G00 G90 M05
N255 G54 X160 Y0
N260 M30
%
