%
O00001
(This Post Processor is distributed on an "AS IS" BASIS, )
(WITHOUT WARRANTIES OR CONDITIONS OF ANY KIND, either express or implied. )
N5 G21 G17 G40 G80 G90
N10 T01 M06 (42>9:0)
N15 G54 G90 G94
N20 S9000 M03
N25 G00 G90 X16.256 Y.985
N30 G43 H01 Z25. M08
N35 G98 G81 Z-.5 R5. F1000.
N40 X17.001 Y1.888
N45 X17.262 Y2.942
N50 X17.04 Y4.095
N55 X16.819 Y5.248
N60 X15.533 Y5.514
N65 X14.291 Y5.455
N70 X13.065 Y5.41
N75 X11.883 Y6.631
N80 G80 Z25. M09
N85 G00 G90 M05
N90 G54 X160 Y0
N95 M30
%
