%
O00001
(This Post Processor is distributed on an "AS IS" BASIS, )
(WITHOUT WARRANTIES OR CONDITIONS OF ANY KIND, either express or implied. )
N5 G21 G17 G40 G80 G90
N10 T03 M06
N15 G54 G90 G94
N20 S10000 M03
N25 G00 G90 X3.624 Y1.288
N30 G43 H03 Z15. M08
N35 G98 G81 Z-4. R3. F1000.
N40 X2.495 Y2.927
N45 X.697 Y3.783
N50 X-1.288 Y3.624
N55 X-2.927 Y2.495
N60 X-3.783 Y.697
N65 X-3.624 Y-1.288
N70 X-2.495 Y-2.927
N75 X-.697 Y-3.783
N80 X1.288 Y-3.624
N85 X2.927 Y-2.495
N90 X3.783 Y-.697
N95 X5.733 Y1.642
N100 X4.889 Y3.415
N105 X3.515 Y4.817
N110 X1.761 Y5.698
N115 X-.185 Y5.961
N120 X-2.11 Y5.578
N125 X-3.807 Y4.59
N130 X-5.091 Y3.105
N135 X-5.824 Y1.284
N140 X-5.925 Y-.676
N145 X-5.384 Y-2.564
N150 X-4.26 Y-4.173
N155 X-2.674 Y-5.33
N160 X-.799 Y-5.91
N165 X1.163 Y-5.849
N170 X3. Y-5.154
N175 X4.511 Y-3.901
N180 X5.533 Y-2.225
N185 X5.956 Y-.308
N190 X8.037 Y.237
N195 X7.725 Y2.228
N200 X6.929 Y4.079
N205 X5.696 Y5.674
N210 X4.106 Y6.913
N215 X2.258 Y7.717
N220 X.268 Y8.036
N225 X-1.739 Y7.85
N230 X-3.636 Y7.171
N235 X-5.305 Y6.042
N240 X-6.641 Y4.532
N245 X-7.56 Y2.738
N250 X-8.003 Y.772
N255 X-7.944 Y-1.242
N260 X-7.385 Y-3.179
N265 X-6.363 Y-4.916
N270 X-4.94 Y-6.343
N275 X-3.208 Y-7.373
N280 X-1.273 Y-7.939
N285 X.741 Y-8.006
N290 X2.709 Y-7.57
N295 X4.506 Y-6.659
N300 X6.021 Y-5.329
N305 X7.157 Y-3.664
N310 X7.843 Y-1.769
N315 X9.703 Y1.935
N320 X9.115 Y3.849
N325 X8.154 Y5.605
N330 X6.858 Y7.132
N335 X5.282 Y8.366
N340 X3.49 Y9.258
N345 X1.555 Y9.771
N350 X-.444 Y9.884
N355 X-2.424 Y9.593
N360 X-4.306 Y8.908
N365 X-6.011 Y7.859
N370 X-7.47 Y6.488
N375 X-8.623 Y4.852
N380 X-9.423 Y3.017
N385 X-9.838 Y1.058
N390 X-9.849 Y-.944
N395 X-9.458 Y-2.907
N400 X-8.679 Y-4.751
N405 X-7.545 Y-6.401
N410 X-6.102 Y-7.789
N415 X-4.409 Y-8.858
N420 X-2.536 Y-9.564
N425 X-.559 Y-9.879
N430 X1.441 Y-9.789
N435 X3.382 Y-9.298
N440 X5.185 Y-8.427
N445 X6.775 Y-7.211
N450 X8.088 Y-5.699
N455 X9.07 Y-3.955
N460 X9.68 Y-2.048
N465 X9.894 Y-.057
N470 X11.763 Y1.087
N475 X11.424 Y3.008
N480 X10.773 Y4.847
N485 X9.828 Y6.554
N490 X8.616 Y8.083
N495 X7.168 Y9.39
N500 X5.524 Y10.442
N505 X3.73 Y11.209
N510 X1.834 Y11.67
N515 X-.111 Y11.813
N520 X-2.054 Y11.633
N525 X-3.941 Y11.137
N530 X-5.72 Y10.336
N535 X-7.344 Y9.254
N540 X-8.767 Y7.919
N545 X-9.95 Y6.368
N550 X-10.863 Y4.643
N555 X-11.479 Y2.792
N560 X-11.782 Y.864
N565 X-11.763 Y-1.087
N570 X-11.424 Y-3.008
N575 X-10.773 Y-4.847
N580 X-9.828 Y-6.554
N585 X-8.616 Y-8.083
N590 X-7.168 Y-9.39
N595 X-5.524 Y-10.442
N600 X-3.73 Y-11.209
N605 X-1.834 Y-11.67
N610 X.111 Y-11.813
N615 X2.054 Y-11.633
N620 X3.941 Y-11.137
N625 X5.72 Y-10.336
N630 X7.344 Y-9.254
N635 X8.767 Y-7.919
N640 X9.95 Y-6.368
N645 X10.863 Y-4.643
N650 X11.479 Y-2.792
N655 X11.782 Y-.864
N660 X13.814 Y.385
N665 X13.639 Y2.223
N670 X13.221 Y4.021
N675 X12.567 Y5.748
N680 X11.689 Y7.372
N685 X10.602 Y8.864
N690 X9.326 Y10.198
N695 X7.884 Y11.35
N700 X6.301 Y12.299
N705 X4.605 Y13.029
N710 X2.827 Y13.527
N715 X.999 Y13.783
N720 X-.847 Y13.793
N725 X-2.678 Y13.557
N730 X-4.461 Y13.08
N735 X-6.164 Y12.368
N740 X-7.758 Y11.436
N745 X-9.213 Y10.3
N750 X-10.504 Y8.98
N755 X-11.607 Y7.5
N760 X-12.503 Y5.886
N765 X-13.176 Y4.167
N770 X-13.614 Y2.374
N775 X-13.809 Y.538
N780 X-13.757 Y-1.307
N785 X-13.46 Y-3.129
N790 X-12.923 Y-4.895
N795 X-12.155 Y-6.574
N800 X-11.171 Y-8.136
N805 X-9.987 Y-9.552
N810 X-8.624 Y-10.798
N815 X-7.108 Y-11.851
N820 X-5.465 Y-12.693
N825 X-3.725 Y-13.308
N830 X-1.918 Y-13.686
N835 X-.076 Y-13.819
N840 X1.766 Y-13.706
N845 X3.577 Y-13.348
N850 X5.325 Y-12.752
N855 X6.977 Y-11.929
N860 X8.505 Y-10.893
N865 X9.88 Y-9.662
N870 X11.08 Y-8.259
N875 X12.082 Y-6.708
N880 X12.868 Y-5.038
N885 X13.425 Y-3.278
N890 X13.742 Y-1.459
N895 X15.708 Y1.503
N900 X15.434 Y3.284
N905 X14.959 Y5.022
N910 X14.289 Y6.694
N915 X13.433 Y8.279
N920 X12.402 Y9.757
N925 X11.209 Y11.107
N930 X9.87 Y12.312
N935 X8.402 Y13.357
N940 X6.825 Y14.228
N945 X5.158 Y14.913
N950 X3.425 Y15.404
N955 X1.646 Y15.694
N960 X-.153 Y15.779
N965 X-1.951 Y15.659
N970 X-3.723 Y15.334
N975 X-5.447 Y14.81
N980 X-7.1 Y14.092
N985 X-8.66 Y13.191
N990 X-10.107 Y12.118
N995 X-11.422 Y10.887
N1000 X-12.589 Y9.514
N1005 X-13.591 Y8.017
N1010 X-14.417 Y6.415
N1015 X-15.054 Y4.73
N1020 X-15.495 Y2.983
N1025 X-15.734 Y1.198
N1030 X-15.768 Y-.604
N1035 X-15.597 Y-2.397
N1040 X-15.222 Y-4.16
N1045 X-14.648 Y-5.868
N1050 X-13.884 Y-7.499
N1055 X-12.939 Y-9.033
N1060 X-11.825 Y-10.449
N1065 X-10.557 Y-11.729
N1070 X-9.151 Y-12.856
N1075 X-7.626 Y-13.815
N1080 X-6.001 Y-14.594
N1085 X-4.298 Y-15.183
N1090 X-2.54 Y-15.574
N1095 X-.748 Y-15.762
N1100 X1.054 Y-15.745
N1105 X2.842 Y-15.522
N1110 X4.592 Y-15.097
N1115 X6.283 Y-14.475
N1120 X7.892 Y-13.664
N1125 X9.399 Y-12.675
N1130 X10.782 Y-11.521
N1135 X12.025 Y-10.217
N1140 X13.112 Y-8.78
N1145 X14.027 Y-7.228
N1150 X14.76 Y-5.582
N1155 X15.3 Y-3.863
N1160 X15.64 Y-2.094
N1165 X15.777 Y-.297
N1170 X17.773 Y1.392
N1175 X17.53 Y3.242
N1180 X17.095 Y5.056
N1185 X16.473 Y6.815
N1190 X15.67 Y8.5
N1195 X14.696 Y10.091
N1200 X13.56 Y11.572
N1205 X12.276 Y12.926
N1210 X10.858 Y14.139
N1215 X9.321 Y15.196
N1220 X7.681 Y16.087
N1225 X5.958 Y16.802
N1230 X4.169 Y17.333
N1235 X2.334 Y17.674
N1240 X.474 Y17.821
N1245 X-1.392 Y17.773
N1250 X-3.242 Y17.53
N1255 X-5.056 Y17.095
N1260 X-6.815 Y16.473
N1265 X-8.5 Y15.67
N1270 X-10.091 Y14.696
N1275 X-11.572 Y13.56
N1280 X-12.926 Y12.276
N1285 X-14.139 Y10.858
N1290 X-15.196 Y9.321
N1295 X-16.087 Y7.681
N1300 X-16.802 Y5.958
N1305 X-17.333 Y4.169
N1310 X-17.674 Y2.334
N1315 X-17.821 Y.474
N1320 X-17.773 Y-1.392
N1325 X-17.53 Y-3.242
N1330 X-17.095 Y-5.056
N1335 X-16.473 Y-6.815
N1340 X-15.67 Y-8.5
N1345 X-14.696 Y-10.091
N1350 X-13.56 Y-11.572
N1355 X-12.276 Y-12.926
N1360 X-10.858 Y-14.139
N1365 X-9.321 Y-15.196
N1370 X-7.681 Y-16.087
N1375 X-5.958 Y-16.802
N1380 X-4.169 Y-17.333
N1385 X-2.334 Y-17.674
N1390 X-.474 Y-17.821
N1395 X1.392 Y-17.773
N1400 X3.242 Y-17.53
N1405 X5.056 Y-17.095
N1410 X6.815 Y-16.473
N1415 X8.5 Y-15.67
N1420 X10.091 Y-14.696
N1425 X11.572 Y-13.56
N1430 X12.926 Y-12.276
N1435 X14.139 Y-10.858
N1440 X15.196 Y-9.321
N1445 X16.087 Y-7.681
N1450 X16.802 Y-5.958
N1455 X17.333 Y-4.169
N1460 X17.674 Y-2.334
N1465 X17.821 Y-.474
N1470 G80 Z15. M09
N1475 G00 G90 M05
N1480 G54 X50 Y0
N1485 M30
%
