%
O00001
(This Post Processor is distributed on an "AS IS" BASIS, )
(WITHOUT WARRANTIES OR CONDITIONS OF ANY KIND, either express or implied. )
N5 G21 G17 G40 G80 G90
N10 T01 M06 (Ø12E30E75)
N15 G54 G90 G94
N20 S20000 M03
N25 G00 G90 X46.4 Y-1.4
N30 G43 H01 Z5. M08
N35 G01 Z-.3 F625.
N40 Y1.4 F2500.
N45 X-46.4
N50 Y-1.4
N55 X46.4
N60 Y-6.2
N65 X51.2
N70 Y6.2
N75 X-51.2
N80 Y-6.2
N85 X46.4
N90 Y-11.
N95 X56.
N100 Y11.
N105 X-56.
N110 Y-11.
N115 X46.4
N120 Y-15.8
N125 X60.8
N130 Y15.8
N135 X-60.8
N140 Y-15.8
N145 X46.4
N150 Y-20.6
N155 X65.6
N160 Y20.6
N165 X-65.6
N170 Y-20.6
N175 X46.4
N180 Y-25.4
N185 X70.4
N190 Y25.4
N195 X-70.4
N200 Y-25.4
N205 X46.4
N210 Y-30.2
N215 X75.2
N220 Y30.2
N225 X-75.2
N230 Y-30.2
N235 X46.4
N240 Y-35.
N245 X80.
N250 Y35.
N255 X-80.
N260 Y-35.
N265 X46.4
N270 Y-39.8
N275 X84.8
N280 Y39.8
N285 X-84.8
N290 Y-39.8
N295 X46.4
N300 Y-44.6
N305 X89.6
N310 Y44.6
N315 X-89.6
N320 Y-44.6
N325 X46.4
N330 Y-49.4
N335 X94.4
N340 Y49.4
N345 X-94.4
N350 Y-49.4
N355 X46.4
N360 Y-54.2
N365 X99.2
N370 Y54.2
N375 X-99.2
N380 Y-54.2
N385 X46.4
N390 Y-59.
N395 X104.
N400 Y59.
N405 X-104.
N410 Y-59.
N415 X46.4
N420 Y-63.8
N425 X108.8
N430 Y63.8
N435 X-108.8
N440 Y-63.8
N445 X46.4
N450 Y-68.6
N455 X113.6
N460 Y68.6
N465 X-113.6
N470 Y-68.6
N475 X46.4
N480 Y-73.4
N485 X118.4
N490 Y73.4
N495 X-118.4
N500 Y-73.4
N505 X46.4
N510 Y-78.2
N515 X123.2
N520 Y78.2
N525 X-123.2
N530 Y-78.2
N535 X46.4
N540 Y-83.
N545 X128.
N550 Y83.
N555 X-128.
N560 Y-83.
N565 X46.4
N570 Y-87.8
N575 X132.8
N580 Y87.8
N585 X-132.8
N590 Y-87.8
N595 X46.4
N600 Y-92.6
N605 X137.6
N610 Y92.6
N615 X-137.6
N620 Y-92.6
N625 X46.4
N630 Y-97.4
N635 X142.4
N640 Y97.4
N645 X-142.4
N650 Y-97.4
N655 X46.4
N660 Y-102.2
N665 X147.2
N670 Y102.2
N675 X-147.2
N680 Y-102.2
N685 X46.4
N690 Y-107.
N695 X152.
N700 Y107.
N705 X-152.
N710 Y-107.
N715 X46.4
N720 Y-111.8
N725 X156.8
N730 Y111.8
N735 X-156.8
N740 Y-111.8
N745 X46.4
N750 Y-116.6
N755 X161.6
N760 Y116.6
N765 X-161.6
N770 Y-116.6
N775 X46.4
N780 Y-121.4
N785 X166.4
N790 Y121.4
N795 X-166.4
N800 Y-121.4
N805 X46.4
N810 Y-126.2
N815 X171.2
N820 Y126.2
N825 X-171.2
N830 Y-126.2
N835 X46.4
N840 Y-131.
N845 X176.
N850 Y131.
N855 X-176.
N860 Y-131.
N865 X46.4
N870 X176.
N875 Y131.
N880 X-176.
N885 Y-131.
N890 X46.4
N895 G00 Z5.
N900 G01 Z25. F500. M09
N905 G00 G90 G53 G49 H0 Z0 M05
N910 G54 X0 Y0
N915 M30
%
