%
O00001
(This Post Processor is distributed on an "AS IS" BASIS, )
(WITHOUT WARRANTIES OR CONDITIONS OF ANY KIND, either express or implied. )
N5 G21 G17 G40 G80 G90
N10 T01 M06 (Ø12E30E75)
N15 G54 G90 G94
N20 S6557 M03
N25 G00 G90 X.45 Y-77.313
N30 G43 H01 Z.99 M08
N35 G01 Z-.01 F100.
N40 X-47.55
N45 G00 Z10.
N50 G90 G54 X.45 Y-77.313
N55 Z.98
N60 G01 Z-.02
N65 X-47.55
N70 G00 Z10.
N75 G90 G54 X.45 Y-77.313
N80 Z.97
N85 G01 Z-.03
N90 X-47.55
N95 G00 Z10.
N100 G90 G54 X.45 Y-77.313
N105 Z.96
N110 G01 Z-.04
N115 X-47.55
N120 G00 Z10.
N125 G90 G54 X.45 Y-77.313
N130 Z.95
N135 G01 Z-.05
N140 X-47.55
N145 G00 Z10.
N150 G01 Z25. F500. M09
N155 G00 G90 G53 G49 H0 Z0 M05
N160 G54 X0 Y0
N165 M30
%
