%
O00001
(This Post Processor is distributed on an "AS IS" BASIS, )
(WITHOUT WARRANTIES OR CONDITIONS OF ANY KIND, either express or implied. )
N5 G21 G17 G40 G80 G90
N10 T02 M06 (548=8F0)
N15 G54 G90 G94
N20 S23000 M03
N25 G00 G90 X-9.16 Y7.887
N30 G43 H02 Z10. M08
N35 G01 Z-.2 F750.
N40 X-9.654 Y7.725 F2250.
N45 G03 X-9.712 Y7.675 I.031 J-.095
N50 G01 X-11.324 Y4.487 F3000.
N55 G03 X-11.35 Y4.341 I.229 J-.116
N60 G02 X-12.075 Y.283 I-7.057 J-.833
N65 G03 X-9.377 Y-1.091 I4.168 J4.848
N70 G02 X0 Y9.44 I9.377 J1.091
N75 X7.573 Y2.058 I0 J-7.575
N80 G03 X8.083 Y2.133 I.26 J.007
N85 G02 X11.836 Y6.819 I3.573 J.984
N90 G03 X-7.598 Y11.352 I-11.836 J-6.819
N95 X-8.189 Y10.684 I.979 J-1.463
N100 G01 X-9.802 Y7.496
N105 G03 X-9.808 Y7.42 I.089 J-.045
N110 G01 X-9.646 Y6.926
N115 G00 Z10.
N120 G90 G54 X-9.16 Y7.887
N125 Z9.8
N130 G01 Z-.4 F750.
N135 X-9.654 Y7.725 F2250.
N140 G03 X-9.712 Y7.675 I.031 J-.095
N145 G01 X-11.324 Y4.487 F3000.
N150 G03 X-11.35 Y4.341 I.229 J-.116
N155 G02 X-12.075 Y.283 I-7.057 J-.833
N160 G03 X-9.377 Y-1.091 I4.168 J4.848
N165 G02 X0 Y9.44 I9.377 J1.091
N170 X7.573 Y2.058 I0 J-7.575
N175 G03 X8.083 Y2.133 I.26 J.007
N180 G02 X11.836 Y6.819 I3.573 J.984
N185 G03 X-7.598 Y11.352 I-11.836 J-6.819
N190 X-8.189 Y10.684 I.979 J-1.463
N195 G01 X-9.802 Y7.496
N200 G03 X-9.808 Y7.42 I.089 J-.045
N205 G01 X-9.646 Y6.926
N210 G00 Z10.
N215 G90 G54 X-9.16 Y7.887
N220 Z9.6
N225 G01 Z-.45 F750.
N230 X-9.654 Y7.725 F2250.
N235 G03 X-9.712 Y7.675 I.031 J-.095
N240 G01 X-11.324 Y4.487 F3000.
N245 G03 X-11.35 Y4.341 I.229 J-.116
N250 G02 X-12.075 Y.283 I-7.057 J-.833
N255 G03 X-9.377 Y-1.091 I4.168 J4.848
N260 G02 X0 Y9.44 I9.377 J1.091
N265 X7.573 Y2.058 I0 J-7.575
N270 G03 X8.083 Y2.133 I.26 J.007
N275 G02 X11.836 Y6.819 I3.573 J.984
N280 G03 X-7.598 Y11.352 I-11.836 J-6.819
N285 X-8.189 Y10.684 I.979 J-1.463
N290 G01 X-9.802 Y7.496
N295 G03 X-9.808 Y7.42 I.089 J-.045
N300 G01 X-9.646 Y6.926
N305 G00 Z10.
N310 G90 G54 X-9.392 Y8.004
N315 G01 Z-.2 F750.
N320 X-9.886 Y7.842 F2250.
N325 G03 X-9.944 Y7.792 I.031 J-.095
N330 G01 X-11.556 Y4.605 F3000.
N335 G03 X-11.609 Y4.311 I.461 J-.233
N340 G02 X-12.4 Y.224 I-6.799 J-.803
N345 G03 X-9.07 Y-1.42 I4.493 J4.907
N350 G02 X0 Y9.18 I9.07 J1.42
N355 X7.313 Y2.051 I0 J-7.315
N360 G03 X8.334 Y2.202 I.52 J.013
N365 G02 X12.251 Y6.511 I3.322 J.915
N370 G01 X12.295 Y6.528
N375 G03 X-7.742 Y11.568 I-12.295 J-6.528
N380 X-8.421 Y10.801 I1.124 J-1.679
N385 G01 X-10.034 Y7.614
N390 G03 X-10.04 Y7.537 I.089 J-.045
N395 G01 X-9.878 Y7.043
N400 G00 Z10.
N405 G90 G54 X-9.392 Y8.004
N410 Z9.8
N415 G01 Z-.4 F750.
N420 X-9.886 Y7.842 F2250.
N425 G03 X-9.944 Y7.792 I.031 J-.095
N430 G01 X-11.556 Y4.605 F3000.
N435 G03 X-11.609 Y4.311 I.461 J-.233
N440 G02 X-12.4 Y.224 I-6.799 J-.803
N445 G03 X-9.07 Y-1.42 I4.493 J4.907
N450 G02 X0 Y9.18 I9.07 J1.42
N455 X7.313 Y2.051 I0 J-7.315
N460 G03 X8.334 Y2.202 I.52 J.013
N465 G02 X12.251 Y6.511 I3.322 J.915
N470 G01 X12.295 Y6.528
N475 G03 X-7.742 Y11.568 I-12.295 J-6.528
N480 X-8.421 Y10.801 I1.124 J-1.679
N485 G01 X-10.034 Y7.614
N490 G03 X-10.04 Y7.537 I.089 J-.045
N495 G01 X-9.878 Y7.043
N500 G00 Z10.
N505 G90 G54 X-9.392 Y8.004
N510 Z9.6
N515 G01 Z-.45 F750.
N520 X-9.886 Y7.842 F2250.
N525 G03 X-9.944 Y7.792 I.031 J-.095
N530 G01 X-11.556 Y4.605 F3000.
N535 G03 X-11.609 Y4.311 I.461 J-.233
N540 G02 X-12.4 Y.224 I-6.799 J-.803
N545 G03 X-9.07 Y-1.42 I4.493 J4.907
N550 G02 X0 Y9.18 I9.07 J1.42
N555 X7.313 Y2.051 I0 J-7.315
N560 G03 X8.334 Y2.202 I.52 J.013
N565 G02 X12.251 Y6.511 I3.322 J.915
N570 G01 X12.295 Y6.528
N575 G03 X-7.742 Y11.568 I-12.295 J-6.528
N580 X-8.421 Y10.801 I1.124 J-1.679
N585 G01 X-10.034 Y7.614
N590 G03 X-10.04 Y7.537 I.089 J-.045
N595 G01 X-9.878 Y7.043
N600 G00 Z10.
N605 Z25. M09
N610 G00 G90 M05
N615 G54 Z50 X170 Y0
N620 M30
%
