%
O00001
(This Post Processor is distributed on an "AS IS" BASIS, )
(WITHOUT WARRANTIES OR CONDITIONS OF ANY KIND, either express or implied. )
N5 G21 G17 G40 G80 G90
N10 T02 M06 (548=8F0)
N15 G54 G90 G94
N20 S23000 M03
N25 G00 G90 X-14.375 Y0
N30 G43 H02 Z3. M08
N35 G01 Z-.2 F750.
N40 X-15.418 Y.51 F2250.
N45 X-15.81 Y.168
N50 G03 X-15.844 Y.1 I.066 J-.075
N55 X-15.847 Y0 I1.468 J-.1 F3000.
N60 I1.472 J0
N65 X-15.844 Y-.1 I1.472 J0
N70 X-15.81 Y-.168 I.1 J.007
N75 G01 X-15.418 Y-.51
N80 G00 Z3.
N85 G90 G54 X-14.375 Y0
N90 Z2.8
N95 G01 Z-.4 F750.
N100 X-15.418 Y.51 F2250.
N105 X-15.81 Y.168
N110 G03 X-15.844 Y.1 I.066 J-.075
N115 X-15.847 Y0 I1.468 J-.1 F3000.
N120 I1.472 J0
N125 X-15.844 Y-.1 I1.472 J0
N130 X-15.81 Y-.168 I.1 J.007
N135 G01 X-15.418 Y-.51
N140 G00 Z3.
N145 G90 G54 X-15.672 Y.515
N150 G01 Z-.2 F750.
N155 X-16.061 Y.169 F2250.
N160 G03 X-16.094 Y.1 I.066 J-.075
N165 X-16.097 Y0 I1.719 J-.1 F3000.
N170 I1.722 J0
N175 X-16.094 Y-.1 I1.722 J0
N180 X-16.061 Y-.169 I.1 J.006
N185 G01 X-15.672 Y-.515
N190 G00 Z3.
N195 G90 G54 X-15.672 Y.515
N200 Z2.8
N205 G01 Z-.4 F750.
N210 X-16.061 Y.169 F2250.
N215 G03 X-16.094 Y.1 I.066 J-.075
N220 X-16.097 Y0 I1.719 J-.1 F3000.
N225 I1.722 J0
N230 X-16.094 Y-.1 I1.722 J0
N235 X-16.061 Y-.169 I.1 J.006
N240 G01 X-15.672 Y-.515
N245 G00 Z3.
N250 Z25.
N255 G90 G54 X-14.375 Y0
N260 Z3.
N265 G01 Z-.6 F750.
N270 X-12.654 F2250.
N275 G02 I-1.722 J0 F300.
N280 G01 X-13.154
N285 G02 I-1.222 J0
N290 G01 X-13.654
N295 G02 I-.722 J0
N300 G01 X-14.154
N305 G02 I-.222 J0
N310 G00 Z3.
N315 Z25. M09
N320 G00 G90 M05
N325 G54 Z50 X0 Y0
N330 M30
%
