%
O00001
(This Post Processor is distributed on an "AS IS" BASIS, )
(WITHOUT WARRANTIES OR CONDITIONS OF ANY KIND, either express or implied. )
N5 G21 G17 G40 G80 G90
N10 T02 M06 (548=8F0)
N15 G54 G90 G94
N20 S23000 M03
N25 G00 G90 X-8.034 Y-2.723
N30 G43 H02 Z3. M08
N35 G01 Z-.2 F750.
N40 X-9.205 Y-2.21 F2250.
N45 X-9.595 Y-2.554
N50 G03 X-9.629 Y-2.623 I.066 J-.075
N55 X-9.632 Y-2.723 I1.595 J-.1 F3000.
N60 I1.598 J0
N65 X-9.629 Y-2.823 I1.598 J0
N70 X-9.595 Y-2.891 I.1 J.006
N75 G01 X-9.205 Y-3.235
N80 G00 Z3.
N85 G90 G54 X-8.034 Y-2.723
N90 Z2.8
N95 G01 Z-.4 F750.
N100 X-9.205 Y-2.21 F2250.
N105 X-9.595 Y-2.554
N110 G03 X-9.629 Y-2.623 I.066 J-.075
N115 X-9.632 Y-2.723 I1.595 J-.1 F3000.
N120 I1.598 J0
N125 X-9.629 Y-2.823 I1.598 J0
N130 X-9.595 Y-2.891 I.1 J.006
N135 G01 X-9.205 Y-3.235
N140 G00 Z3.
N145 G90 G54 X-9.459 Y-2.206
N150 G01 Z-.2 F750.
N155 X-9.846 Y-2.554 F2250.
N160 G03 X-9.88 Y-2.623 I.067 J-.074
N165 X-9.882 Y-2.723 I1.846 J-.1 F3000.
N170 I1.848 J0
N175 X-9.88 Y-2.823 I1.848 J0
N180 X-9.846 Y-2.892 I.1 J.005
N185 G01 X-9.459 Y-3.239
N190 G00 Z3.
N195 G90 G54 X-9.459 Y-2.206
N200 Z2.8
N205 G01 Z-.4 F750.
N210 X-9.846 Y-2.554 F2250.
N215 G03 X-9.88 Y-2.623 I.067 J-.074
N220 X-9.882 Y-2.723 I1.846 J-.1 F3000.
N225 I1.848 J0
N230 X-9.88 Y-2.823 I1.848 J0
N235 X-9.846 Y-2.892 I.1 J.005
N240 G01 X-9.459 Y-3.239
N245 G00 Z3.
N250 Z25.
N255 G90 G54 X-8.034 Y-2.723
N260 Z3.
N265 G01 Z-.6 F750.
N270 X-8.624 Y-4.474 F2250.
N275 X-8.688 Y-4.449 F300.
N280 X-8.791 Y-4.401
N285 X-8.891 Y-4.347
N290 X-8.988 Y-4.286
N295 X-9.08 Y-4.22
N300 X-9.168 Y-4.148
N305 X-9.251 Y-4.071
N310 X-9.329 Y-3.99
N315 X-9.402 Y-3.903
N320 X-9.469 Y-3.812
N325 X-9.53 Y-3.718
N330 X-9.585 Y-3.62
N335 X-9.634 Y-3.519
N340 X-9.676 Y-3.415
N345 X-9.711 Y-3.309
N350 X-9.74 Y-3.201
N355 X-9.762 Y-3.092
N360 X-9.777 Y-2.981
N365 X-9.784 Y-2.87
N370 X-9.785 Y-2.759
N375 X-9.779 Y-2.649
N380 X-9.766 Y-2.539
N385 X-9.746 Y-2.43
N390 X-9.719 Y-2.323
N395 X-9.685 Y-2.218
N400 X-9.645 Y-2.116
N405 X-9.598 Y-2.017
N410 X-9.546 Y-1.921
N415 X-9.487 Y-1.828
N420 X-9.423 Y-1.74
N425 X-9.353 Y-1.656
N430 X-9.278 Y-1.577
N435 X-9.198 Y-1.504
N440 X-9.114 Y-1.435
N445 X-9.026 Y-1.372
N450 X-8.934 Y-1.316
N455 X-8.839 Y-1.265
N460 X-8.74 Y-1.221
N465 X-8.64 Y-1.183
N470 X-8.537 Y-1.152
N475 X-8.433 Y-1.127
N480 X-8.327 Y-1.11
N485 X-8.221 Y-1.099
N490 X-8.114 Y-1.096
N495 X-8.008 Y-1.099
N500 X-7.902 Y-1.11
N505 X-7.798 Y-1.127
N510 X-7.695 Y-1.151
N515 X-7.594 Y-1.181
N520 X-7.495 Y-1.219
N525 X-7.399 Y-1.262
N530 X-7.307 Y-1.312
N535 X-7.218 Y-1.367
N540 X-7.133 Y-1.429
N545 X-7.053 Y-1.495
N550 X-6.977 Y-1.567
N555 X-6.906 Y-1.643
N560 X-6.841 Y-1.724
N565 X-6.782 Y-1.809
N570 X-6.728 Y-1.897
N575 X-6.68 Y-1.989
N580 X-6.639 Y-2.084
N585 X-6.605 Y-2.18
N590 X-6.576 Y-2.279
N595 X-6.555 Y-2.379
N600 X-6.541 Y-2.48
N605 X-6.533 Y-2.582
N610 X-6.532 Y-2.684
N615 X-6.539 Y-2.785
N620 X-6.552 Y-2.886
N625 X-6.571 Y-2.985
N630 X-6.598 Y-3.083
N635 X-6.631 Y-3.178
N640 X-6.67 Y-3.27
N645 X-6.716 Y-3.36
N650 X-6.767 Y-3.446
N655 X-6.824 Y-3.528
N660 X-6.886 Y-3.606
N665 X-6.954 Y-3.679
N670 X-7.026 Y-3.747
N675 X-7.103 Y-3.81
N680 X-7.183 Y-3.867
N685 X-7.267 Y-3.918
N690 X-7.355 Y-3.964
N695 X-7.445 Y-4.003
N700 X-7.537 Y-4.036
N705 X-7.631 Y-4.062
N710 X-7.727 Y-4.081
N715 X-7.823 Y-4.094
N720 X-7.92 Y-4.1
N725 X-8.017 Y-4.099
N730 X-8.113 Y-4.091
N735 X-8.209 Y-4.076
N740 X-8.303 Y-4.055
N745 X-8.394 Y-4.027
N750 X-8.484 Y-3.993
N755 X-8.57 Y-3.953
N760 X-8.654 Y-3.907
N765 X-8.733 Y-3.855
N770 X-8.809 Y-3.798
N775 X-8.88 Y-3.735
N780 X-8.946 Y-3.668
N785 X-9.007 Y-3.597
N790 X-9.063 Y-3.521
N795 X-9.113 Y-3.442
N800 X-9.157 Y-3.359
N805 X-9.195 Y-3.274
N810 X-9.226 Y-3.187
N815 X-9.251 Y-3.098
N820 X-9.27 Y-3.007
N825 X-9.281 Y-2.916
N830 X-9.286 Y-2.824
N835 X-9.285 Y-2.732
N840 X-9.276 Y-2.641
N845 X-9.261 Y-2.551
N850 X-9.239 Y-2.463
N855 X-9.211 Y-2.377
N860 X-9.177 Y-2.293
N865 X-9.137 Y-2.212
N870 X-9.091 Y-2.135
N875 X-9.04 Y-2.061
N880 X-8.983 Y-1.992
N885 X-8.922 Y-1.927
N890 X-8.856 Y-1.868
N895 X-8.786 Y-1.813
N900 X-8.712 Y-1.764
N905 X-8.635 Y-1.721
N910 X-8.555 Y-1.684
N915 X-8.473 Y-1.653
N920 X-8.39 Y-1.629
N925 X-8.304 Y-1.611
N930 X-8.218 Y-1.6
N935 X-8.132 Y-1.595
N940 X-8.046 Y-1.597
N945 X-7.96 Y-1.605
N950 X-7.876 Y-1.62
N955 X-7.793 Y-1.642
N960 X-7.712 Y-1.669
N965 X-7.634 Y-1.703
N970 X-7.559 Y-1.742
N975 X-7.488 Y-1.787
N980 X-7.421 Y-1.838
N985 X-7.358 Y-1.893
N990 X-7.299 Y-1.953
N995 X-7.246 Y-2.016
N1000 X-7.198 Y-2.084
N1005 X-7.156 Y-2.155
N1010 X-7.119 Y-2.229
N1015 X-7.089 Y-2.305
N1020 X-7.065 Y-2.383
N1025 X-7.047 Y-2.463
N1030 X-7.036 Y-2.543
N1035 X-7.031 Y-2.624
N1040 X-7.033 Y-2.704
N1045 X-7.041 Y-2.784
N1050 X-7.055 Y-2.863
N1055 X-7.076 Y-2.94
N1060 X-7.103 Y-3.014
N1065 X-7.135 Y-3.086
N1070 X-7.174 Y-3.155
N1075 X-7.217 Y-3.22
N1080 X-7.266 Y-3.282
N1085 X-7.319 Y-3.338
N1090 X-7.376 Y-3.39
N1095 X-7.438 Y-3.437
N1100 X-7.502 Y-3.478
N1105 X-7.57 Y-3.514
N1110 X-7.64 Y-3.544
N1115 X-7.712 Y-3.567
N1120 X-7.786 Y-3.585
N1125 X-7.86 Y-3.596
N1130 X-7.935 Y-3.601
N1135 X-8.009 Y-3.6
N1140 X-8.083 Y-3.592
N1145 X-8.155 Y-3.578
N1150 X-8.226 Y-3.558
N1155 X-8.294 Y-3.532
N1160 X-8.36 Y-3.501
N1165 X-8.422 Y-3.464
N1170 X-8.481 Y-3.422
N1175 X-8.535 Y-3.375
N1180 X-8.585 Y-3.324
N1185 X-8.63 Y-3.27
N1190 X-8.67 Y-3.211
N1195 X-8.704 Y-3.15
N1200 X-8.733 Y-3.086
N1205 X-8.756 Y-3.021
N1210 X-8.773 Y-2.954
N1215 X-8.783 Y-2.886
N1220 X-8.788 Y-2.818
N1225 X-8.786 Y-2.75
N1230 X-8.779 Y-2.683
N1235 X-8.765 Y-2.617
N1240 X-8.745 Y-2.553
N1245 X-8.72 Y-2.492
N1250 X-8.69 Y-2.433
N1255 X-8.655 Y-2.378
N1260 X-8.614 Y-2.327
N1265 X-8.57 Y-2.28
N1270 X-8.522 Y-2.238
N1275 X-8.47 Y-2.2
N1280 X-8.415 Y-2.168
N1285 X-8.358 Y-2.142
N1290 X-8.299 Y-2.121
N1295 X-8.239 Y-2.105
N1300 X-8.178 Y-2.096
N1305 X-8.117 Y-2.093
N1310 X-8.056 Y-2.095
N1315 X-7.997 Y-2.104
N1320 X-7.938 Y-2.118
N1325 X-7.882 Y-2.137
N1330 X-7.829 Y-2.162
N1335 X-7.779 Y-2.192
N1340 X-7.732 Y-2.226
N1345 X-7.689 Y-2.264
N1350 X-7.651 Y-2.306
N1355 X-7.617 Y-2.352
N1360 X-7.589 Y-2.4
N1365 X-7.565 Y-2.45
N1370 X-7.548 Y-2.502
N1375 X-7.536 Y-2.555
N1380 X-7.529 Y-2.609
N1385 X-7.528 Y-2.662
N1390 X-7.533 Y-2.715
N1395 X-7.543 Y-2.766
N1400 X-7.558 Y-2.815
N1405 X-7.578 Y-2.862
N1410 X-7.603 Y-2.906
N1415 X-7.633 Y-2.946
N1420 X-7.666 Y-2.983
N1425 X-7.702 Y-3.015
N1430 X-7.741 Y-3.043
N1435 X-7.783 Y-3.066
N1440 X-7.827 Y-3.084
N1445 X-7.871 Y-3.096
N1450 X-7.916 Y-3.104
N1455 X-7.961 Y-3.106
N1460 X-8.005 Y-3.103
N1465 X-8.048 Y-3.094
N1470 X-8.089 Y-3.081
N1475 X-8.127 Y-3.064
N1480 X-8.163 Y-3.042
N1485 X-8.195 Y-3.017
N1490 X-8.223 Y-2.988
N1495 X-8.247 Y-2.957
N1500 X-8.266 Y-2.924
N1505 X-8.28 Y-2.889
N1510 X-8.29 Y-2.853
N1515 X-8.295 Y-2.817
N1520 Y-2.782
N1525 X-8.29 Y-2.748
N1530 X-8.282 Y-2.716
N1535 X-8.269 Y-2.686
N1540 X-8.252 Y-2.658
N1545 X-8.232 Y-2.635
N1550 X-8.21 Y-2.615
N1555 X-8.186 Y-2.599
N1560 X-8.16 Y-2.588
N1565 X-8.134 Y-2.581
N1570 X-8.108 Y-2.578
N1575 X-8.084 Y-2.58
N1580 X-8.06 Y-2.585
N1585 X-8.04 Y-2.594
N1590 X-8.022 Y-2.607
N1595 X-8.008 Y-2.621
N1600 X-7.997 Y-2.638
N1605 X-7.991 Y-2.655
N1610 X-7.989 Y-2.672
N1615 X-7.992 Y-2.688
N1620 X-7.998 Y-2.702
N1625 X-8.008 Y-2.713
N1630 X-8.02 Y-2.72
N1635 X-8.034 Y-2.723
N1640 G00 Z3.
N1645 Z25.
N1650 Z3.
N1655 G01 Z-.6 F750.
N1660 X-9.205 Y-2.21 F2250.
N1665 X-9.595 Y-2.554
N1670 G03 X-9.629 Y-2.623 I.066 J-.075
N1675 X-9.632 Y-2.723 I1.595 J-.1 F3000.
N1680 I1.598 J0
N1685 X-9.629 Y-2.823 I1.598 J0
N1690 X-9.595 Y-2.891 I.1 J.006
N1695 G01 X-9.205 Y-3.235
N1700 G00 Z3.
N1705 G90 G54 X-9.459 Y-2.206
N1710 G01 Z-.6 F750.
N1715 X-9.846 Y-2.554 F2250.
N1720 G03 X-9.88 Y-2.623 I.067 J-.074
N1725 X-9.882 Y-2.723 I1.846 J-.1 F3000.
N1730 I1.848 J0
N1735 X-9.88 Y-2.823 I1.848 J0
N1740 X-9.846 Y-2.892 I.1 J.005
N1745 G01 X-9.459 Y-3.239
N1750 G00 Z3.
N1755 Z25. M09
N1760 G00 G90 M05
N1765 G54 Z50 X0 Y0
N1770 M30
%
