%
O00001
(This Post Processor is distributed on an "AS IS" BASIS, )
(WITHOUT WARRANTIES OR CONDITIONS OF ANY KIND, either express or implied. )
N5 G21 G17 G40 G80 G90
N10 T02 M06 (548=8F0)
N15 G54 G90 G94
N20 S23000 M03
N25 G00 G90 X15.595 Y7.335
N30 G43 H02 Z3. M08
N35 G01 Z-.2 F750.
N40 X12.721 Y7.861 F2250.
N45 X12.342 Y7.505
N50 G03 X12.311 Y7.435 I.069 J-.073
N55 X12.309 Y7.335 I3.285 J-.1 F3000.
N60 I3.286 J0
N65 X12.311 Y7.235 I3.286 J0
N70 X12.342 Y7.165 I.1 J.003
N75 G01 X12.721 Y6.809
N80 G00 Z3.
N85 G90 G54 X15.595 Y7.335
N90 Z2.8
N95 G01 Z-.4 F750.
N100 X12.721 Y7.861 F2250.
N105 X12.342 Y7.505
N110 G03 X12.311 Y7.435 I.069 J-.073
N115 X12.309 Y7.335 I3.285 J-.1 F3000.
N120 I3.286 J0
N125 X12.311 Y7.235 I3.286 J0
N130 X12.342 Y7.165 I.1 J.003
N135 G01 X12.721 Y6.809
N140 G00 Z3.
N145 G90 G54 X12.47 Y7.862
N150 G01 Z-.2 F750.
N155 X12.092 Y7.505 F2250.
N160 G03 X12.061 Y7.435 I.069 J-.073
N165 X12.059 Y7.335 I3.535 J-.1 F3000.
N170 I3.536 J0
N175 X12.061 Y7.235 I3.536 J0
N180 X12.092 Y7.165 I.1 J.003
N185 G01 X12.47 Y6.808
N190 G00 Z3.
N195 G90 G54 X12.47 Y7.862
N200 Z2.8
N205 G01 Z-.4 F750.
N210 X12.092 Y7.505 F2250.
N215 G03 X12.061 Y7.435 I.069 J-.073
N220 X12.059 Y7.335 I3.535 J-.1 F3000.
N225 I3.536 J0
N230 X12.061 Y7.235 I3.536 J0
N235 X12.092 Y7.165 I.1 J.003
N240 G01 X12.47 Y6.808
N245 G00 Z3.
N250 Z25.
N255 G90 G54 X15.595 Y7.335
N260 Z3.
N265 G01 Z-.6 F750.
N270 X15.632 F2250.
N275 G03 I-.036 J0 F300.
N280 G01 X16.132
N285 G03 I-.536 J0
N290 G01 X16.632
N295 G03 I-1.036 J0
N300 G01 X17.132
N305 G03 I-1.536 J0
N310 G01 X17.632
N315 G03 I-2.036 J0
N320 G01 X18.132
N325 G03 I-2.536 J0
N330 G01 X18.632
N335 G03 I-3.036 J0
N340 G01 X19.132
N345 G03 I-3.536 J0
N350 G00 Z3.
N355 Z25.
N360 G90 G54 X15.595 Y7.335
N365 Z3.
N370 G01 Z-.6 F750.
N375 X12.721 Y7.861 F2250.
N380 X12.342 Y7.505
N385 G03 X12.311 Y7.435 I.069 J-.073
N390 X12.309 Y7.335 I3.285 J-.1 F3000.
N395 I3.286 J0
N400 X12.311 Y7.235 I3.286 J0
N405 X12.342 Y7.165 I.1 J.003
N410 G01 X12.721 Y6.809
N415 G00 Z3.
N420 G90 G54 X12.47 Y7.862
N425 G01 Z-.6 F750.
N430 X12.092 Y7.505 F2250.
N435 G03 X12.061 Y7.435 I.069 J-.073
N440 X12.059 Y7.335 I3.535 J-.1 F3000.
N445 I3.536 J0
N450 X12.061 Y7.235 I3.536 J0
N455 X12.092 Y7.165 I.1 J.003
N460 G01 X12.47 Y6.808
N465 G00 Z3.
N470 Z25. M09
N475 G00 G90 M05
N480 G54 Z50 X0 Y0
N485 M30
%
