%
O00001
(This Post Processor is distributed on an "AS IS" BASIS, )
(WITHOUT WARRANTIES OR CONDITIONS OF ANY KIND, either express or implied. )
N5 G21 G17 G40 G80 G90
N10 T02 M06 (548=8F0)
N15 G54 G90 G94
N20 S23000 M03
N25 G00 G90 X8.931 Y0
N30 G43 H02 Z3. M08
N35 G01 Z-.2 F750.
N40 X6.833 Y.522 F2250.
N45 X6.451 Y.169
N50 G03 X6.419 Y.1 I.068 J-.073
N55 X6.417 Y0 I2.512 J-.1 F3000.
N60 I2.514 J0
N65 X6.419 Y-.1 I2.514 J0
N70 X6.451 Y-.169 I.1 J.004
N75 G01 X6.833 Y-.522
N80 G00 Z3.
N85 G90 G54 X8.931 Y0
N90 Z2.8
N95 G01 Z-.4 F750.
N100 X6.833 Y.522 F2250.
N105 X6.451 Y.169
N110 G03 X6.419 Y.1 I.068 J-.073
N115 X6.417 Y0 I2.512 J-.1 F3000.
N120 I2.514 J0
N125 X6.419 Y-.1 I2.514 J0
N130 X6.451 Y-.169 I.1 J.004
N135 G01 X6.833 Y-.522
N140 G00 Z3.
N145 G90 G54 X6.581 Y.524
N150 G01 Z-.2 F750.
N155 X6.2 Y.17 F2250.
N160 G03 X6.168 Y.1 I.068 J-.073
N165 X6.167 Y0 I2.762 J-.1 F3000.
N170 I2.764 J0
N175 X6.168 Y-.1 I2.764 J0
N180 X6.2 Y-.17 I.1 J.004
N185 G01 X6.581 Y-.524
N190 G00 Z3.
N195 G90 G54 X6.581 Y.524
N200 Z2.8
N205 G01 Z-.4 F750.
N210 X6.2 Y.17 F2250.
N215 G03 X6.168 Y.1 I.068 J-.073
N220 X6.167 Y0 I2.762 J-.1 F3000.
N225 I2.764 J0
N230 X6.168 Y-.1 I2.764 J0
N235 X6.2 Y-.17 I.1 J.004
N240 G01 X6.581 Y-.524
N245 G00 Z3.
N250 Z25.
N255 G90 G54 X8.931 Y0
N260 Z3.
N265 G01 Z-.6 F750.
N270 X6.213 Y-.502 F2250.
N275 X6.196 Y-.379 F300.
N280 X6.184 Y-.237
N285 X6.18 Y-.095
N290 X6.182 Y.047
N295 X6.193 Y.189
N300 X6.21 Y.33
N305 X6.235 Y.469
N310 X6.267 Y.607
N315 X6.306 Y.743
N320 X6.352 Y.877
N325 X6.405 Y1.008
N330 X6.464 Y1.136
N335 X6.53 Y1.261
N340 X6.603 Y1.382
N345 X6.681 Y1.499
N350 X6.765 Y1.611
N355 X6.856 Y1.719
N360 X6.951 Y1.822
N365 X7.052 Y1.92
N370 X7.157 Y2.013
N375 X7.267 Y2.099
N380 X7.382 Y2.18
N385 X7.5 Y2.254
N390 X7.622 Y2.323
N395 X7.748 Y2.384
N400 X7.876 Y2.439
N405 X8.007 Y2.487
N410 X8.14 Y2.528
N415 X8.275 Y2.562
N420 X8.411 Y2.589
N425 X8.549 Y2.609
N430 X8.687 Y2.621
N435 X8.826 Y2.626
N440 X8.965 Y2.624
N445 X9.103 Y2.614
N450 X9.24 Y2.597
N455 X9.376 Y2.573
N460 X9.511 Y2.542
N465 X9.643 Y2.504
N470 X9.773 Y2.458
N475 X9.901 Y2.406
N480 X10.026 Y2.348
N485 X10.147 Y2.282
N490 X10.264 Y2.211
N495 X10.377 Y2.133
N500 X10.486 Y2.05
N505 X10.59 Y1.961
N510 X10.69 Y1.867
N515 X10.784 Y1.767
N520 X10.872 Y1.663
N525 X10.955 Y1.555
N530 X11.031 Y1.442
N535 X11.102 Y1.325
N540 X11.166 Y1.205
N545 X11.223 Y1.082
N550 X11.274 Y.956
N555 X11.318 Y.827
N560 X11.355 Y.697
N565 X11.385 Y.564
N570 X11.407 Y.431
N575 X11.423 Y.296
N580 X11.431 Y.161
N585 Y.026
N590 X11.425 Y-.108
N595 X11.411 Y-.242
N600 X11.39 Y-.375
N605 X11.362 Y-.507
N610 X11.327 Y-.637
N615 X11.285 Y-.764
N620 X11.236 Y-.889
N625 X11.18 Y-1.011
N630 X11.118 Y-1.13
N635 X11.05 Y-1.245
N640 X10.975 Y-1.356
N645 X10.895 Y-1.462
N650 X10.809 Y-1.564
N655 X10.718 Y-1.662
N660 X10.622 Y-1.753
N665 X10.521 Y-1.84
N670 X10.415 Y-1.921
N675 X10.305 Y-1.995
N680 X10.192 Y-2.064
N685 X10.075 Y-2.126
N690 X9.955 Y-2.182
N695 X9.832 Y-2.23
N700 X9.707 Y-2.272
N705 X9.579 Y-2.307
N710 X9.451 Y-2.335
N715 X9.321 Y-2.356
N720 X9.19 Y-2.37
N725 X9.058 Y-2.376
N730 X8.927 Y-2.375
N735 X8.796 Y-2.367
N740 X8.666 Y-2.351
N745 X8.537 Y-2.329
N750 X8.41 Y-2.299
N755 X8.284 Y-2.262
N760 X8.161 Y-2.219
N765 X8.041 Y-2.169
N770 X7.924 Y-2.112
N775 X7.81 Y-2.049
N780 X7.7 Y-1.979
N785 X7.594 Y-1.904
N790 X7.493 Y-1.823
N795 X7.397 Y-1.737
N800 X7.305 Y-1.645
N805 X7.219 Y-1.549
N810 X7.138 Y-1.448
N815 X7.064 Y-1.343
N820 X6.995 Y-1.234
N825 X6.933 Y-1.121
N830 X6.877 Y-1.005
N835 X6.828 Y-.886
N840 X6.786 Y-.765
N845 X6.751 Y-.642
N850 X6.722 Y-.517
N855 X6.701 Y-.391
N860 X6.687 Y-.264
N865 X6.68 Y-.137
N870 Y-.009
N875 X6.688 Y.118
N880 X6.703 Y.244
N885 X6.725 Y.369
N890 X6.754 Y.493
N895 X6.789 Y.615
N900 X6.832 Y.734
N905 X6.881 Y.85
N910 X6.937 Y.964
N915 X6.999 Y1.074
N920 X7.068 Y1.18
N925 X7.142 Y1.281
N930 X7.221 Y1.379
N935 X7.307 Y1.471
N940 X7.397 Y1.559
N945 X7.492 Y1.64
N950 X7.591 Y1.717
N955 X7.694 Y1.787
N960 X7.801 Y1.851
N965 X7.912 Y1.909
N970 X8.025 Y1.961
N975 X8.142 Y2.005
N980 X8.26 Y2.043
N985 X8.38 Y2.074
N990 X8.502 Y2.098
N995 X8.625 Y2.114
N1000 X8.748 Y2.124
N1005 X8.872 Y2.126
N1010 X8.995 Y2.122
N1015 X9.118 Y2.11
N1020 X9.24 Y2.091
N1025 X9.36 Y2.065
N1030 X9.478 Y2.032
N1035 X9.594 Y1.992
N1040 X9.708 Y1.945
N1045 X9.818 Y1.892
N1050 X9.925 Y1.833
N1055 X10.028 Y1.768
N1060 X10.127 Y1.697
N1065 X10.222 Y1.62
N1070 X10.312 Y1.538
N1075 X10.396 Y1.451
N1080 X10.476 Y1.359
N1085 X10.549 Y1.262
N1090 X10.617 Y1.162
N1095 X10.679 Y1.058
N1100 X10.734 Y.951
N1105 X10.783 Y.84
N1110 X10.825 Y.728
N1115 X10.86 Y.613
N1120 X10.889 Y.496
N1125 X10.91 Y.378
N1130 X10.924 Y.259
N1135 X10.931 Y.139
N1140 Y.02
N1145 X10.924 Y-.099
N1150 X10.91 Y-.218
N1155 X10.889 Y-.335
N1160 X10.861 Y-.45
N1165 X10.826 Y-.564
N1170 X10.784 Y-.675
N1175 X10.736 Y-.783
N1180 X10.681 Y-.888
N1185 X10.621 Y-.989
N1190 X10.554 Y-1.086
N1195 X10.482 Y-1.179
N1200 X10.404 Y-1.267
N1205 X10.321 Y-1.351
N1210 X10.234 Y-1.429
N1215 X10.142 Y-1.501
N1220 X10.046 Y-1.568
N1225 X9.946 Y-1.629
N1230 X9.843 Y-1.683
N1235 X9.737 Y-1.731
N1240 X9.628 Y-1.773
N1245 X9.517 Y-1.807
N1250 X9.405 Y-1.835
N1255 X9.291 Y-1.856
N1260 X9.176 Y-1.869
N1265 X9.061 Y-1.876
N1270 X8.945
N1275 X8.83 Y-1.868
N1280 X8.716 Y-1.853
N1285 X8.603 Y-1.832
N1290 X8.492 Y-1.804
N1295 X8.383 Y-1.768
N1300 X8.277 Y-1.727
N1305 X8.174 Y-1.678
N1310 X8.074 Y-1.624
N1315 X7.977 Y-1.564
N1320 X7.885 Y-1.497
N1325 X7.797 Y-1.426
N1330 X7.714 Y-1.349
N1335 X7.636 Y-1.267
N1340 X7.563 Y-1.18
N1345 X7.496 Y-1.09
N1350 X7.435 Y-.995
N1355 X7.38 Y-.897
N1360 X7.331 Y-.796
N1365 X7.289 Y-.692
N1370 X7.253 Y-.586
N1375 X7.225 Y-.478
N1380 X7.203 Y-.369
N1385 X7.188 Y-.258
N1390 X7.18 Y-.148
N1395 X7.179 Y-.037
N1400 X7.186 Y.074
N1405 X7.199 Y.184
N1410 X7.219 Y.293
N1415 X7.246 Y.399
N1420 X7.28 Y.504
N1425 X7.32 Y.607
N1430 X7.366 Y.706
N1435 X7.419 Y.802
N1440 X7.478 Y.894
N1445 X7.542 Y.982
N1450 X7.612 Y1.066
N1455 X7.687 Y1.145
N1460 X7.766 Y1.219
N1465 X7.851 Y1.287
N1470 X7.939 Y1.35
N1475 X8.031 Y1.407
N1480 X8.126 Y1.458
N1485 X8.224 Y1.502
N1490 X8.325 Y1.54
N1495 X8.428 Y1.571
N1500 X8.532 Y1.595
N1505 X8.637 Y1.613
N1510 X8.744 Y1.623
N1515 X8.85 Y1.627
N1520 X8.956 Y1.624
N1525 X9.062 Y1.613
N1530 X9.167 Y1.596
N1535 X9.27 Y1.572
N1540 X9.371 Y1.541
N1545 X9.469 Y1.504
N1550 X9.565 Y1.46
N1555 X9.658 Y1.411
N1560 X9.747 Y1.355
N1565 X9.831 Y1.294
N1570 X9.912 Y1.227
N1575 X9.988 Y1.156
N1580 X10.058 Y1.079
N1585 X10.123 Y.998
N1590 X10.183 Y.914
N1595 X10.237 Y.825
N1600 X10.284 Y.734
N1605 X10.325 Y.639
N1610 X10.36 Y.542
N1615 X10.388 Y.444
N1620 X10.41 Y.343
N1625 X10.424 Y.242
N1630 X10.432 Y.141
N1635 Y.039
N1640 X10.426 Y-.063
N1645 X10.413 Y-.163
N1650 X10.393 Y-.262
N1655 X10.367 Y-.36
N1660 X10.334 Y-.455
N1665 X10.294 Y-.548
N1670 X10.249 Y-.637
N1675 X10.198 Y-.723
N1680 X10.141 Y-.805
N1685 X10.078 Y-.883
N1690 X10.011 Y-.956
N1695 X9.939 Y-1.024
N1700 X9.862 Y-1.087
N1705 X9.781 Y-1.144
N1710 X9.697 Y-1.196
N1715 X9.61 Y-1.241
N1720 X9.52 Y-1.28
N1725 X9.428 Y-1.313
N1730 X9.333 Y-1.339
N1735 X9.238 Y-1.358
N1740 X9.141 Y-1.371
N1745 X9.044 Y-1.377
N1750 X8.948 Y-1.376
N1755 X8.851 Y-1.368
N1760 X8.756 Y-1.354
N1765 X8.662 Y-1.332
N1770 X8.57 Y-1.305
N1775 X8.481 Y-1.271
N1780 X8.394 Y-1.23
N1785 X8.311 Y-1.184
N1790 X8.231 Y-1.132
N1795 X8.156 Y-1.075
N1800 X8.085 Y-1.013
N1805 X8.018 Y-.945
N1810 X7.957 Y-.874
N1815 X7.902 Y-.798
N1820 X7.852 Y-.719
N1825 X7.808 Y-.637
N1830 X7.77 Y-.552
N1835 X7.738 Y-.464
N1840 X7.713 Y-.375
N1845 X7.695 Y-.284
N1850 X7.683 Y-.193
N1855 X7.678 Y-.101
N1860 X7.68 Y-.01
N1865 X7.689 Y.082
N1870 X7.704 Y.171
N1875 X7.725 Y.26
N1880 X7.753 Y.346
N1885 X7.787 Y.43
N1890 X7.828 Y.511
N1895 X7.874 Y.588
N1900 X7.925 Y.661
N1905 X7.982 Y.731
N1910 X8.043 Y.795
N1915 X8.109 Y.855
N1920 X8.179 Y.909
N1925 X8.253 Y.958
N1930 X8.33 Y1.001
N1935 X8.409 Y1.038
N1940 X8.491 Y1.069
N1945 X8.575 Y1.094
N1950 X8.66 Y1.112
N1955 X8.746 Y1.123
N1960 X8.833 Y1.128
N1965 X8.919 Y1.126
N1970 X9.005 Y1.117
N1975 X9.089 Y1.102
N1980 X9.172 Y1.081
N1985 X9.252 Y1.053
N1990 X9.33 Y1.02
N1995 X9.405 Y.98
N2000 X9.477 Y.935
N2005 X9.544 Y.885
N2010 X9.607 Y.83
N2015 X9.665 Y.77
N2020 X9.719 Y.706
N2025 X9.767 Y.639
N2030 X9.809 Y.568
N2035 X9.845 Y.494
N2040 X9.876 Y.418
N2045 X9.9 Y.339
N2050 X9.918 Y.26
N2055 X9.929 Y.18
N2060 X9.934 Y.099
N2065 X9.932 Y.018
N2070 X9.924 Y-.062
N2075 X9.909 Y-.14
N2080 X9.889 Y-.217
N2085 X9.862 Y-.292
N2090 X9.829 Y-.364
N2095 X9.791 Y-.433
N2100 X9.747 Y-.498
N2105 X9.699 Y-.559
N2110 X9.646 Y-.616
N2115 X9.588 Y-.667
N2120 X9.527 Y-.714
N2125 X9.462 Y-.756
N2130 X9.395 Y-.791
N2135 X9.324 Y-.821
N2140 X9.252 Y-.845
N2145 X9.179 Y-.862
N2150 X9.105 Y-.873
N2155 X9.03 Y-.878
N2160 X8.956 Y-.877
N2165 X8.882 Y-.869
N2170 X8.809 Y-.855
N2175 X8.739 Y-.835
N2180 X8.67 Y-.809
N2185 X8.605 Y-.778
N2190 X8.543 Y-.741
N2195 X8.484 Y-.699
N2200 X8.429 Y-.653
N2205 X8.38 Y-.602
N2210 X8.334 Y-.547
N2215 X8.295 Y-.489
N2220 X8.26 Y-.427
N2225 X8.232 Y-.364
N2230 X8.209 Y-.298
N2235 X8.192 Y-.231
N2240 X8.181 Y-.163
N2245 X8.177 Y-.095
N2250 X8.178 Y-.027
N2255 X8.186 Y.04
N2260 X8.2 Y.106
N2265 X8.219 Y.169
N2270 X8.244 Y.231
N2275 X8.275 Y.289
N2280 X8.31 Y.344
N2285 X8.35 Y.396
N2290 X8.395 Y.443
N2295 X8.443 Y.485
N2300 X8.495 Y.522
N2305 X8.549 Y.554
N2310 X8.606 Y.581
N2315 X8.665 Y.602
N2320 X8.726 Y.617
N2325 X8.787 Y.627
N2330 X8.848 Y.63
N2335 X8.908 Y.627
N2340 X8.968 Y.619
N2345 X9.026 Y.605
N2350 X9.082 Y.586
N2355 X9.136 Y.561
N2360 X9.186 Y.531
N2365 X9.233 Y.497
N2370 X9.276 Y.458
N2375 X9.314 Y.416
N2380 X9.347 Y.371
N2385 X9.376 Y.323
N2390 X9.399 Y.272
N2395 X9.417 Y.221
N2400 X9.429 Y.168
N2405 X9.436 Y.114
N2410 X9.437 Y.061
N2415 X9.432 Y.008
N2420 X9.422 Y-.043
N2425 X9.407 Y-.092
N2430 X9.386 Y-.139
N2435 X9.361 Y-.183
N2440 X9.332 Y-.224
N2445 X9.299 Y-.26
N2450 X9.263 Y-.293
N2455 X9.223 Y-.32
N2460 X9.182 Y-.343
N2465 X9.138 Y-.361
N2470 X9.094 Y-.374
N2475 X9.049 Y-.381
N2480 X9.004 Y-.383
N2485 X8.959 Y-.38
N2490 X8.917 Y-.372
N2495 X8.876 Y-.359
N2500 X8.837 Y-.341
N2505 X8.802 Y-.319
N2510 X8.77 Y-.294
N2515 X8.742 Y-.266
N2520 X8.718 Y-.234
N2525 X8.699 Y-.201
N2530 X8.684 Y-.166
N2535 X8.675 Y-.13
N2540 X8.67 Y-.095
N2545 Y-.059
N2550 X8.674 Y-.025
N2555 X8.683 Y.007
N2560 X8.696 Y.037
N2565 X8.713 Y.064
N2570 X8.733 Y.088
N2575 X8.755 Y.108
N2580 X8.779 Y.124
N2585 X8.805 Y.135
N2590 X8.831 Y.142
N2595 X8.856 Y.145
N2600 X8.881 Y.143
N2605 X8.904 Y.138
N2610 X8.925 Y.128
N2615 X8.943 Y.116
N2620 X8.957 Y.102
N2625 X8.967 Y.085
N2630 X8.973 Y.068
N2635 X8.975 Y.051
N2640 X8.973 Y.035
N2645 X8.967 Y.021
N2650 X8.957 Y.01
N2655 X8.945 Y.003
N2660 X8.931 Y0
N2665 G00 Z3.
N2670 Z25.
N2675 Z3.
N2680 G01 Z-.6 F750.
N2685 X6.833 Y.522 F2250.
N2690 X6.451 Y.169
N2695 G03 X6.419 Y.1 I.068 J-.073
N2700 X6.417 Y0 I2.512 J-.1 F3000.
N2705 I2.514 J0
N2710 X6.419 Y-.1 I2.514 J0
N2715 X6.451 Y-.169 I.1 J.004
N2720 G01 X6.833 Y-.522
N2725 G00 Z3.
N2730 G90 G54 X6.581 Y.524
N2735 G01 Z-.6 F750.
N2740 X6.2 Y.17 F2250.
N2745 G03 X6.168 Y.1 I.068 J-.073
N2750 X6.167 Y0 I2.762 J-.1 F3000.
N2755 I2.764 J0
N2760 X6.168 Y-.1 I2.764 J0
N2765 X6.2 Y-.17 I.1 J.004
N2770 G01 X6.581 Y-.524
N2775 G00 Z3.
N2780 Z25. M09
N2785 G00 G90 M05
N2790 G54 Z50 X0 Y0
N2795 M30
%
