%
O00001
(This Post Processor is distributed on an "AS IS" BASIS, )
(WITHOUT WARRANTIES OR CONDITIONS OF ANY KIND, either express or implied. )
N5 G21 G17 G40 G80 G90
N10 T02 M06 (548=8F0)
N15 G54 G90 G94
N20 S23000 M03
N25 G00 G90 X-.147 Y10.888
N30 G43 H02 Z3. M08
N35 G01 Z-.2 F750.
N40 X.221 Y11.255 F2250.
N45 G03 X.25 Y11.326 I-.071 J.071
N50 G01 Y20.06 F3000.
N55 G03 X-.25 I-.25 J0
N60 G01 Y2.792
N65 G03 X.25 I.25 J0
N70 G01 Y11.526
N75 G03 X.221 Y11.597 I-.1 J0
N80 G01 X-.147 Y11.964
N85 G00 Z3.
N90 G90 G54 X-.147 Y10.888
N95 Z2.8
N100 G01 Z-.4 F750.
N105 X.221 Y11.255 F2250.
N110 G03 X.25 Y11.326 I-.071 J.071
N115 G01 Y20.06 F3000.
N120 G03 X-.25 I-.25 J0
N125 G01 Y2.792
N130 G03 X.25 I.25 J0
N135 G01 Y11.526
N140 G03 X.221 Y11.597 I-.1 J0
N145 G01 X-.147 Y11.964
N150 G00 Z3.
N155 G90 G54 X-.147 Y10.888
N160 Z2.6
N165 G01 Z-.6 F750.
N170 X.221 Y11.255 F2250.
N175 G03 X.25 Y11.326 I-.071 J.071
N180 G01 Y20.06 F3000.
N185 G03 X-.25 I-.25 J0
N190 G01 Y2.792
N195 G03 X.25 I.25 J0
N200 G01 Y11.526
N205 G03 X.221 Y11.597 I-.1 J0
N210 G01 X-.147 Y11.964
N215 G00 Z3.
N220 G90 G54 X-.147 Y10.888
N225 Z2.4
N230 G01 Z-.7 F750.
N235 X.221 Y11.255 F2250.
N240 G03 X.25 Y11.326 I-.071 J.071
N245 G01 Y20.06 F3000.
N250 G03 X-.25 I-.25 J0
N255 G01 Y2.792
N260 G03 X.25 I.25 J0
N265 G01 Y11.526
N270 G03 X.221 Y11.597 I-.1 J0
N275 G01 X-.147 Y11.964
N280 G00 Z3.
N285 G90 G54 X.103 Y10.888
N290 G01 Z-.2 F750.
N295 X.471 Y11.255 F2250.
N300 G03 X.5 Y11.326 I-.071 J.071
N305 G01 Y20.06 F3000.
N310 G03 X-.5 I-.5 J0
N315 G01 Y2.792
N320 G03 X.5 I.5 J0
N325 G01 Y11.526
N330 G03 X.471 Y11.597 I-.1 J0
N335 G01 X.103 Y11.964
N340 G00 Z3.
N345 G90 G54 X.103 Y10.888
N350 Z2.8
N355 G01 Z-.4 F750.
N360 X.471 Y11.255 F2250.
N365 G03 X.5 Y11.326 I-.071 J.071
N370 G01 Y20.06 F3000.
N375 G03 X-.5 I-.5 J0
N380 G01 Y2.792
N385 G03 X.5 I.5 J0
N390 G01 Y11.526
N395 G03 X.471 Y11.597 I-.1 J0
N400 G01 X.103 Y11.964
N405 G00 Z3.
N410 G90 G54 X.103 Y10.888
N415 Z2.6
N420 G01 Z-.6 F750.
N425 X.471 Y11.255 F2250.
N430 G03 X.5 Y11.326 I-.071 J.071
N435 G01 Y20.06 F3000.
N440 G03 X-.5 I-.5 J0
N445 G01 Y2.792
N450 G03 X.5 I.5 J0
N455 G01 Y11.526
N460 G03 X.471 Y11.597 I-.1 J0
N465 G01 X.103 Y11.964
N470 G00 Z3.
N475 G90 G54 X.103 Y10.888
N480 Z2.4
N485 G01 Z-.7 F750.
N490 X.471 Y11.255 F2250.
N495 G03 X.5 Y11.326 I-.071 J.071
N500 G01 Y20.06 F3000.
N505 G03 X-.5 I-.5 J0
N510 G01 Y2.792
N515 G03 X.5 I.5 J0
N520 G01 Y11.526
N525 G03 X.471 Y11.597 I-.1 J0
N530 G01 X.103 Y11.964
N535 G00 Z3.
N540 Z25. M09
N545 G00 G90 G53 M05
N550 G54 Z50 X170 Y0
N555 M30
%
