%
O00001
(This Post Processor is distributed on an "AS IS" BASIS, )
(WITHOUT WARRANTIES OR CONDITIONS OF ANY KIND, either express or implied. )
N5 G21 G17 G40 G80 G90
N10 T02 M06 (perlage)
N15 G54 G90 G94
N20 S5000 M03
N25 G00 G90 X0 Y-14.419
N30 G43 H02 Z5. M08
N35 G98 G81 Z-.3 R3. F50.
N40 Y-13.919
N45 Y-13.419
N50 Y-12.919
N55 Y-12.419
N60 Y-11.919
N65 Y-11.419
N70 Y-10.919
N75 Y-10.419
N80 Y-9.919
N85 Y-9.419
N90 Y-8.919
N95 Y-8.419
N100 Y-7.919
N105 Y-7.419
N110 Y-6.919
N115 Y-6.419
N120 Y-5.919
N125 Y-5.419
N130 Y-4.919
N135 Y-4.419
N140 Y-3.919
N145 Y-3.419
N150 Y-2.919
N155 Y-2.419
N160 Y-1.919
N165 Y-1.419
N170 Y-.919
N175 Y-.419
N180 Y.081
N185 Y.581
N190 Y1.081
N195 Y1.581
N200 Y2.081
N205 Y2.581
N210 Y3.081
N215 Y3.581
N220 Y4.081
N225 Y4.581
N230 Y5.081
N235 G80 Z5. M09
N240 G00 G90 M05
N245 G54 Z50 X210 Y0
N250 M30
%
