%
O00001
(This Post Processor is distributed on an "AS IS" BASIS, )
(WITHOUT WARRANTIES OR CONDITIONS OF ANY KIND, either express or implied. )
N5 G21 G17 G40 G80 G90
N10 T01 M06 (?>;B>@0H:0)
N15 G54 G90 G94
N20 S23000 M03
N25 G00 G90 X-31.5 Y31.5
N30 G43 H01 Z2.5 M08
N35 G01 Z-.05 F750.
N40 X31.5 F3000.
N45 Y30.9
N50 X-31.5
N55 Y30.3
N60 X31.5
N65 Y29.7
N70 X-31.5
N75 Y29.1
N80 X31.5
N85 Y28.5
N90 X-31.5
N95 Y27.9
N100 X31.5
N105 Y27.3
N110 X-31.5
N115 Y26.7
N120 X31.5
N125 Y26.1
N130 X-31.5
N135 Y25.5
N140 X31.5
N145 Y24.9
N150 X-31.5
N155 Y24.3
N160 X31.5
N165 Y23.7
N170 X-31.5
N175 Y23.1
N180 X31.5
N185 Y22.5
N190 X-31.5
N195 Y21.9
N200 X31.5
N205 Y21.3
N210 X-31.5
N215 Y20.7
N220 X31.5
N225 Y20.1
N230 X-31.5
N235 Y19.5
N240 X31.5
N245 Y18.9
N250 X-31.5
N255 Y18.3
N260 X31.5
N265 Y17.7
N270 X-31.5
N275 Y17.1
N280 X31.5
N285 Y16.5
N290 X-31.5
N295 Y15.9
N300 X31.5
N305 Y15.3
N310 X-31.5
N315 Y14.7
N320 X31.5
N325 Y14.1
N330 X-31.5
N335 Y13.5
N340 X31.5
N345 Y12.9
N350 X-31.5
N355 Y12.3
N360 X31.5
N365 Y11.7
N370 X-31.5
N375 Y11.1
N380 X31.5
N385 Y10.5
N390 X-31.5
N395 Y9.9
N400 X31.5
N405 Y9.3
N410 X-31.5
N415 Y8.7
N420 X31.5
N425 Y8.1
N430 X-31.5
N435 Y7.5
N440 X31.5
N445 Y6.9
N450 X-31.5
N455 Y6.3
N460 X31.5
N465 Y5.7
N470 X-31.5
N475 Y5.1
N480 X31.5
N485 Y4.5
N490 X-31.5
N495 Y3.9
N500 X31.5
N505 Y3.3
N510 X-31.5
N515 Y2.7
N520 X31.5
N525 Y2.1
N530 X-31.5
N535 Y1.5
N540 X31.5
N545 Y.9
N550 X-31.5
N555 Y.3
N560 X31.5
N565 Y-.3
N570 X-31.5
N575 Y-.9
N580 X31.5
N585 Y-1.5
N590 X-31.5
N595 Y-2.1
N600 X31.5
N605 Y-2.7
N610 X-31.5
N615 Y-3.3
N620 X31.5
N625 Y-3.9
N630 X-31.5
N635 Y-4.5
N640 X31.5
N645 Y-5.1
N650 X-31.5
N655 Y-5.7
N660 X31.5
N665 Y-6.3
N670 X-31.5
N675 Y-6.9
N680 X31.5
N685 Y-7.5
N690 X-31.5
N695 Y-8.1
N700 X31.5
N705 Y-8.7
N710 X-31.5
N715 Y-9.3
N720 X31.5
N725 Y-9.9
N730 X-31.5
N735 Y-10.5
N740 X31.5
N745 Y-11.1
N750 X-31.5
N755 Y-11.7
N760 X31.5
N765 Y-12.3
N770 X-31.5
N775 Y-12.9
N780 X31.5
N785 Y-13.5
N790 X-31.5
N795 Y-14.1
N800 X31.5
N805 Y-14.7
N810 X-31.5
N815 Y-15.3
N820 X31.5
N825 Y-15.9
N830 X-31.5
N835 Y-16.5
N840 X31.5
N845 Y-17.1
N850 X-31.5
N855 Y-17.7
N860 X31.5
N865 Y-18.3
N870 X-31.5
N875 Y-18.9
N880 X31.5
N885 Y-19.5
N890 X-31.5
N895 Y-20.1
N900 X31.5
N905 Y-20.7
N910 X-31.5
N915 Y-21.3
N920 X31.5
N925 Y-21.9
N930 X-31.5
N935 Y-22.5
N940 X31.5
N945 Y-23.1
N950 X-31.5
N955 Y-23.7
N960 X31.5
N965 Y-24.3
N970 X-31.5
N975 Y-24.9
N980 X31.5
N985 Y-25.5
N990 X-31.5
N995 Y-26.1
N1000 X31.5
N1005 Y-26.7
N1010 X-31.5
N1015 Y-27.3
N1020 X31.5
N1025 Y-27.9
N1030 X-31.5
N1035 Y-28.5
N1040 X31.5
N1045 Y-29.1
N1050 X-31.5
N1055 Y-29.7
N1060 X31.5
N1065 Y-30.3
N1070 X-31.5
N1075 Y-30.9
N1080 X31.5
N1085 Y-31.5
N1090 X-31.5
N1095 X31.5
N1100 Y31.5
N1105 X-31.5
N1110 Y-31.5
N1115 G00 Z2.5
N1120 Z25. M09
N1125 G00 G90 M05
N1130 G54 Z30 X170 Y0
N1135 M30
%
