%
O00001
(This Post Processor is distributed on an "AS IS" BASIS, )
(WITHOUT WARRANTIES OR CONDITIONS OF ANY KIND, either express or implied. )
N5 G21 G17 G40 G80 G90
N10 T01 M06 (1mm)
N15 G54 G90 G94 Z50
N20 S23000 M03
N25 G00 G90 X7.363 Y-.104
N30 G43 H01 Z3. M08
N35 G01 Z-.3 F750.
N40 X7.731 Y.264 F2250.
N45 G03 X7.76 Y.334 I-.071 J.071
N50 G01 Y3.706 F3000.
N55 X7.588 Y3.814
N60 X7.302 Y3.984
N65 X7.112 Y4.092
N70 X6.853 Y4.234
N75 X6.706 Y4.311
N80 X6.536 Y4.398
N85 X6.341 Y4.494
N90 X6.117 Y4.601
N95 X5.858 Y4.717
N100 X5.559 Y4.845
N105 X5.402 Y4.909
N110 X5.231 Y4.976
N115 X5.048 Y5.045
N120 X4.852 Y5.116
N125 X4.656 Y5.183
N130 X4.459 Y5.248
N135 X4.261 Y5.311
N140 X4.062 Y5.37
N145 X3.863 Y5.426
N150 X3.663 Y5.479
N155 X3.463 Y5.53
N160 X3.262 Y5.578
N165 X3.061 Y5.622
N170 X2.859 Y5.664
N175 X2.657 Y5.703
N180 X2.454 Y5.739
N185 X2.251 Y5.773
N190 X2.047 Y5.803
N195 X1.843 Y5.83
N200 X1.639 Y5.855
N205 X1.435 Y5.877
N210 X1.23 Y5.895
N215 X1.026 Y5.911
N220 X.821 Y5.924
N225 X.616 Y5.934
N230 X.41 Y5.942
N235 X.205 Y5.946
N240 X0 Y5.947
N245 X-.205 Y5.946
N250 X-.41 Y5.942
N255 X-.616 Y5.934
N260 X-.821 Y5.924
N265 X-1.026 Y5.911
N270 X-1.23 Y5.895
N275 X-1.435 Y5.877
N280 X-1.639 Y5.855
N285 X-1.843 Y5.83
N290 X-2.047 Y5.803
N295 X-2.251 Y5.773
N300 X-2.454 Y5.739
N305 X-2.657 Y5.703
N310 X-2.859 Y5.664
N315 X-3.061 Y5.622
N320 X-3.262 Y5.578
N325 X-3.463 Y5.53
N330 X-3.663 Y5.479
N335 X-3.863 Y5.426
N340 X-4.062 Y5.37
N345 X-4.261 Y5.311
N350 X-4.459 Y5.248
N355 X-4.656 Y5.183
N360 X-4.852 Y5.116
N365 X-5.048 Y5.045
N370 X-5.243 Y4.971
N375 X-5.437 Y4.895
N380 X-5.63 Y4.815
N385 X-5.822 Y4.733
N390 X-6.014 Y4.648
N395 X-6.204 Y4.56
N400 X-6.394 Y4.469
N405 X-6.582 Y4.375
N410 X-6.77 Y4.278
N415 X-6.956 Y4.179
N420 X-7.141 Y4.076
N425 X-7.325 Y3.971
N430 X-7.508 Y3.862
N435 X-7.69 Y3.751
N440 X-7.76 Y3.707
N445 Y-2.939
N450 X-7.764 Y-3.069
N455 X-7.776 Y-3.205
N460 X-7.79 Y-3.301
N465 X-7.806 Y-3.393
N470 X-7.827 Y-3.483
N475 X-7.851 Y-3.573
N480 X-7.878 Y-3.661
N485 X-7.909 Y-3.749
N490 X-7.943 Y-3.835
N495 X-7.98 Y-3.919
N500 X-8.021 Y-4.002
N505 X-8.065 Y-4.084
N510 X-8.113 Y-4.163
N515 X-8.163 Y-4.241
N520 X-8.217 Y-4.317
N525 X-8.274 Y-4.391
N530 X-8.334 Y-4.463
N535 X-8.397 Y-4.533
N540 X-8.447 Y-4.584
N545 X-8.488 Y-4.627
N550 X-8.514 Y-4.659
N555 X-8.523 Y-4.672
N560 X-8.541 Y-4.701
N565 X-8.555 Y-4.729
N570 X-8.568 Y-4.758
N575 X-8.578 Y-4.787
N580 X-8.587 Y-4.817
N585 X-8.593 Y-4.847
N590 X-8.598 Y-4.878
N595 X-8.6 Y-4.909
N600 Y-4.94
N605 X-8.599 Y-4.971
N610 X-8.595 Y-5.002
N615 X-8.589 Y-5.032
N620 X-8.581 Y-5.063
N625 X-8.57 Y-5.092
N630 X-8.558 Y-5.122
N635 X-8.543 Y-5.15
N640 X-8.527 Y-5.177
N645 X-8.505 Y-5.209
N650 X-8.479 Y-5.24
N655 X-8.468 Y-5.252
N660 X-8.442 Y-5.275
N665 X-8.418 Y-5.295
N670 X-8.393 Y-5.313
N675 X-8.366 Y-5.329
N680 X-8.338 Y-5.343
N685 X-8.31 Y-5.356
N690 X-8.28 Y-5.366
N695 X-8.251 Y-5.375
N700 X-8.22 Y-5.381
N705 X-8.189 Y-5.385
N710 X-8.158 Y-5.388
N715 X-8.127
N720 X-8.096 Y-5.386
N725 X-8.065 Y-5.382
N730 X-8.034 Y-5.375
N735 X-8.003 Y-5.367
N740 X-7.954 Y-5.349
N745 X-7.812 Y-5.295
N750 X-7.652 Y-5.241
N755 X-7.541 Y-5.207
N760 X-7.396 Y-5.165
N765 X-7.206 Y-5.118
N770 X-7.091 Y-5.094
N775 X-6.979 Y-5.072
N780 X-6.867 Y-5.053
N785 X-6.755 Y-5.036
N790 X-6.642 Y-5.022
N795 X-6.529 Y-5.01
N800 X-6.416 Y-5.001
N805 X-6.303 Y-4.994
N810 X-6.189 Y-4.989
N815 X-6.076 Y-4.987
N820 X-5.963 Y-4.988
N825 X-5.85 Y-4.991
N830 X-5.737 Y-4.996
N835 X-5.624 Y-5.004
N840 X-5.511 Y-5.014
N845 X-5.398 Y-5.027
N850 X-5.286 Y-5.042
N855 X-5.174 Y-5.059
N860 X-5.062 Y-5.079
N865 X-4.951 Y-5.101
N870 X-4.84 Y-5.126
N875 X-4.73 Y-5.154
N880 X-4.62 Y-5.183
N885 X-4.511 Y-5.215
N890 X-4.402 Y-5.25
N895 X-4.294 Y-5.287
N900 X-4.187 Y-5.326
N905 X-4.08 Y-5.368
N910 X-3.974 Y-5.412
N915 X-3.869 Y-5.458
N920 X-3.764 Y-5.507
N925 X-3.661 Y-5.558
N930 X-3.576 Y-5.603
N935 X-3.546 Y-5.618
N940 X-3.533 Y-5.622
N945 X-3.521 Y-5.626
N950 X-3.508 Y-5.629
N955 X-3.495 Y-5.63
N960 X-3.481 Y-5.631
N965 X-3.468 Y-5.63
N970 X-3.455 Y-5.628
N975 X-3.442 Y-5.625
N980 X-3.409 Y-5.615
N985 X-3.226 Y-5.552
N990 X-3.024 Y-5.489
N995 X-2.886 Y-5.448
N1000 X-2.703 Y-5.399
N1005 X-2.462 Y-5.34
N1010 X-2.319 Y-5.309
N1015 X-2.159 Y-5.277
N1020 X-1.997 Y-5.249
N1025 X-1.836 Y-5.223
N1030 X-1.674 Y-5.201
N1035 X-1.512 Y-5.182
N1040 X-1.35 Y-5.166
N1045 X-1.187 Y-5.153
N1050 X-1.025 Y-5.144
N1055 X-.862 Y-5.137
N1060 X-.699 Y-5.134
N1065 X-.537
N1070 X-.374 Y-5.137
N1075 X-.211 Y-5.143
N1080 X-.049 Y-5.153
N1085 X.113 Y-5.166
N1090 X.275 Y-5.181
N1095 X.437 Y-5.2
N1100 X.598 Y-5.223
N1105 X.759 Y-5.248
N1110 X.919 Y-5.276
N1115 X1.079 Y-5.308
N1120 X1.239 Y-5.343
N1125 X1.398 Y-5.381
N1130 X1.556 Y-5.422
N1135 X1.713 Y-5.466
N1140 X1.87 Y-5.513
N1145 X2.026 Y-5.564
N1150 X2.182 Y-5.617
N1155 X2.336 Y-5.674
N1160 X2.49 Y-5.734
N1165 X2.642 Y-5.797
N1170 X2.794 Y-5.863
N1175 X2.927 Y-5.924
N1180 X2.957 Y-5.937
N1185 X2.974 Y-5.943
N1190 X2.988 Y-5.945
N1195 X2.999 Y-5.946
N1200 X3.01 Y-5.947
N1205 X3.022
N1210 X3.033 Y-5.946
N1215 X3.044 Y-5.944
N1220 X3.055 Y-5.941
N1225 X3.066 Y-5.938
N1230 X3.076 Y-5.934
N1235 X3.086 Y-5.929
N1240 X3.096 Y-5.923
N1245 X3.105 Y-5.917
N1250 X3.114 Y-5.91
N1255 X3.122 Y-5.903
N1260 X3.13 Y-5.895
N1265 X3.138 Y-5.886
N1270 X3.158 Y-5.858
N1275 X3.233 Y-5.752
N1280 X3.325 Y-5.634
N1285 X3.393 Y-5.554
N1290 X3.482 Y-5.456
N1295 X3.577 Y-5.361
N1300 X3.675 Y-5.271
N1305 X3.776 Y-5.185
N1310 X3.881 Y-5.103
N1315 X3.99 Y-5.026
N1320 X4.101 Y-4.954
N1325 X4.216 Y-4.886
N1330 X4.333 Y-4.823
N1335 X4.453 Y-4.766
N1340 X4.575 Y-4.713
N1345 X4.7 Y-4.666
N1350 X4.827 Y-4.623
N1355 X4.956 Y-4.586
N1360 X5.087 Y-4.555
N1365 X5.219 Y-4.529
N1370 X5.354 Y-4.509
N1375 X5.505 Y-4.493
N1380 X5.654 Y-4.485
N1385 X5.76 Y-4.483
N1390 X5.892 Y-4.486
N1395 X6.025 Y-4.495
N1400 X6.158 Y-4.509
N1405 X6.29 Y-4.529
N1410 X6.42 Y-4.555
N1415 X6.55 Y-4.586
N1420 X6.677 Y-4.622
N1425 X6.804 Y-4.664
N1430 X6.928 Y-4.711
N1435 X7.05 Y-4.763
N1440 X7.17 Y-4.821
N1445 X7.288 Y-4.884
N1450 X7.404 Y-4.951
N1455 X7.516 Y-5.024
N1460 X7.626 Y-5.102
N1465 X7.733 Y-5.185
N1470 X7.82 Y-5.259
N1475 X7.861 Y-5.293
N1480 X7.89 Y-5.314
N1485 X7.901 Y-5.321
N1490 X7.924 Y-5.334
N1495 X7.959 Y-5.351
N1500 X7.992 Y-5.363
N1505 X8.026 Y-5.373
N1510 X8.06 Y-5.381
N1515 X8.095 Y-5.386
N1520 X8.13 Y-5.388
N1525 X8.165 Y-5.387
N1530 X8.2 Y-5.384
N1535 X8.234 Y-5.378
N1540 X8.269 Y-5.37
N1545 X8.302 Y-5.359
N1550 X8.334 Y-5.345
N1555 X8.365 Y-5.329
N1560 X8.396 Y-5.311
N1565 X8.425 Y-5.29
N1570 X8.453 Y-5.266
N1575 X8.481 Y-5.237
N1580 X8.501 Y-5.214
N1585 X8.522 Y-5.186
N1590 X8.529 Y-5.175
N1595 X8.542 Y-5.152
N1600 X8.56 Y-5.117
N1605 X8.573 Y-5.085
N1610 X8.584 Y-5.051
N1615 X8.592 Y-5.017
N1620 X8.597 Y-4.983
N1625 X8.6 Y-4.948
N1630 Y-4.912
N1635 X8.598 Y-4.877
N1640 X8.592 Y-4.843
N1645 X8.585 Y-4.808
N1650 X8.574 Y-4.775
N1655 X8.561 Y-4.742
N1660 X8.546 Y-4.711
N1665 X8.528 Y-4.68
N1670 X8.507 Y-4.651
N1675 X8.484 Y-4.623
N1680 X8.439 Y-4.576
N1685 X8.361 Y-4.497
N1690 X8.273 Y-4.397
N1695 X8.214 Y-4.322
N1700 X8.161 Y-4.249
N1705 X8.11 Y-4.174
N1710 X8.063 Y-4.096
N1715 X8.02 Y-4.017
N1720 X7.979 Y-3.937
N1725 X7.942 Y-3.854
N1730 X7.908 Y-3.771
N1735 X7.877 Y-3.686
N1740 X7.85 Y-3.6
N1745 X7.826 Y-3.512
N1750 X7.806 Y-3.424
N1755 X7.79 Y-3.335
N1760 X7.777 Y-3.244
N1765 X7.767 Y-3.154
N1770 X7.762 Y-3.062
N1775 X7.76 Y-2.978
N1780 Y.534
N1785 G03 X7.731 Y.605 I-.1 J0
N1790 G01 X7.363 Y.973
N1795 G00 Z3.
N1800 G90 G54 X7.623 Y-.104
N1805 G01 Z-.3 F750.
N1810 X7.991 Y.264 F2250.
N1815 G03 X8.02 Y.334 I-.071 J.071
N1820 G01 Y3.827 F3000.
N1825 X8.012 Y3.854
N1830 X8.003 Y3.861
N1835 X7.724 Y4.036
N1840 X7.433 Y4.209
N1845 X7.239 Y4.319
N1850 X6.976 Y4.463
N1855 X6.826 Y4.542
N1860 X6.653 Y4.63
N1865 X6.454 Y4.728
N1870 X6.226 Y4.837
N1875 X5.963 Y4.955
N1880 X5.659 Y5.085
N1885 X5.498 Y5.15
N1890 X5.324 Y5.219
N1895 X5.138 Y5.289
N1900 X4.939 Y5.361
N1905 X4.739 Y5.43
N1910 X4.538 Y5.496
N1915 X4.337 Y5.559
N1920 X4.135 Y5.619
N1925 X3.932 Y5.677
N1930 X3.729 Y5.731
N1935 X3.525 Y5.783
N1940 X3.32 Y5.831
N1945 X3.115 Y5.877
N1950 X2.91 Y5.919
N1955 X2.704 Y5.959
N1960 X2.498 Y5.996
N1965 X2.291 Y6.029
N1970 X2.084 Y6.06
N1975 X1.876 Y6.088
N1980 X1.669 Y6.113
N1985 X1.461 Y6.135
N1990 X1.252 Y6.154
N1995 X1.044 Y6.171
N2000 X.835 Y6.184
N2005 X.627 Y6.194
N2010 X.418 Y6.201
N2015 X.209 Y6.206
N2020 X0 Y6.207
N2025 X-.209 Y6.206
N2030 X-.418 Y6.201
N2035 X-.627 Y6.194
N2040 X-.835 Y6.184
N2045 X-1.044 Y6.171
N2050 X-1.252 Y6.154
N2055 X-1.461 Y6.135
N2060 X-1.669 Y6.113
N2065 X-1.876 Y6.088
N2070 X-2.084 Y6.06
N2075 X-2.291 Y6.029
N2080 X-2.498 Y5.996
N2085 X-2.704 Y5.959
N2090 X-2.91 Y5.919
N2095 X-3.115 Y5.877
N2100 X-3.32 Y5.831
N2105 X-3.525 Y5.783
N2110 X-3.729 Y5.731
N2115 X-3.932 Y5.677
N2120 X-4.135 Y5.619
N2125 X-4.337 Y5.559
N2130 X-4.538 Y5.496
N2135 X-4.739 Y5.43
N2140 X-4.939 Y5.361
N2145 X-5.138 Y5.289
N2150 X-5.337 Y5.214
N2155 X-5.534 Y5.136
N2160 X-5.731 Y5.055
N2165 X-5.926 Y4.971
N2170 X-6.121 Y4.885
N2175 X-6.315 Y4.795
N2180 X-6.508 Y4.702
N2185 X-6.7 Y4.607
N2190 X-6.891 Y4.508
N2195 X-7.08 Y4.407
N2200 X-7.269 Y4.303
N2205 X-7.456 Y4.195
N2210 X-7.642 Y4.085
N2215 X-7.827 Y3.972
N2220 X-8.002 Y3.861
N2225 X-8.019 Y3.841
N2230 X-8.02 Y3.827
N2235 Y-2.935
N2240 X-8.024 Y-3.053
N2245 X-8.035 Y-3.175
N2250 X-8.047 Y-3.26
N2255 X-8.061 Y-3.341
N2260 X-8.079 Y-3.421
N2265 X-8.1 Y-3.501
N2270 X-8.125 Y-3.58
N2275 X-8.152 Y-3.657
N2280 X-8.182 Y-3.734
N2285 X-8.216 Y-3.809
N2290 X-8.252 Y-3.883
N2295 X-8.291 Y-3.955
N2300 X-8.333 Y-4.026
N2305 X-8.378 Y-4.095
N2310 X-8.426 Y-4.163
N2315 X-8.477 Y-4.229
N2320 X-8.53 Y-4.292
N2325 X-8.586 Y-4.354
N2330 X-8.635 Y-4.404
N2335 X-8.684 Y-4.456
N2340 X-8.722 Y-4.503
N2345 X-8.74 Y-4.529
N2350 X-8.767 Y-4.573
N2355 X-8.79 Y-4.616
N2360 X-8.809 Y-4.661
N2365 X-8.826 Y-4.707
N2370 X-8.839 Y-4.754
N2375 X-8.849 Y-4.801
N2380 X-8.856 Y-4.849
N2385 X-8.86 Y-4.898
N2390 Y-4.946
N2395 X-8.858 Y-4.995
N2400 X-8.852 Y-5.043
N2405 X-8.842 Y-5.091
N2410 X-8.829 Y-5.139
N2415 X-8.813 Y-5.185
N2420 X-8.794 Y-5.231
N2425 X-8.771 Y-5.276
N2430 X-8.745 Y-5.32
N2435 X-8.711 Y-5.367
N2440 X-8.673 Y-5.413
N2445 X-8.651 Y-5.437
N2450 X-8.613 Y-5.472
N2455 X-8.575 Y-5.503
N2460 X-8.535 Y-5.531
N2465 X-8.493 Y-5.556
N2470 X-8.45 Y-5.578
N2475 X-8.405 Y-5.598
N2480 X-8.36 Y-5.614
N2485 X-8.313 Y-5.627
N2490 X-8.265 Y-5.637
N2495 X-8.217 Y-5.644
N2500 X-8.168 Y-5.648
N2505 X-8.12
N2510 X-8.071 Y-5.645
N2515 X-8.022 Y-5.638
N2520 X-7.973 Y-5.628
N2525 X-7.924 Y-5.615
N2530 X-7.864 Y-5.593
N2535 X-7.724 Y-5.54
N2540 X-7.572 Y-5.488
N2545 X-7.467 Y-5.456
N2550 X-7.329 Y-5.417
N2555 X-7.147 Y-5.372
N2560 X-7.039 Y-5.348
N2565 X-6.933 Y-5.328
N2570 X-6.826 Y-5.309
N2575 X-6.719 Y-5.294
N2580 X-6.612 Y-5.28
N2585 X-6.505 Y-5.269
N2590 X-6.397 Y-5.26
N2595 X-6.29 Y-5.253
N2600 X-6.182 Y-5.249
N2605 X-6.074 Y-5.247
N2610 X-5.967 Y-5.248
N2615 X-5.859 Y-5.25
N2620 X-5.752 Y-5.255
N2625 X-5.644 Y-5.263
N2630 X-5.537 Y-5.273
N2635 X-5.43 Y-5.285
N2640 X-5.323 Y-5.299
N2645 X-5.217 Y-5.316
N2650 X-5.111 Y-5.335
N2655 X-5.005 Y-5.356
N2660 X-4.9 Y-5.379
N2665 X-4.795 Y-5.405
N2670 X-4.691 Y-5.433
N2675 X-4.587 Y-5.464
N2680 X-4.483 Y-5.497
N2685 X-4.381 Y-5.532
N2690 X-4.279 Y-5.569
N2695 X-4.177 Y-5.609
N2700 X-4.076 Y-5.651
N2705 X-3.976 Y-5.695
N2710 X-3.877 Y-5.741
N2715 X-3.779 Y-5.79
N2720 X-3.693 Y-5.835
N2725 X-3.649 Y-5.856
N2730 X-3.616 Y-5.869
N2735 X-3.583 Y-5.879
N2740 X-3.549 Y-5.886
N2745 X-3.514 Y-5.89
N2750 X-3.479 Y-5.891
N2755 X-3.444 Y-5.889
N2760 X-3.409 Y-5.884
N2765 X-3.375 Y-5.877
N2770 X-3.329 Y-5.862
N2775 X-3.145 Y-5.799
N2780 X-2.949 Y-5.737
N2785 X-2.815 Y-5.698
N2790 X-2.638 Y-5.65
N2795 X-2.404 Y-5.594
N2800 X-2.266 Y-5.564
N2805 X-2.111 Y-5.533
N2810 X-1.954 Y-5.505
N2815 X-1.798 Y-5.48
N2820 X-1.641 Y-5.459
N2825 X-1.484 Y-5.44
N2830 X-1.327 Y-5.425
N2835 X-1.17 Y-5.413
N2840 X-1.012 Y-5.403
N2845 X-.854 Y-5.397
N2850 X-.697 Y-5.394
N2855 X-.539
N2860 X-.382 Y-5.397
N2865 X-.224 Y-5.403
N2870 X-.067 Y-5.412
N2875 X.09 Y-5.425
N2880 X.247 Y-5.44
N2885 X.404 Y-5.458
N2890 X.56 Y-5.48
N2895 X.716 Y-5.504
N2900 X.871 Y-5.532
N2905 X1.026 Y-5.562
N2910 X1.181 Y-5.596
N2915 X1.335 Y-5.633
N2920 X1.488 Y-5.673
N2925 X1.641 Y-5.715
N2930 X1.793 Y-5.761
N2935 X1.944 Y-5.81
N2940 X2.094 Y-5.862
N2945 X2.244 Y-5.917
N2950 X2.393 Y-5.975
N2955 X2.54 Y-6.036
N2960 X2.687 Y-6.1
N2965 X2.822 Y-6.162
N2970 X2.866 Y-6.18
N2975 X2.901 Y-6.192
N2980 X2.918 Y-6.196
N2985 X2.949 Y-6.202
N2990 X2.979 Y-6.206
N2995 X3.008 Y-6.207
N3000 X3.037 Y-6.206
N3005 X3.067 Y-6.204
N3010 X3.096 Y-6.199
N3015 X3.124 Y-6.192
N3020 X3.152 Y-6.183
N3025 X3.18 Y-6.172
N3030 X3.206 Y-6.16
N3035 X3.232 Y-6.145
N3040 X3.256 Y-6.129
N3045 X3.28 Y-6.111
N3050 X3.302 Y-6.091
N3055 X3.323 Y-6.07
N3060 X3.343 Y-6.046
N3065 X3.37 Y-6.009
N3070 X3.442 Y-5.907
N3075 X3.526 Y-5.798
N3080 X3.588 Y-5.725
N3085 X3.67 Y-5.636
N3090 X3.757 Y-5.549
N3095 X3.847 Y-5.466
N3100 X3.94 Y-5.387
N3105 X4.037 Y-5.312
N3110 X4.136 Y-5.241
N3115 X4.238 Y-5.175
N3120 X4.343 Y-5.113
N3125 X4.451 Y-5.055
N3130 X4.561 Y-5.002
N3135 X4.673 Y-4.954
N3140 X4.787 Y-4.911
N3145 X4.904 Y-4.872
N3150 X5.022 Y-4.838
N3155 X5.142 Y-4.809
N3160 X5.264 Y-4.785
N3165 X5.387 Y-4.767
N3170 X5.526 Y-4.752
N3175 X5.663 Y-4.745
N3180 X5.759 Y-4.743
N3185 X5.88 Y-4.746
N3190 X6.003 Y-4.754
N3195 X6.125 Y-4.767
N3200 X6.245 Y-4.786
N3205 X6.365 Y-4.809
N3210 X6.484 Y-4.837
N3215 X6.601 Y-4.871
N3220 X6.717 Y-4.909
N3225 X6.831 Y-4.952
N3230 X6.943 Y-5.
N3235 X7.053 Y-5.053
N3240 X7.161 Y-5.11
N3245 X7.267 Y-5.173
N3250 X7.37 Y-5.239
N3255 X7.471 Y-5.311
N3260 X7.569 Y-5.387
N3265 X7.654 Y-5.459
N3270 X7.702 Y-5.499
N3275 X7.744 Y-5.529
N3280 X7.767 Y-5.544
N3285 X7.804 Y-5.564
N3290 X7.856 Y-5.59
N3295 X7.908 Y-5.609
N3300 X7.961 Y-5.625
N3305 X8.014 Y-5.637
N3310 X8.069 Y-5.644
N3315 X8.123 Y-5.648
N3320 X8.178 Y-5.647
N3325 X8.233 Y-5.642
N3330 X8.287 Y-5.633
N3335 X8.34 Y-5.62
N3340 X8.393 Y-5.603
N3345 X8.443 Y-5.582
N3350 X8.493 Y-5.556
N3355 X8.54 Y-5.527
N3360 X8.586 Y-5.494
N3365 X8.63 Y-5.456
N3370 X8.672 Y-5.414
N3375 X8.704 Y-5.377
N3380 X8.735 Y-5.336
N3385 X8.75 Y-5.313
N3390 X8.771 Y-5.277
N3395 X8.797 Y-5.225
N3400 X8.818 Y-5.173
N3405 X8.835 Y-5.121
N3410 X8.847 Y-5.067
N3415 X8.856 Y-5.013
N3420 X8.86 Y-4.958
N3425 Y-4.903
N3430 X8.856 Y-4.849
N3435 X8.848 Y-4.794
N3440 X8.836 Y-4.741
N3445 X8.82 Y-4.688
N3450 X8.799 Y-4.637
N3455 X8.775 Y-4.587
N3460 X8.747 Y-4.539
N3465 X8.714 Y-4.493
N3470 X8.678 Y-4.449
N3475 X8.625 Y-4.394
N3480 X8.551 Y-4.32
N3485 X8.473 Y-4.231
N3490 X8.421 Y-4.166
N3495 X8.374 Y-4.101
N3500 X8.33 Y-4.034
N3505 X8.288 Y-3.966
N3510 X8.249 Y-3.896
N3515 X8.214 Y-3.824
N3520 X8.181 Y-3.752
N3525 X8.151 Y-3.678
N3530 X8.124 Y-3.603
N3535 X8.1 Y-3.526
N3540 X8.079 Y-3.449
N3545 X8.061 Y-3.371
N3550 X8.046 Y-3.292
N3555 X8.035 Y-3.213
N3560 X8.027 Y-3.132
N3565 X8.022 Y-3.052
N3570 X8.02 Y-2.975
N3575 Y.534
N3580 G03 X7.991 Y.605 I-.1 J0
N3585 G01 X7.623 Y.973
N3590 G00 Z3.
N3595 Z25.
N3600 G90 G54 X2.5 Y.345
N3605 Z3.
N3610 G01 Z-.6 F750.
N3615 X2.468 Y.354 F1500.
N3620 X2.341 Y.388
N3625 X2.213 Y.421
N3630 X2.085 Y.451
N3635 X1.956 Y.48
N3640 X1.827 Y.506
N3645 X1.698 Y.531
N3650 X1.568 Y.554
N3655 X1.439 Y.576
N3660 X1.309 Y.595
N3665 X1.178 Y.612
N3670 X1.048 Y.628
N3675 X.917 Y.642
N3680 X.787 Y.654
N3685 X.656 Y.664
N3690 X.525 Y.672
N3695 X.394 Y.679
N3700 X.262 Y.683
N3705 X.131 Y.686
N3710 X0 Y.687
N3715 X-.131 Y.686
N3720 X-.262 Y.683
N3725 X-.394 Y.679
N3730 X-.525 Y.672
N3735 X-.656 Y.664
N3740 X-.787 Y.654
N3745 X-.917 Y.642
N3750 X-1.048 Y.628
N3755 X-1.178 Y.612
N3760 X-1.309 Y.595
N3765 X-1.439 Y.576
N3770 X-1.568 Y.554
N3775 X-1.698 Y.531
N3780 X-1.827 Y.506
N3785 X-1.956 Y.48
N3790 X-2.085 Y.451
N3795 X-2.213 Y.421
N3800 X-2.341 Y.388
N3805 X-2.468 Y.354
N3810 X-2.5 Y.345
N3815 Y-.005
N3820 X-2.341 Y.017
N3825 X-2.077 Y.048
N3830 X-1.812 Y.074
N3835 X-1.547 Y.095
N3840 X-1.282 Y.11
N3845 X-1.017 Y.121
N3850 X-.751 Y.126
N3855 X-.486
N3860 X-.221 Y.121
N3865 X.044 Y.111
N3870 X.309 Y.095
N3875 X.573 Y.074
N3880 X.837 Y.049
N3885 X1.101 Y.018
N3890 X1.364 Y-.018
N3895 X1.626 Y-.06
N3900 X1.888 Y-.106
N3905 X1.971 Y-.122
N3910 X2.272 Y.022
N3915 X2.5 Y.12
N3920 Y.345
N3925 X3.
N3930 Y.717
N3935 X2.868 Y.759
N3940 X2.735 Y.798
N3945 X2.601 Y.836
N3950 X2.466 Y.872
N3955 X2.332 Y.906
N3960 X2.197 Y.938
N3965 X2.061 Y.968
N3970 X1.925 Y.997
N3975 X1.789 Y1.023
N3980 X1.653 Y1.047
N3985 X1.516 Y1.07
N3990 X1.379 Y1.09
N3995 X1.242 Y1.108
N4000 X1.104 Y1.125
N4005 X.967 Y1.14
N4010 X.829 Y1.152
N4015 X.691 Y1.163
N4020 X.553 Y1.172
N4025 X.415 Y1.178
N4030 X.277 Y1.183
N4035 X.138 Y1.186
N4040 X0 Y1.187
N4045 X-.138 Y1.186
N4050 X-.277 Y1.183
N4055 X-.415 Y1.178
N4060 X-.553 Y1.172
N4065 X-.691 Y1.163
N4070 X-.829 Y1.152
N4075 X-.967 Y1.14
N4080 X-1.104 Y1.125
N4085 X-1.242 Y1.108
N4090 X-1.379 Y1.09
N4095 X-1.516 Y1.07
N4100 X-1.653 Y1.047
N4105 X-1.789 Y1.023
N4110 X-1.925 Y.997
N4115 X-2.061 Y.968
N4120 X-2.197 Y.938
N4125 X-2.332 Y.906
N4130 X-2.466 Y.872
N4135 X-2.601 Y.836
N4140 X-2.735 Y.798
N4145 X-2.868 Y.759
N4150 X-3. Y.717
N4155 Y-.592
N4160 X-2.785 Y-.554
N4165 X-2.532 Y-.514
N4170 X-2.278 Y-.479
N4175 X-2.023 Y-.449
N4180 X-1.768 Y-.424
N4185 X-1.513 Y-.404
N4190 X-1.257 Y-.389
N4195 X-1.002 Y-.379
N4200 X-.746 Y-.374
N4205 X-.491
N4210 X-.235 Y-.379
N4215 X.02 Y-.389
N4220 X.275 Y-.404
N4225 X.53 Y-.424
N4230 X.784 Y-.448
N4235 X1.038 Y-.478
N4240 X1.291 Y-.513
N4245 X1.544 Y-.553
N4250 X1.796 Y-.597
N4255 X2.048 Y-.647
N4260 X2.178 Y-.578
N4265 X2.48 Y-.433
N4270 X2.788 Y-.3
N4275 X3. Y-.22
N4280 Y.345
N4285 X3.5
N4290 Y1.075
N4295 X3.433 Y1.099
N4300 X3.294 Y1.147
N4305 X3.154 Y1.193
N4310 X3.015 Y1.237
N4315 X2.874 Y1.279
N4320 X2.733 Y1.318
N4325 X2.592 Y1.356
N4330 X2.451 Y1.392
N4335 X2.308 Y1.426
N4340 X2.166 Y1.457
N4345 X2.023 Y1.487
N4350 X1.88 Y1.515
N4355 X1.737 Y1.54
N4360 X1.593 Y1.564
N4365 X1.449 Y1.585
N4370 X1.305 Y1.604
N4375 X1.16 Y1.622
N4380 X1.016 Y1.637
N4385 X.871 Y1.65
N4390 X.726 Y1.662
N4395 X.581 Y1.671
N4400 X.436 Y1.678
N4405 X.291 Y1.683
N4410 X.145 Y1.686
N4415 X0 Y1.687
N4420 X-.145 Y1.686
N4425 X-.291 Y1.683
N4430 X-.436 Y1.678
N4435 X-.581 Y1.671
N4440 X-.726 Y1.662
N4445 X-.871 Y1.65
N4450 X-1.016 Y1.637
N4455 X-1.16 Y1.622
N4460 X-1.305 Y1.604
N4465 X-1.449 Y1.585
N4470 X-1.593 Y1.564
N4475 X-1.737 Y1.54
N4480 X-1.88 Y1.515
N4485 X-2.023 Y1.487
N4490 X-2.166 Y1.457
N4495 X-2.308 Y1.426
N4500 X-2.451 Y1.392
N4505 X-2.592 Y1.356
N4510 X-2.733 Y1.318
N4515 X-2.874 Y1.279
N4520 X-3.015 Y1.237
N4525 X-3.154 Y1.193
N4530 X-3.294 Y1.147
N4535 X-3.433 Y1.099
N4540 X-3.5 Y1.075
N4545 Y-1.073
N4550 X-3.466 Y-1.082
N4555 X-3.267 Y-1.14
N4560 X-3.239 Y-1.15
N4565 X-3.186 Y-1.138
N4570 X-2.946 Y-1.091
N4575 X-2.703 Y-1.047
N4580 X-2.459 Y-1.009
N4585 X-2.214 Y-.975
N4590 X-1.969 Y-.946
N4595 X-1.724 Y-.922
N4600 X-1.479 Y-.903
N4605 X-1.233 Y-.888
N4610 X-.987 Y-.879
N4615 X-.741 Y-.874
N4620 X-.496
N4625 X-.25 Y-.879
N4630 X-.004 Y-.888
N4635 X.241 Y-.903
N4640 X.486 Y-.922
N4645 X.73 Y-.946
N4650 X.975 Y-.974
N4655 X1.218 Y-1.008
N4660 X1.461 Y-1.046
N4665 X1.704 Y-1.089
N4670 X1.946 Y-1.137
N4675 X2.122 Y-1.175
N4680 X2.13 Y-1.171
N4685 X2.404 Y-1.024
N4690 X2.687 Y-.888
N4695 X2.976 Y-.764
N4700 X3.27 Y-.652
N4705 X3.5 Y-.575
N4710 Y.345
N4715 X4.
N4720 Y1.42
N4725 X3.881 Y1.467
N4730 X3.745 Y1.518
N4735 X3.599 Y1.57
N4740 X3.454 Y1.621
N4745 X3.307 Y1.669
N4750 X3.161 Y1.715
N4755 X3.014 Y1.759
N4760 X2.866 Y1.801
N4765 X2.718 Y1.84
N4770 X2.569 Y1.878
N4775 X2.42 Y1.913
N4780 X2.271 Y1.946
N4785 X2.121 Y1.977
N4790 X1.971 Y2.006
N4795 X1.821 Y2.033
N4800 X1.67 Y2.058
N4805 X1.519 Y2.08
N4810 X1.368 Y2.1
N4815 X1.217 Y2.119
N4820 X1.065 Y2.135
N4825 X.913 Y2.149
N4830 X.761 Y2.16
N4835 X.609 Y2.17
N4840 X.457 Y2.178
N4845 X.305 Y2.183
N4850 X.152 Y2.186
N4855 X0 Y2.187
N4860 X-.152 Y2.186
N4865 X-.305 Y2.183
N4870 X-.457 Y2.178
N4875 X-.609 Y2.17
N4880 X-.761 Y2.16
N4885 X-.913 Y2.149
N4890 X-1.065 Y2.135
N4895 X-1.217 Y2.119
N4900 X-1.368 Y2.1
N4905 X-1.519 Y2.08
N4910 X-1.67 Y2.058
N4915 X-1.821 Y2.033
N4920 X-1.971 Y2.006
N4925 X-2.121 Y1.977
N4930 X-2.271 Y1.946
N4935 X-2.42 Y1.913
N4940 X-2.569 Y1.878
N4945 X-2.718 Y1.84
N4950 X-2.866 Y1.801
N4955 X-3.014 Y1.759
N4960 X-3.161 Y1.715
N4965 X-3.307 Y1.669
N4970 X-3.454 Y1.621
N4975 X-3.599 Y1.57
N4980 X-3.744 Y1.518
N4985 X-3.889 Y1.463
N4990 X-4. Y1.42
N4995 Y-1.461
N5000 X-3.979 Y-1.466
N5005 X-3.79 Y-1.513
N5010 X-3.601 Y-1.564
N5015 X-3.413 Y-1.619
N5020 X-3.263 Y-1.666
N5025 X-3.084 Y-1.628
N5030 X-2.854 Y-1.582
N5035 X-2.62 Y-1.54
N5040 X-2.386 Y-1.503
N5045 X-2.151 Y-1.471
N5050 X-1.916 Y-1.443
N5055 X-1.68 Y-1.42
N5060 X-1.444 Y-1.402
N5065 X-1.209 Y-1.388
N5070 X-.973 Y-1.379
N5075 X-.737 Y-1.374
N5080 X-.5
N5085 X-.265 Y-1.379
N5090 X-.029 Y-1.388
N5095 X.207 Y-1.401
N5100 X.442 Y-1.42
N5105 X.677 Y-1.443
N5110 X.911 Y-1.47
N5115 X1.145 Y-1.502
N5120 X1.379 Y-1.539
N5125 X1.612 Y-1.58
N5130 X1.844 Y-1.626
N5135 X2.075 Y-1.677
N5140 X2.204 Y-1.707
N5145 X2.373 Y-1.608
N5150 X2.631 Y-1.47
N5155 X2.894 Y-1.343
N5160 X3.163 Y-1.227
N5165 X3.437 Y-1.123
N5170 X3.717 Y-1.03
N5175 X3.995 Y-.951
N5180 X4. Y-.949
N5185 Y.345
N5190 X4.5
N5195 Y1.752
N5200 X4.306 Y1.835
N5205 X4.192 Y1.881
N5210 X4.06 Y1.933
N5215 X3.918 Y1.987
N5220 X3.766 Y2.042
N5225 X3.613 Y2.095
N5230 X3.461 Y2.145
N5235 X3.307 Y2.193
N5240 X3.153 Y2.239
N5245 X2.999 Y2.283
N5250 X2.844 Y2.324
N5255 X2.688 Y2.363
N5260 X2.532 Y2.4
N5265 X2.376 Y2.435
N5270 X2.219 Y2.468
N5275 X2.062 Y2.498
N5280 X1.905 Y2.526
N5285 X1.747 Y2.552
N5290 X1.589 Y2.575
N5295 X1.431 Y2.596
N5300 X1.273 Y2.615
N5305 X1.114 Y2.632
N5310 X.955 Y2.647
N5315 X.796 Y2.659
N5320 X.637 Y2.669
N5325 X.478 Y2.677
N5330 X.319 Y2.683
N5335 X.159 Y2.686
N5340 X0 Y2.687
N5345 X-.159 Y2.686
N5350 X-.319 Y2.683
N5355 X-.478 Y2.677
N5360 X-.637 Y2.669
N5365 X-.796 Y2.659
N5370 X-.955 Y2.647
N5375 X-1.114 Y2.632
N5380 X-1.273 Y2.615
N5385 X-1.431 Y2.596
N5390 X-1.589 Y2.575
N5395 X-1.747 Y2.552
N5400 X-1.905 Y2.526
N5405 X-2.062 Y2.498
N5410 X-2.219 Y2.468
N5415 X-2.376 Y2.435
N5420 X-2.532 Y2.4
N5425 X-2.688 Y2.363
N5430 X-2.844 Y2.324
N5435 X-2.999 Y2.283
N5440 X-3.153 Y2.239
N5445 X-3.307 Y2.193
N5450 X-3.461 Y2.145
N5455 X-3.613 Y2.095
N5460 X-3.766 Y2.042
N5465 X-3.918 Y1.987
N5470 X-4.069 Y1.93
N5475 X-4.219 Y1.871
N5480 X-4.369 Y1.809
N5485 X-4.5 Y1.753
N5490 Y-1.868
N5495 X-4.454 Y-1.876
N5500 X-4.274 Y-1.912
N5505 X-4.094 Y-1.953
N5510 X-3.915 Y-1.997
N5515 X-3.737 Y-2.045
N5520 X-3.559 Y-2.097
N5525 X-3.383 Y-2.153
N5530 X-3.287 Y-2.186
N5535 X-3.193 Y-2.163
N5540 X-2.982 Y-2.117
N5545 X-2.761 Y-2.073
N5550 X-2.537 Y-2.033
N5555 X-2.313 Y-1.998
N5560 X-2.087 Y-1.967
N5565 X-1.862 Y-1.94
N5570 X-1.636 Y-1.918
N5575 X-1.41 Y-1.901
N5580 X-1.184 Y-1.887
N5585 X-.958 Y-1.878
N5590 X-.732 Y-1.874
N5595 X-.505
N5600 X-.279 Y-1.878
N5605 X-.053 Y-1.887
N5610 X.173 Y-1.9
N5615 X.398 Y-1.918
N5620 X.624 Y-1.94
N5625 X.848 Y-1.966
N5630 X1.073 Y-1.997
N5635 X1.296 Y-2.032
N5640 X1.52 Y-2.072
N5645 X1.742 Y-2.116
N5650 X1.964 Y-2.164
N5655 X2.185 Y-2.217
N5660 X2.289 Y-2.244
N5665 X2.385 Y-2.181
N5670 X2.618 Y-2.044
N5675 X2.857 Y-1.916
N5680 X3.102 Y-1.798
N5685 X3.351 Y-1.691
N5690 X3.605 Y-1.594
N5695 X3.864 Y-1.508
N5700 X4.127 Y-1.433
N5705 X4.394 Y-1.369
N5710 X4.5 Y-1.348
N5715 Y.345
N5720 X5.
N5725 Y2.076
N5730 X4.958 Y2.095
N5735 X4.749 Y2.19
N5740 X4.498 Y2.297
N5745 X4.378 Y2.346
N5750 X4.24 Y2.4
N5755 X4.092 Y2.456
N5760 X3.932 Y2.513
N5765 X3.773 Y2.568
N5770 X3.614 Y2.621
N5775 X3.453 Y2.671
N5780 X3.293 Y2.719
N5785 X3.131 Y2.765
N5790 X2.969 Y2.808
N5795 X2.807 Y2.849
N5800 X2.644 Y2.888
N5805 X2.481 Y2.924
N5810 X2.317 Y2.958
N5815 X2.154 Y2.989
N5820 X1.989 Y3.019
N5825 X1.825 Y3.046
N5830 X1.66 Y3.07
N5835 X1.494 Y3.092
N5840 X1.329 Y3.112
N5845 X1.163 Y3.13
N5850 X.998 Y3.145
N5855 X.832 Y3.158
N5860 X.665 Y3.169
N5865 X.499 Y3.177
N5870 X.333 Y3.183
N5875 X.166 Y3.186
N5880 X0 Y3.187
N5885 X-.166 Y3.186
N5890 X-.333 Y3.183
N5895 X-.499 Y3.177
N5900 X-.665 Y3.169
N5905 X-.832 Y3.158
N5910 X-.998 Y3.145
N5915 X-1.163 Y3.13
N5920 X-1.329 Y3.112
N5925 X-1.494 Y3.092
N5930 X-1.66 Y3.07
N5935 X-1.825 Y3.046
N5940 X-1.989 Y3.019
N5945 X-2.154 Y2.989
N5950 X-2.317 Y2.958
N5955 X-2.481 Y2.924
N5960 X-2.644 Y2.888
N5965 X-2.807 Y2.849
N5970 X-2.969 Y2.808
N5975 X-3.131 Y2.765
N5980 X-3.293 Y2.719
N5985 X-3.453 Y2.671
N5990 X-3.614 Y2.621
N5995 X-3.773 Y2.568
N6000 X-3.932 Y2.513
N6005 X-4.091 Y2.456
N6010 X-4.249 Y2.396
N6015 X-4.406 Y2.334
N6020 X-4.562 Y2.27
N6025 X-4.718 Y2.203
N6030 X-4.873 Y2.134
N6035 X-5. Y2.076
N6040 Y-2.295
N6045 X-4.889 Y-2.31
N6050 X-4.718 Y-2.337
N6055 X-4.547 Y-2.367
N6060 X-4.378 Y-2.402
N6065 X-4.208 Y-2.439
N6070 X-4.04 Y-2.481
N6075 X-3.872 Y-2.526
N6080 X-3.705 Y-2.575
N6085 X-3.539 Y-2.628
N6090 X-3.374 Y-2.684
N6095 X-3.313 Y-2.707
N6100 X-3.08 Y-2.65
N6105 X-2.881 Y-2.607
N6110 X-2.669 Y-2.565
N6115 X-2.454 Y-2.527
N6120 X-2.239 Y-2.493
N6125 X-2.024 Y-2.463
N6130 X-1.808 Y-2.438
N6135 X-1.592 Y-2.416
N6140 X-1.376 Y-2.399
N6145 X-1.16 Y-2.387
N6150 X-.943 Y-2.378
N6155 X-.727 Y-2.374
N6160 X-.51
N6165 X-.294 Y-2.378
N6170 X-.077 Y-2.387
N6175 X.139 Y-2.399
N6180 X.355 Y-2.416
N6185 X.57 Y-2.437
N6190 X.785 Y-2.462
N6195 X1. Y-2.492
N6200 X1.214 Y-2.525
N6205 X1.428 Y-2.563
N6210 X1.641 Y-2.605
N6215 X1.853 Y-2.652
N6220 X2.064 Y-2.702
N6225 X2.275 Y-2.757
N6230 X2.378 Y-2.786
N6235 X2.439 Y-2.742
N6240 X2.648 Y-2.606
N6245 X2.863 Y-2.48
N6250 X3.083 Y-2.362
N6255 X3.309 Y-2.253
N6260 X3.539 Y-2.154
N6265 X3.773 Y-2.065
N6270 X4.012 Y-1.986
N6275 X4.254 Y-1.917
N6280 X4.5 Y-1.857
N6285 X4.749 Y-1.809
N6290 X5. Y-1.771
N6295 Y.345
N6300 X5.5
N6305 Y2.389
N6310 X5.357 Y2.46
N6315 X5.168 Y2.549
N6320 X4.95 Y2.648
N6325 X4.69 Y2.759
N6330 X4.563 Y2.81
N6335 X4.419 Y2.867
N6340 X4.265 Y2.925
N6345 X4.099 Y2.985
N6350 X3.933 Y3.042
N6355 X3.767 Y3.097
N6360 X3.6 Y3.149
N6365 X3.432 Y3.199
N6370 X3.264 Y3.247
N6375 X3.095 Y3.292
N6380 X2.926 Y3.335
N6385 X2.756 Y3.375
N6390 X2.586 Y3.413
N6395 X2.416 Y3.448
N6400 X2.245 Y3.481
N6405 X2.073 Y3.512
N6410 X1.902 Y3.54
N6415 X1.73 Y3.565
N6420 X1.558 Y3.588
N6425 X1.385 Y3.609
N6430 X1.213 Y3.627
N6435 X1.04 Y3.643
N6440 X.867 Y3.657
N6445 X.694 Y3.668
N6450 X.52 Y3.676
N6455 X.347 Y3.682
N6460 X.173 Y3.686
N6465 X0 Y3.687
N6470 X-.173 Y3.686
N6475 X-.347 Y3.682
N6480 X-.52 Y3.676
N6485 X-.694 Y3.668
N6490 X-.867 Y3.657
N6495 X-1.04 Y3.643
N6500 X-1.213 Y3.627
N6505 X-1.385 Y3.609
N6510 X-1.558 Y3.588
N6515 X-1.73 Y3.565
N6520 X-1.902 Y3.54
N6525 X-2.073 Y3.512
N6530 X-2.245 Y3.481
N6535 X-2.416 Y3.448
N6540 X-2.586 Y3.413
N6545 X-2.756 Y3.375
N6550 X-2.926 Y3.335
N6555 X-3.095 Y3.292
N6560 X-3.264 Y3.247
N6565 X-3.432 Y3.199
N6570 X-3.6 Y3.149
N6575 X-3.767 Y3.097
N6580 X-3.933 Y3.042
N6585 X-4.099 Y2.985
N6590 X-4.264 Y2.925
N6595 X-4.429 Y2.863
N6600 X-4.593 Y2.798
N6605 X-4.756 Y2.731
N6610 X-4.918 Y2.662
N6615 X-5.08 Y2.59
N6620 X-5.241 Y2.515
N6625 X-5.401 Y2.439
N6630 X-5.5 Y2.389
N6635 Y-2.747
N6640 X-5.444 Y-2.751
N6645 X-5.283 Y-2.765
N6650 X-5.121 Y-2.783
N6655 X-4.961 Y-2.805
N6660 X-4.801 Y-2.83
N6665 X-4.641 Y-2.859
N6670 X-4.482 Y-2.891
N6675 X-4.323 Y-2.926
N6680 X-4.165 Y-2.965
N6685 X-4.008 Y-3.008
N6690 X-3.851 Y-3.053
N6695 X-3.695 Y-3.103
N6700 X-3.541 Y-3.156
N6705 X-3.387 Y-3.212
N6710 X-3.341 Y-3.23
N6715 X-3.264 Y-3.209
N6720 X-2.968 Y-3.138
N6725 X-2.779 Y-3.096
N6730 X-2.576 Y-3.056
N6735 X-2.372 Y-3.02
N6740 X-2.166 Y-2.987
N6745 X-1.961 Y-2.959
N6750 X-1.755 Y-2.935
N6755 X-1.548 Y-2.914
N6760 X-1.342 Y-2.898
N6765 X-1.135 Y-2.886
N6770 X-.928 Y-2.878
N6775 X-.722 Y-2.874
N6780 X-.515
N6785 X-.308 Y-2.878
N6790 X-.102 Y-2.886
N6795 X.105 Y-2.898
N6800 X.311 Y-2.914
N6805 X.517 Y-2.934
N6810 X.722 Y-2.958
N6815 X.927 Y-2.987
N6820 X1.132 Y-3.019
N6825 X1.336 Y-3.055
N6830 X1.539 Y-3.095
N6835 X1.742 Y-3.139
N6840 X1.943 Y-3.187
N6845 X2.145 Y-3.239
N6850 X2.345 Y-3.296
N6855 X2.474 Y-3.335
N6860 X2.533 Y-3.288
N6865 X2.72 Y-3.156
N6870 X2.911 Y-3.032
N6875 X3.108 Y-2.915
N6880 X3.31 Y-2.808
N6885 X3.516 Y-2.708
N6890 X3.727 Y-2.618
N6895 X3.941 Y-2.536
N6900 X4.16 Y-2.464
N6905 X4.381 Y-2.4
N6910 X4.606 Y-2.346
N6915 X4.834 Y-2.302
N6920 X5.069 Y-2.266
N6925 X5.326 Y-2.24
N6930 X5.5 Y-2.23
N6935 Y.345
N6940 X6.
N6945 Y2.694
N6950 X5.896 Y2.749
N6955 X5.747 Y2.825
N6960 X5.575 Y2.91
N6965 X5.378 Y3.003
N6970 X5.151 Y3.105
N6975 X4.882 Y3.22
N6980 X4.749 Y3.274
N6985 X4.599 Y3.333
N6990 X4.438 Y3.394
N6995 X4.266 Y3.456
N7000 X4.093 Y3.516
N7005 X3.92 Y3.573
N7010 X3.746 Y3.627
N7015 X3.571 Y3.68
N7020 X3.396 Y3.729
N7025 X3.221 Y3.776
N7030 X3.045 Y3.82
N7035 X2.868 Y3.862
N7040 X2.691 Y3.902
N7045 X2.514 Y3.938
N7050 X2.336 Y3.973
N7055 X2.158 Y4.004
N7060 X1.979 Y4.034
N7065 X1.8 Y4.06
N7070 X1.621 Y4.084
N7075 X1.441 Y4.106
N7080 X1.262 Y4.125
N7085 X1.082 Y4.142
N7090 X.902 Y4.156
N7095 X.722 Y4.167
N7100 X.541 Y4.176
N7105 X.361 Y4.182
N7110 X.18 Y4.186
N7115 X0 Y4.187
N7120 X-.18 Y4.186
N7125 X-.361 Y4.182
N7130 X-.541 Y4.176
N7135 X-.722 Y4.167
N7140 X-.902 Y4.156
N7145 X-1.082 Y4.142
N7150 X-1.262 Y4.125
N7155 X-1.441 Y4.106
N7160 X-1.621 Y4.084
N7165 X-1.8 Y4.06
N7170 X-1.979 Y4.034
N7175 X-2.158 Y4.004
N7180 X-2.336 Y3.973
N7185 X-2.514 Y3.938
N7190 X-2.691 Y3.902
N7195 X-2.868 Y3.862
N7200 X-3.045 Y3.82
N7205 X-3.221 Y3.776
N7210 X-3.396 Y3.729
N7215 X-3.571 Y3.68
N7220 X-3.746 Y3.627
N7225 X-3.92 Y3.573
N7230 X-4.093 Y3.516
N7235 X-4.266 Y3.456
N7240 X-4.438 Y3.394
N7245 X-4.609 Y3.329
N7250 X-4.78 Y3.262
N7255 X-4.949 Y3.192
N7260 X-5.118 Y3.12
N7265 X-5.287 Y3.045
N7270 X-5.454 Y2.968
N7275 X-5.62 Y2.888
N7280 X-5.786 Y2.805
N7285 X-5.951 Y2.72
N7290 X-6. Y2.694
N7295 Y-2.965
N7300 X-6.006 Y-3.175
N7305 X-6.011 Y-3.227
N7310 X-5.937 Y-3.228
N7315 X-5.786 Y-3.232
N7320 X-5.635 Y-3.239
N7325 X-5.484 Y-3.249
N7330 X-5.333 Y-3.263
N7335 X-5.183 Y-3.28
N7340 X-5.033 Y-3.3
N7345 X-4.883 Y-3.323
N7350 X-4.734 Y-3.35
N7355 X-4.585 Y-3.38
N7360 X-4.437 Y-3.413
N7365 X-4.29 Y-3.449
N7370 X-4.143 Y-3.489
N7375 X-3.997 Y-3.532
N7380 X-3.852 Y-3.578
N7385 X-3.707 Y-3.627
N7390 X-3.564 Y-3.68
N7395 X-3.421 Y-3.735
N7400 X-3.371 Y-3.756
N7405 X-3.362 Y-3.754
N7410 X-3.14 Y-3.694
N7415 X-2.856 Y-3.625
N7420 X-2.677 Y-3.586
N7425 X-2.484 Y-3.548
N7430 X-2.289 Y-3.513
N7435 X-2.093 Y-3.482
N7440 X-1.897 Y-3.455
N7445 X-1.701 Y-3.432
N7450 X-1.504 Y-3.413
N7455 X-1.308 Y-3.397
N7460 X-1.111 Y-3.386
N7465 X-.914 Y-3.378
N7470 X-.717 Y-3.374
N7475 X-.52
N7480 X-.323 Y-3.378
N7485 X-.126 Y-3.385
N7490 X.071 Y-3.397
N7495 X.267 Y-3.412
N7500 X.463 Y-3.431
N7505 X.659 Y-3.454
N7510 X.854 Y-3.481
N7515 X1.049 Y-3.512
N7520 X1.243 Y-3.546
N7525 X1.437 Y-3.585
N7530 X1.63 Y-3.627
N7535 X1.823 Y-3.673
N7540 X2.014 Y-3.722
N7545 X2.205 Y-3.776
N7550 X2.395 Y-3.833
N7555 X2.579 Y-3.892
N7560 X2.668 Y-3.817
N7565 X2.832 Y-3.69
N7570 X3.001 Y-3.57
N7575 X3.175 Y-3.457
N7580 X3.353 Y-3.351
N7585 X3.536 Y-3.254
N7590 X3.723 Y-3.164
N7595 X3.914 Y-3.081
N7600 X4.109 Y-3.007
N7605 X4.307 Y-2.941
N7610 X4.509 Y-2.884
N7615 X4.713 Y-2.835
N7620 X4.92 Y-2.795
N7625 X5.132 Y-2.762
N7630 X5.365 Y-2.738
N7635 X5.592 Y-2.726
N7640 X5.766 Y-2.723
N7645 X5.969 Y-2.728
N7650 X6. Y-2.73
N7655 Y.345
N7660 X6.5
N7665 X6.498 Y2.992
N7670 X6.257 Y3.124
N7675 X6.126 Y3.193
N7680 X5.971 Y3.272
N7685 X5.793 Y3.36
N7690 X5.588 Y3.457
N7695 X5.352 Y3.563
N7700 X5.075 Y3.682
N7705 X4.934 Y3.739
N7710 X4.778 Y3.8
N7715 X4.612 Y3.863
N7720 X4.432 Y3.928
N7725 X4.253 Y3.99
N7730 X4.073 Y4.049
N7735 X3.892 Y4.106
N7740 X3.711 Y4.16
N7745 X3.529 Y4.211
N7750 X3.347 Y4.26
N7755 X3.164 Y4.306
N7760 X2.98 Y4.35
N7765 X2.796 Y4.39
N7770 X2.612 Y4.429
N7775 X2.427 Y4.464
N7780 X2.242 Y4.497
N7785 X2.056 Y4.528
N7790 X1.87 Y4.555
N7795 X1.684 Y4.58
N7800 X1.498 Y4.603
N7805 X1.311 Y4.623
N7810 X1.124 Y4.64
N7815 X.937 Y4.654
N7820 X.75 Y4.666
N7825 X.562 Y4.675
N7830 X.375 Y4.682
N7835 X.188 Y4.686
N7840 X0 Y4.687
N7845 X-.188 Y4.686
N7850 X-.375 Y4.682
N7855 X-.562 Y4.675
N7860 X-.75 Y4.666
N7865 X-.937 Y4.654
N7870 X-1.124 Y4.64
N7875 X-1.311 Y4.623
N7880 X-1.498 Y4.603
N7885 X-1.684 Y4.58
N7890 X-1.87 Y4.555
N7895 X-2.056 Y4.528
N7900 X-2.242 Y4.497
N7905 X-2.427 Y4.464
N7910 X-2.612 Y4.429
N7915 X-2.796 Y4.39
N7920 X-2.98 Y4.35
N7925 X-3.164 Y4.306
N7930 X-3.347 Y4.26
N7935 X-3.529 Y4.211
N7940 X-3.711 Y4.16
N7945 X-3.892 Y4.106
N7950 X-4.073 Y4.049
N7955 X-4.253 Y3.99
N7960 X-4.432 Y3.928
N7965 X-4.611 Y3.863
N7970 X-4.789 Y3.796
N7975 X-4.966 Y3.726
N7980 X-5.143 Y3.653
N7985 X-5.318 Y3.578
N7990 X-5.493 Y3.5
N7995 X-5.667 Y3.42
N8000 X-5.84 Y3.337
N8005 X-6.012 Y3.251
N8010 X-6.183 Y3.163
N8015 X-6.354 Y3.072
N8020 X-6.5 Y2.991
N8025 Y-2.958
N8030 X-6.506 Y-3.145
N8035 X-6.524 Y-3.35
N8040 X-6.546 Y-3.502
N8045 X-6.571 Y-3.643
N8050 X-6.595 Y-3.751
N8055 X-6.506 Y-3.744
N8060 X-6.366 Y-3.735
N8065 X-6.225 Y-3.73
N8070 X-6.085 Y-3.727
N8075 X-5.944 Y-3.728
N8080 X-5.804 Y-3.731
N8085 X-5.664 Y-3.738
N8090 X-5.523 Y-3.748
N8095 X-5.384 Y-3.76
N8100 X-5.244 Y-3.776
N8105 X-5.105 Y-3.795
N8110 X-4.966 Y-3.816
N8115 X-4.827 Y-3.841
N8120 X-4.689 Y-3.869
N8125 X-4.552 Y-3.9
N8130 X-4.415 Y-3.933
N8135 X-4.279 Y-3.97
N8140 X-4.143 Y-4.01
N8145 X-4.008 Y-4.053
N8150 X-3.874 Y-4.099
N8155 X-3.741 Y-4.147
N8160 X-3.608 Y-4.199
N8165 X-3.477 Y-4.254
N8170 X-3.402 Y-4.287
N8175 X-3.39 Y-4.283
N8180 X-3.227 Y-4.235
N8185 X-3.016 Y-4.178
N8190 X-2.744 Y-4.112
N8195 X-2.575 Y-4.075
N8200 X-2.392 Y-4.039
N8205 X-2.206 Y-4.006
N8210 X-2.02 Y-3.977
N8215 X-1.834 Y-3.951
N8220 X-1.647 Y-3.929
N8225 X-1.461 Y-3.911
N8230 X-1.274 Y-3.896
N8235 X-1.086 Y-3.885
N8240 X-.899 Y-3.878
N8245 X-.712 Y-3.874
N8250 X-.525
N8255 X-.337 Y-3.878
N8260 X-.15 Y-3.885
N8265 X.037 Y-3.896
N8270 X.223 Y-3.91
N8275 X.41 Y-3.929
N8280 X.596 Y-3.95
N8285 X.781 Y-3.976
N8290 X.967 Y-4.005
N8295 X1.151 Y-4.038
N8300 X1.335 Y-4.074
N8305 X1.519 Y-4.114
N8310 X1.702 Y-4.158
N8315 X1.884 Y-4.205
N8320 X2.066 Y-4.256
N8325 X2.246 Y-4.31
N8330 X2.426 Y-4.368
N8335 X2.604 Y-4.43
N8340 X2.693 Y-4.463
N8345 X2.702 Y-4.453
N8350 X2.84 Y-4.326
N8355 X2.983 Y-4.206
N8360 X3.13 Y-4.091
N8365 X3.282 Y-3.983
N8370 X3.438 Y-3.882
N8375 X3.598 Y-3.787
N8380 X3.763 Y-3.7
N8385 X3.931 Y-3.619
N8390 X4.102 Y-3.545
N8395 X4.277 Y-3.478
N8400 X4.455 Y-3.419
N8405 X4.636 Y-3.368
N8410 X4.819 Y-3.324
N8415 X5.005 Y-3.287
N8420 X5.195 Y-3.259
N8425 X5.405 Y-3.237
N8430 X5.61 Y-3.225
N8435 X5.764 Y-3.223
N8440 X5.947 Y-3.227
N8445 X6.134 Y-3.239
N8450 X6.32 Y-3.26
N8455 X6.504 Y-3.287
N8460 X6.515 Y-3.289
N8465 X6.511 Y-3.257
N8470 X6.503 Y-3.114
N8475 X6.5 Y-2.991
N8480 Y.345
N8485 X7.
N8490 Y3.279
N8495 X6.919 Y3.327
N8500 X6.742 Y3.429
N8505 X6.493 Y3.564
N8510 X6.356 Y3.637
N8515 X6.195 Y3.719
N8520 X6.01 Y3.81
N8525 X5.798 Y3.911
N8530 X5.553 Y4.021
N8535 X5.267 Y4.143
N8540 X5.12 Y4.203
N8545 X4.958 Y4.267
N8550 X4.785 Y4.332
N8555 X4.599 Y4.399
N8560 X4.413 Y4.463
N8565 X4.226 Y4.525
N8570 X4.039 Y4.584
N8575 X3.85 Y4.64
N8580 X3.662 Y4.693
N8585 X3.472 Y4.744
N8590 X3.282 Y4.792
N8595 X3.092 Y4.837
N8600 X2.901 Y4.879
N8605 X2.71 Y4.919
N8610 X2.518 Y4.956
N8615 X2.326 Y4.99
N8620 X2.133 Y5.022
N8625 X1.94 Y5.05
N8630 X1.747 Y5.076
N8635 X1.554 Y5.1
N8640 X1.36 Y5.12
N8645 X1.166 Y5.138
N8650 X.972 Y5.153
N8655 X.778 Y5.165
N8660 X.584 Y5.175
N8665 X.389 Y5.182
N8670 X.195 Y5.186
N8675 X0 Y5.187
N8680 X-.195 Y5.186
N8685 X-.389 Y5.182
N8690 X-.584 Y5.175
N8695 X-.778 Y5.165
N8700 X-.972 Y5.153
N8705 X-1.166 Y5.138
N8710 X-1.36 Y5.12
N8715 X-1.554 Y5.1
N8720 X-1.747 Y5.076
N8725 X-1.94 Y5.05
N8730 X-2.133 Y5.022
N8735 X-2.326 Y4.99
N8740 X-2.518 Y4.956
N8745 X-2.71 Y4.919
N8750 X-2.901 Y4.879
N8755 X-3.092 Y4.837
N8760 X-3.282 Y4.792
N8765 X-3.472 Y4.744
N8770 X-3.662 Y4.693
N8775 X-3.85 Y4.64
N8780 X-4.039 Y4.584
N8785 X-4.226 Y4.525
N8790 X-4.413 Y4.463
N8795 X-4.599 Y4.399
N8800 X-4.785 Y4.332
N8805 X-4.969 Y4.262
N8810 X-5.153 Y4.19
N8815 X-5.336 Y4.114
N8820 X-5.518 Y4.036
N8825 X-5.7 Y3.956
N8830 X-5.88 Y3.872
N8835 X-6.06 Y3.786
N8840 X-6.238 Y3.697
N8845 X-6.416 Y3.605
N8850 X-6.593 Y3.511
N8855 X-6.768 Y3.414
N8860 X-6.943 Y3.314
N8865 X-7. Y3.28
N8870 Y-2.95
N8875 X-7.005 Y-3.115
N8880 X-7.021 Y-3.292
N8885 X-7.039 Y-3.422
N8890 X-7.061 Y-3.543
N8895 X-7.088 Y-3.664
N8900 X-7.12 Y-3.782
N8905 X-7.156 Y-3.9
N8910 X-7.197 Y-4.015
N8915 X-7.242 Y-4.129
N8920 X-7.292 Y-4.241
N8925 X-7.346 Y-4.351
N8930 X-7.358 Y-4.374
N8935 X-7.244 Y-4.349
N8940 X-7.116 Y-4.324
N8945 X-6.987 Y-4.302
N8950 X-6.858 Y-4.283
N8955 X-6.729 Y-4.267
N8960 X-6.6 Y-4.253
N8965 X-6.47 Y-4.242
N8970 X-6.341 Y-4.235
N8975 X-6.211 Y-4.229
N8980 X-6.081 Y-4.227
N8985 X-5.952 Y-4.228
N8990 X-5.822 Y-4.231
N8995 X-5.693 Y-4.237
N9000 X-5.563 Y-4.246
N9005 X-5.434 Y-4.258
N9010 X-5.305 Y-4.272
N9015 X-5.177 Y-4.289
N9020 X-5.048 Y-4.31
N9025 X-4.921 Y-4.332
N9030 X-4.793 Y-4.358
N9035 X-4.666 Y-4.386
N9040 X-4.54 Y-4.418
N9045 X-4.414 Y-4.452
N9050 X-4.289 Y-4.488
N9055 X-4.164 Y-4.528
N9060 X-4.041 Y-4.57
N9065 X-3.918 Y-4.615
N9070 X-3.795 Y-4.663
N9075 X-3.674 Y-4.713
N9080 X-3.554 Y-4.767
N9085 X-3.436 Y-4.822
N9090 X-3.245 Y-4.761
N9095 X-3.091 Y-4.716
N9100 X-2.892 Y-4.662
N9105 X-2.632 Y-4.599
N9110 X-2.474 Y-4.565
N9115 X-2.299 Y-4.53
N9120 X-2.123 Y-4.499
N9125 X-1.947 Y-4.471
N9130 X-1.771 Y-4.447
N9135 X-1.594 Y-4.426
N9140 X-1.417 Y-4.409
N9145 X-1.239 Y-4.395
N9150 X-1.062 Y-4.384
N9155 X-.884 Y-4.377
N9160 X-.707 Y-4.374
N9165 X-.529
N9170 X-.352 Y-4.377
N9175 X-.175 Y-4.384
N9180 X.003 Y-4.395
N9185 X.18 Y-4.408
N9190 X.356 Y-4.426
N9195 X.533 Y-4.446
N9200 X.709 Y-4.471
N9205 X.884 Y-4.498
N9210 X1.059 Y-4.529
N9215 X1.234 Y-4.564
N9220 X1.408 Y-4.602
N9225 X1.581 Y-4.643
N9230 X1.754 Y-4.688
N9235 X1.926 Y-4.736
N9240 X2.097 Y-4.788
N9245 X2.267 Y-4.843
N9250 X2.437 Y-4.901
N9255 X2.605 Y-4.963
N9260 X2.773 Y-5.028
N9265 X2.826 Y-5.047
N9270 X2.932 Y-4.931
N9275 X3.049 Y-4.814
N9280 X3.171 Y-4.701
N9285 X3.298 Y-4.594
N9290 X3.428 Y-4.493
N9295 X3.563 Y-4.397
N9300 X3.701 Y-4.307
N9305 X3.843 Y-4.223
N9310 X3.989 Y-4.146
N9315 X4.138 Y-4.074
N9320 X4.29 Y-4.008
N9325 X4.445 Y-3.95
N9330 X4.603 Y-3.897
N9335 X4.763 Y-3.851
N9340 X4.925 Y-3.812
N9345 X5.09 Y-3.78
N9350 X5.258 Y-3.755
N9355 X5.445 Y-3.735
N9360 X5.627 Y-3.725
N9365 X5.762 Y-3.723
N9370 X5.925 Y-3.727
N9375 X6.091 Y-3.738
N9380 X6.256 Y-3.756
N9385 X6.419 Y-3.78
N9390 X6.582 Y-3.812
N9395 X6.742 Y-3.85
N9400 X6.901 Y-3.896
N9405 X7.058 Y-3.947
N9410 X7.18 Y-3.994
N9415 X7.157 Y-3.928
N9420 X7.12 Y-3.813
N9425 X7.089 Y-3.696
N9430 X7.062 Y-3.578
N9435 X7.04 Y-3.458
N9440 X7.022 Y-3.337
N9445 X7.01 Y-3.216
N9450 X7.002 Y-3.093
N9455 X7. Y-2.986
N9460 Y.345
N9465 X7.5
N9470 Y3.562
N9475 X7.453 Y3.592
N9480 X7.171 Y3.759
N9485 X6.986 Y3.865
N9490 X6.73 Y4.005
N9495 X6.587 Y4.08
N9500 X6.42 Y4.166
N9505 X6.228 Y4.26
N9510 X6.008 Y4.365
N9515 X5.754 Y4.479
N9520 X5.459 Y4.605
N9525 X5.305 Y4.667
N9530 X5.138 Y4.733
N9535 X4.958 Y4.801
N9540 X4.766 Y4.87
N9545 X4.573 Y4.937
N9550 X4.379 Y5.001
N9555 X4.185 Y5.062
N9560 X3.99 Y5.12
N9565 X3.794 Y5.175
N9570 X3.598 Y5.228
N9575 X3.401 Y5.277
N9580 X3.204 Y5.324
N9585 X3.006 Y5.368
N9590 X2.808 Y5.409
N9595 X2.609 Y5.448
N9600 X2.41 Y5.483
N9605 X2.211 Y5.516
N9610 X2.011 Y5.545
N9615 X1.811 Y5.572
N9620 X1.61 Y5.597
N9625 X1.409 Y5.618
N9630 X1.208 Y5.636
N9635 X1.007 Y5.652
N9640 X.806 Y5.665
N9645 X.605 Y5.675
N9650 X.403 Y5.682
N9655 X.202 Y5.686
N9660 X0 Y5.687
N9665 X-.202 Y5.686
N9670 X-.403 Y5.682
N9675 X-.605 Y5.675
N9680 X-.806 Y5.665
N9685 X-1.007 Y5.652
N9690 X-1.208 Y5.636
N9695 X-1.409 Y5.618
N9700 X-1.61 Y5.597
N9705 X-1.811 Y5.572
N9710 X-2.011 Y5.545
N9715 X-2.211 Y5.516
N9720 X-2.41 Y5.483
N9725 X-2.609 Y5.448
N9730 X-2.808 Y5.409
N9735 X-3.006 Y5.368
N9740 X-3.204 Y5.324
N9745 X-3.401 Y5.277
N9750 X-3.598 Y5.228
N9755 X-3.794 Y5.175
N9760 X-3.99 Y5.12
N9765 X-4.185 Y5.062
N9770 X-4.379 Y5.001
N9775 X-4.573 Y4.937
N9780 X-4.766 Y4.87
N9785 X-4.958 Y4.801
N9790 X-5.149 Y4.729
N9795 X-5.34 Y4.654
N9800 X-5.53 Y4.576
N9805 X-5.718 Y4.495
N9810 X-5.906 Y4.411
N9815 X-6.093 Y4.325
N9820 X-6.28 Y4.235
N9825 X-6.465 Y4.143
N9830 X-6.649 Y4.048
N9835 X-6.832 Y3.95
N9840 X-7.014 Y3.849
N9845 X-7.194 Y3.746
N9850 X-7.374 Y3.639
N9855 X-7.5 Y3.562
N9860 Y-2.943
N9865 X-7.504 Y-3.084
N9870 X-7.518 Y-3.235
N9875 X-7.533 Y-3.342
N9880 X-7.552 Y-3.444
N9885 X-7.574 Y-3.545
N9890 X-7.601 Y-3.644
N9895 X-7.631 Y-3.743
N9900 X-7.665 Y-3.84
N9905 X-7.703 Y-3.935
N9910 X-7.745 Y-4.029
N9915 X-7.79 Y-4.122
N9920 X-7.839 Y-4.212
N9925 X-7.892 Y-4.301
N9930 X-7.948 Y-4.387
N9935 X-8.008 Y-4.472
N9940 X-8.071 Y-4.554
N9945 X-8.138 Y-4.634
N9950 X-8.207 Y-4.711
N9955 X-8.26 Y-4.764
N9960 X-8.292 Y-4.798
N9965 X-8.305 Y-4.815
N9970 X-8.315 Y-4.83
N9975 X-8.321 Y-4.842
N9980 X-8.326 Y-4.854
N9985 X-8.331 Y-4.867
N9990 X-8.334 Y-4.88
N9995 X-8.337 Y-4.893
N5 X-8.339 Y-4.906
N10 X-8.34 Y-4.92
N15 Y-4.934
N20 Y-4.947
N25 X-8.338 Y-4.96
N30 X-8.335 Y-4.974
N35 X-8.332 Y-4.986
N40 X-8.327 Y-4.999
N45 X-8.322 Y-5.012
N50 X-8.316 Y-5.024
N55 X-8.309 Y-5.035
N60 X-8.298 Y-5.05
N65 X-8.284 Y-5.067
N70 X-8.272 Y-5.079
N75 X-8.261 Y-5.087
N80 X-8.25 Y-5.095
N85 X-8.239 Y-5.102
N90 X-8.227 Y-5.108
N95 X-8.214 Y-5.114
N100 X-8.201 Y-5.118
N105 X-8.188 Y-5.122
N110 X-8.175 Y-5.125
N115 X-8.162 Y-5.127
N120 X-8.148 Y-5.128
N125 X-8.135
N130 X-8.122 Y-5.127
N135 X-8.108 Y-5.125
N140 X-8.095 Y-5.122
N145 X-8.081 Y-5.119
N150 X-8.043 Y-5.105
N155 X-7.9 Y-5.051
N160 X-7.733 Y-4.994
N165 X-7.615 Y-4.957
N170 X-7.463 Y-4.914
N175 X-7.265 Y-4.865
N180 X-7.144 Y-4.839
N185 X-7.026 Y-4.816
N190 X-6.908 Y-4.796
N195 X-6.79 Y-4.778
N200 X-6.672 Y-4.763
N205 X-6.553 Y-4.751
N210 X-6.434 Y-4.741
N215 X-6.316 Y-4.734
N220 X-6.197 Y-4.729
N225 X-6.078 Y-4.727
N230 X-5.959 Y-4.728
N235 X-5.84 Y-4.731
N240 X-5.721 Y-4.736
N245 X-5.603 Y-4.744
N250 X-5.485 Y-4.755
N255 X-5.366 Y-4.768
N260 X-5.249 Y-4.784
N265 X-5.131 Y-4.803
N270 X-5.014 Y-4.824
N275 X-4.897 Y-4.847
N280 X-4.781 Y-4.873
N285 X-4.665 Y-4.902
N290 X-4.55 Y-4.933
N295 X-4.435 Y-4.967
N300 X-4.321 Y-5.003
N305 X-4.207 Y-5.041
N310 X-4.095 Y-5.083
N315 X-3.983 Y-5.126
N320 X-3.871 Y-5.173
N325 X-3.761 Y-5.222
N330 X-3.651 Y-5.273
N335 X-3.543 Y-5.327
N340 X-3.474 Y-5.363
N345 X-3.308 Y-5.305
N350 X-3.1 Y-5.24
N355 X-2.956 Y-5.198
N360 X-2.767 Y-5.147
N365 X-2.52 Y-5.087
N370 X-2.372 Y-5.055
N375 X-2.207 Y-5.022
N380 X-2.041 Y-4.992
N385 X-1.874 Y-4.966
N390 X-1.707 Y-4.943
N395 X-1.54 Y-4.923
N400 X-1.373 Y-4.907
N405 X-1.205 Y-4.894
N410 X-1.037 Y-4.884
N415 X-.87 Y-4.877
N420 X-.702 Y-4.874
N425 X-.534
N430 X-.366 Y-4.877
N435 X-.199 Y-4.884
N440 X-.031 Y-4.894
N445 X.136 Y-4.907
N450 X.303 Y-4.923
N455 X.469 Y-4.942
N460 X.636 Y-4.965
N465 X.802 Y-4.991
N470 X.967 Y-5.021
N475 X1.132 Y-5.053
N480 X1.297 Y-5.089
N485 X1.46 Y-5.128
N490 X1.624 Y-5.171
N495 X1.786 Y-5.216
N500 X1.948 Y-5.265
N505 X2.109 Y-5.317
N510 X2.269 Y-5.372
N515 X2.428 Y-5.431
N520 X2.586 Y-5.492
N525 X2.744 Y-5.557
N530 X2.9 Y-5.626
N535 X2.978 Y-5.662
N540 X3.024 Y-5.597
N545 X3.123 Y-5.47
N550 X3.198 Y-5.382
N555 X3.294 Y-5.277
N560 X3.396 Y-5.174
N565 X3.502 Y-5.076
N570 X3.613 Y-4.983
N575 X3.726 Y-4.894
N580 X3.844 Y-4.811
N585 X3.964 Y-4.733
N590 X4.088 Y-4.659
N595 X4.215 Y-4.592
N600 X4.345 Y-4.529
N605 X4.478 Y-4.472
N610 X4.613 Y-4.421
N615 X4.75 Y-4.375
N620 X4.89 Y-4.335
N625 X5.032 Y-4.301
N630 X5.175 Y-4.273
N635 X5.322 Y-4.251
N640 X5.485 Y-4.234
N645 X5.645 Y-4.225
N650 X5.761 Y-4.223
N655 X5.903 Y-4.226
N660 X6.048 Y-4.236
N665 X6.191 Y-4.251
N670 X6.334 Y-4.273
N675 X6.475 Y-4.301
N680 X6.616 Y-4.334
N685 X6.754 Y-4.374
N690 X6.891 Y-4.419
N695 X7.025 Y-4.47
N700 X7.158 Y-4.526
N705 X7.288 Y-4.589
N710 X7.415 Y-4.657
N715 X7.54 Y-4.73
N720 X7.662 Y-4.809
N725 X7.781 Y-4.893
N730 X7.897 Y-4.983
N735 X7.987 Y-5.06
N740 X8.02 Y-5.087
N745 X8.036 Y-5.098
N750 X8.044 Y-5.103
N755 X8.062 Y-5.112
N760 X8.076 Y-5.117
N765 X8.09 Y-5.121
N770 X8.105 Y-5.125
N775 X8.12 Y-5.127
N780 X8.136 Y-5.128
N785 X8.151 Y-5.127
N790 X8.167 Y-5.126
N795 X8.182 Y-5.123
N800 X8.197 Y-5.12
N805 X8.211 Y-5.115
N810 X8.225 Y-5.109
N815 X8.238 Y-5.103
N820 X8.251 Y-5.095
N825 X8.263 Y-5.086
N830 X8.275 Y-5.075
N835 X8.29 Y-5.061
N840 X8.297 Y-5.052
N845 X8.309 Y-5.037
N850 X8.314 Y-5.028
N855 X8.323 Y-5.01
N860 X8.328 Y-4.996
N865 X8.333 Y-4.982
N870 X8.336 Y-4.967
N875 X8.339 Y-4.952
N880 X8.34 Y-4.937
N885 Y-4.921
N890 X8.339 Y-4.906
N895 X8.337 Y-4.891
N900 X8.333 Y-4.876
N905 X8.329 Y-4.861
N910 X8.323 Y-4.847
N915 X8.317 Y-4.834
N920 X8.309 Y-4.821
N925 X8.3 Y-4.809
N930 X8.29 Y-4.796
N935 X8.253 Y-4.759
N940 X8.17 Y-4.674
N945 X8.073 Y-4.563
N950 X8.007 Y-4.479
N955 X7.947 Y-4.397
N960 X7.891 Y-4.313
N965 X7.839 Y-4.227
N970 X7.79 Y-4.139
N975 X7.744 Y-4.049
N980 X7.703 Y-3.957
N985 X7.665 Y-3.864
N990 X7.631 Y-3.769
N995 X7.6 Y-3.673
N1000 X7.574 Y-3.575
N1005 X7.552 Y-3.476
N1010 X7.533 Y-3.377
N1015 X7.519 Y-3.276
N1020 X7.508 Y-3.175
N1025 X7.502 Y-3.073
N1030 X7.5 Y-2.981
N1035 Y.345
N1040 X8.
N1045 Y3.826
N1050 X7.999 Y3.839
N1055 X7.992 Y3.844
N1060 X7.713 Y4.018
N1065 X7.423 Y4.191
N1070 X7.229 Y4.302
N1075 X6.966 Y4.446
N1080 X6.817 Y4.524
N1085 X6.644 Y4.612
N1090 X6.446 Y4.71
N1095 X6.217 Y4.818
N1100 X5.955 Y4.937
N1105 X5.651 Y5.066
N1110 X5.491 Y5.132
N1115 X5.317 Y5.2
N1120 X5.131 Y5.27
N1125 X4.932 Y5.342
N1130 X4.733 Y5.411
N1135 X4.532 Y5.477
N1140 X4.331 Y5.54
N1145 X4.129 Y5.6
N1150 X3.927 Y5.657
N1155 X3.724 Y5.712
N1160 X3.52 Y5.763
N1165 X3.316 Y5.812
N1170 X3.111 Y5.857
N1175 X2.906 Y5.9
N1180 X2.7 Y5.939
N1185 X2.494 Y5.976
N1190 X2.288 Y6.01
N1195 X2.081 Y6.041
N1200 X1.874 Y6.068
N1205 X1.666 Y6.093
N1210 X1.459 Y6.115
N1215 X1.251 Y6.134
N1220 X1.042 Y6.151
N1225 X.834 Y6.164
N1230 X.626 Y6.174
N1235 X.417 Y6.181
N1240 X.209 Y6.186
N1245 X0 Y6.187
N1250 X-.209 Y6.186
N1255 X-.417 Y6.181
N1260 X-.626 Y6.174
N1265 X-.834 Y6.164
N1270 X-1.042 Y6.151
N1275 X-1.251 Y6.134
N1280 X-1.459 Y6.115
N1285 X-1.666 Y6.093
N1290 X-1.874 Y6.068
N1295 X-2.081 Y6.041
N1300 X-2.288 Y6.01
N1305 X-2.494 Y5.976
N1310 X-2.7 Y5.939
N1315 X-2.906 Y5.9
N1320 X-3.111 Y5.857
N1325 X-3.316 Y5.812
N1330 X-3.52 Y5.763
N1335 X-3.724 Y5.712
N1340 X-3.927 Y5.657
N1345 X-4.129 Y5.6
N1350 X-4.331 Y5.54
N1355 X-4.532 Y5.477
N1360 X-4.733 Y5.411
N1365 X-4.932 Y5.342
N1370 X-5.131 Y5.27
N1375 X-5.329 Y5.195
N1380 X-5.527 Y5.117
N1385 X-5.723 Y5.037
N1390 X-5.918 Y4.953
N1395 X-6.113 Y4.866
N1400 X-6.307 Y4.777
N1405 X-6.499 Y4.684
N1410 X-6.691 Y4.589
N1415 X-6.881 Y4.491
N1420 X-7.071 Y4.389
N1425 X-7.259 Y4.285
N1430 X-7.446 Y4.178
N1435 X-7.632 Y4.068
N1440 X-7.817 Y3.955
N1445 X-7.991 Y3.845
N1450 X-7.999 Y3.839
N1455 X-8. Y3.826
N1460 Y-2.935
N1465 X-8.004 Y-3.054
N1470 X-8.015 Y-3.177
N1475 X-8.027 Y-3.263
N1480 X-8.042 Y-3.345
N1485 X-8.06 Y-3.426
N1490 X-8.081 Y-3.507
N1495 X-8.106 Y-3.586
N1500 X-8.133 Y-3.664
N1505 X-8.164 Y-3.742
N1510 X-8.198 Y-3.817
N1515 X-8.234 Y-3.892
N1520 X-8.274 Y-3.965
N1525 X-8.316 Y-4.037
N1530 X-8.362 Y-4.107
N1535 X-8.41 Y-4.175
N1540 X-8.461 Y-4.241
N1545 X-8.515 Y-4.305
N1550 X-8.571 Y-4.368
N1555 X-8.62 Y-4.418
N1560 X-8.669 Y-4.469
N1565 X-8.706 Y-4.515
N1570 X-8.723 Y-4.54
N1575 X-8.75 Y-4.583
N1580 X-8.772 Y-4.625
N1585 X-8.791 Y-4.669
N1590 X-8.807 Y-4.713
N1595 X-8.82 Y-4.759
N1600 X-8.83 Y-4.805
N1605 X-8.836 Y-4.852
N1610 X-8.84 Y-4.899
N1615 Y-4.946
N1620 X-8.838 Y-4.993
N1625 X-8.832 Y-5.04
N1630 X-8.823 Y-5.087
N1635 X-8.81 Y-5.133
N1640 X-8.795 Y-5.178
N1645 X-8.776 Y-5.223
N1650 X-8.753 Y-5.267
N1655 X-8.728 Y-5.309
N1660 X-8.695 Y-5.355
N1665 X-8.658 Y-5.4
N1670 X-8.637 Y-5.422
N1675 X-8.6 Y-5.457
N1680 X-8.563 Y-5.487
N1685 X-8.524 Y-5.514
N1690 X-8.483 Y-5.539
N1695 X-8.441 Y-5.56
N1700 X-8.398 Y-5.579
N1705 X-8.353 Y-5.595
N1710 X-8.308 Y-5.608
N1715 X-8.262 Y-5.618
N1720 X-8.215 Y-5.624
N1725 X-8.168 Y-5.628
N1730 X-8.12
N1735 X-8.073 Y-5.625
N1740 X-8.025 Y-5.618
N1745 X-7.977 Y-5.609
N1750 X-7.93 Y-5.595
N1755 X-7.871 Y-5.574
N1760 X-7.731 Y-5.521
N1765 X-7.578 Y-5.469
N1770 X-7.473 Y-5.437
N1775 X-7.334 Y-5.397
N1780 X-7.152 Y-5.352
N1785 X-7.043 Y-5.329
N1790 X-6.936 Y-5.308
N1795 X-6.829 Y-5.29
N1800 X-6.722 Y-5.274
N1805 X-6.614 Y-5.26
N1810 X-6.506 Y-5.249
N1815 X-6.399 Y-5.24
N1820 X-6.291 Y-5.233
N1825 X-6.183 Y-5.229
N1830 X-6.074 Y-5.227
N1835 X-5.966 Y-5.228
N1840 X-5.858 Y-5.23
N1845 X-5.75 Y-5.235
N1850 X-5.643 Y-5.243
N1855 X-5.535 Y-5.253
N1860 X-5.428 Y-5.265
N1865 X-5.321 Y-5.279
N1870 X-5.214 Y-5.296
N1875 X-5.107 Y-5.315
N1880 X-5.001 Y-5.336
N1885 X-4.895 Y-5.36
N1890 X-4.79 Y-5.386
N1895 X-4.685 Y-5.414
N1900 X-4.581 Y-5.445
N1905 X-4.477 Y-5.478
N1910 X-4.374 Y-5.513
N1915 X-4.271 Y-5.55
N1920 X-4.17 Y-5.59
N1925 X-4.069 Y-5.632
N1930 X-3.968 Y-5.677
N1935 X-3.869 Y-5.723
N1940 X-3.77 Y-5.772
N1945 X-3.684 Y-5.817
N1950 X-3.641 Y-5.838
N1955 X-3.61 Y-5.85
N1960 X-3.578 Y-5.859
N1965 X-3.545 Y-5.866
N1970 X-3.512 Y-5.87
N1975 X-3.479 Y-5.871
N1980 X-3.446 Y-5.869
N1985 X-3.413 Y-5.865
N1990 X-3.38 Y-5.857
N1995 X-3.335 Y-5.843
N2000 X-3.151 Y-5.78
N2005 X-2.955 Y-5.718
N2010 X-2.821 Y-5.679
N2015 X-2.643 Y-5.631
N2020 X-2.408 Y-5.574
N2025 X-2.27 Y-5.544
N2030 X-2.114 Y-5.513
N2035 X-1.958 Y-5.485
N2040 X-1.801 Y-5.461
N2045 X-1.644 Y-5.439
N2050 X-1.486 Y-5.42
N2055 X-1.329 Y-5.405
N2060 X-1.171 Y-5.393
N2065 X-1.013 Y-5.383
N2070 X-.855 Y-5.377
N2075 X-.697 Y-5.374
N2080 X-.539
N2085 X-.381 Y-5.377
N2090 X-.223 Y-5.383
N2095 X-.065 Y-5.392
N2100 X.092 Y-5.405
N2105 X.249 Y-5.42
N2110 X.406 Y-5.438
N2115 X.563 Y-5.46
N2120 X.719 Y-5.485
N2125 X.875 Y-5.512
N2130 X1.03 Y-5.543
N2135 X1.185 Y-5.577
N2140 X1.34 Y-5.613
N2145 X1.493 Y-5.653
N2150 X1.646 Y-5.696
N2155 X1.799 Y-5.742
N2160 X1.95 Y-5.791
N2165 X2.101 Y-5.843
N2170 X2.251 Y-5.898
N2175 X2.4 Y-5.956
N2180 X2.548 Y-6.018
N2185 X2.695 Y-6.082
N2190 X2.83 Y-6.144
N2195 X2.873 Y-6.162
N2200 X2.907 Y-6.173
N2205 X2.922 Y-6.177
N2210 X2.952 Y-6.183
N2215 X2.98 Y-6.186
N2220 X3.008 Y-6.187
N2225 X3.036 Y-6.186
N2230 X3.064 Y-6.184
N2235 X3.092 Y-6.179
N2240 X3.119 Y-6.173
N2245 X3.146 Y-6.164
N2250 X3.172 Y-6.154
N2255 X3.197 Y-6.142
N2260 X3.221 Y-6.128
N2265 X3.245 Y-6.113
N2270 X3.267 Y-6.095
N2275 X3.288 Y-6.077
N2280 X3.308 Y-6.056
N2285 X3.327 Y-6.034
N2290 X3.353 Y-5.997
N2295 X3.426 Y-5.895
N2300 X3.511 Y-5.786
N2305 X3.573 Y-5.712
N2310 X3.656 Y-5.622
N2315 X3.743 Y-5.534
N2320 X3.834 Y-5.451
N2325 X3.928 Y-5.371
N2330 X4.025 Y-5.296
N2335 X4.125 Y-5.225
N2340 X4.228 Y-5.158
N2345 X4.333 Y-5.095
N2350 X4.442 Y-5.037
N2355 X4.552 Y-4.984
N2360 X4.665 Y-4.936
N2365 X4.781 Y-4.892
N2370 X4.898 Y-4.853
N2375 X5.017 Y-4.819
N2380 X5.138 Y-4.79
N2385 X5.26 Y-4.766
N2390 X5.385 Y-4.747
N2395 X5.524 Y-4.732
N2400 X5.662 Y-4.725
N2405 X5.759 Y-4.723
N2410 X5.881 Y-4.726
N2415 X6.005 Y-4.734
N2420 X6.127 Y-4.747
N2425 X6.249 Y-4.766
N2430 X6.369 Y-4.789
N2435 X6.489 Y-4.818
N2440 X6.607 Y-4.852
N2445 X6.723 Y-4.89
N2450 X6.838 Y-4.934
N2455 X6.951 Y-4.982
N2460 X7.062 Y-5.035
N2465 X7.171 Y-5.093
N2470 X7.278 Y-5.156
N2475 X7.382 Y-5.223
N2480 X7.483 Y-5.295
N2485 X7.581 Y-5.371
N2490 X7.666 Y-5.443
N2495 X7.714 Y-5.483
N2500 X7.755 Y-5.512
N2505 X7.778 Y-5.527
N2510 X7.813 Y-5.547
N2515 X7.864 Y-5.571
N2520 X7.914 Y-5.591
N2525 X7.966 Y-5.606
N2530 X8.018 Y-5.617
N2535 X8.071 Y-5.624
N2540 X8.124 Y-5.628
N2545 X8.177 Y-5.627
N2550 X8.23 Y-5.622
N2555 X8.283 Y-5.613
N2560 X8.335 Y-5.601
N2565 X8.386 Y-5.584
N2570 X8.435 Y-5.563
N2575 X8.483 Y-5.539
N2580 X8.529 Y-5.511
N2585 X8.574 Y-5.478
N2590 X8.616 Y-5.442
N2595 X8.658 Y-5.4
N2600 X8.688 Y-5.364
N2605 X8.718 Y-5.324
N2610 X8.733 Y-5.302
N2615 X8.753 Y-5.267
N2620 X8.779 Y-5.216
N2625 X8.799 Y-5.166
N2630 X8.815 Y-5.115
N2635 X8.828 Y-5.063
N2640 X8.836 Y-5.011
N2645 X8.84 Y-4.957
N2650 Y-4.904
N2655 X8.836 Y-4.851
N2660 X8.828 Y-4.798
N2665 X8.817 Y-4.746
N2670 X8.801 Y-4.695
N2675 X8.781 Y-4.645
N2680 X8.757 Y-4.597
N2685 X8.73 Y-4.55
N2690 X8.698 Y-4.505
N2695 X8.663 Y-4.462
N2700 X8.61 Y-4.408
N2705 X8.536 Y-4.334
N2710 X8.457 Y-4.243
N2715 X8.405 Y-4.178
N2720 X8.358 Y-4.112
N2725 X8.313 Y-4.045
N2730 X8.271 Y-3.976
N2735 X8.232 Y-3.905
N2740 X8.196 Y-3.833
N2745 X8.162 Y-3.76
N2750 X8.132 Y-3.685
N2755 X8.105 Y-3.609
N2760 X8.08 Y-3.532
N2765 X8.059 Y-3.454
N2770 X8.041 Y-3.375
N2775 X8.027 Y-3.295
N2780 X8.015 Y-3.215
N2785 X8.007 Y-3.134
N2790 X8.002 Y-3.052
N2795 X8. Y-2.975
N2800 Y.345
N2805 G00 Z3.
N2810 Z25. M09
N2815 G00 G90 M05
N2820 G54 Z30 X0 Y0
N2825 M30
%
