%
O00001
(This Post Processor is distributed on an "AS IS" BASIS, )
(WITHOUT WARRANTIES OR CONDITIONS OF ANY KIND, either express or implied. )
N5 G21 G17 G40 G80 G90
N10 T01 M06 (1mm)
N15 G54 G90 G94 Z50
N20 S23000 M03
N25 G00 G90 X0 Y.28
N30 G43 H01 Z3. M08
N35 G01 Z-.9 F750.
N40 X.014 Y.282 F1500.
N45 X.026 Y.289
N50 X.036 Y.301
N55 X.042 Y.315
N60 X.044 Y.331
N65 X.043 Y.348
N70 X.036 Y.365
N75 X.026 Y.381
N80 X.012 Y.396
N85 X-.006 Y.408
N90 X-.027 Y.417
N95 X-.05 Y.423
N100 X-.075 Y.425
N105 X-.1 Y.422
N110 X-.126 Y.415
N115 X-.152 Y.403
N120 X-.176 Y.388
N125 X-.198 Y.368
N130 X-.218 Y.344
N135 X-.235 Y.317
N140 X-.248 Y.287
N145 X-.257 Y.255
N150 X-.261 Y.22
N155 Y.185
N160 X-.256 Y.149
N165 X-.247 Y.114
N170 X-.232 Y.079
N175 X-.213 Y.046
N180 X-.189 Y.014
N185 X-.161 Y-.014
N190 X-.129 Y-.04
N195 X-.094 Y-.061
N200 X-.055 Y-.079
N205 X-.014 Y-.092
N210 X.029 Y-.1
N215 X.073 Y-.103
N220 X.118 Y-.101
N225 X.163 Y-.094
N230 X.207 Y-.081
N235 X.251 Y-.064
N240 X.292 Y-.041
N245 X.332 Y-.013
N250 X.368 Y.019
N255 X.401 Y.056
N260 X.43 Y.096
N265 X.455 Y.14
N270 X.476 Y.187
N275 X.491 Y.237
N280 X.501 Y.288
N285 X.506 Y.34
N290 X.505 Y.394
N295 X.498 Y.447
N300 X.486 Y.5
N305 X.468 Y.552
N310 X.445 Y.603
N315 X.417 Y.651
N320 X.383 Y.696
N325 X.345 Y.738
N330 X.302 Y.777
N335 X.255 Y.811
N340 X.205 Y.841
N345 X.151 Y.865
N350 X.095 Y.885
N355 X.037 Y.899
N360 X-.022 Y.907
N365 X-.083 Y.91
N370 X-.144 Y.906
N375 X-.205 Y.897
N380 X-.265 Y.882
N385 X-.324 Y.861
N390 X-.381 Y.834
N395 X-.436 Y.802
N400 X-.488 Y.765
N405 X-.536 Y.722
N410 X-.581 Y.675
N415 X-.621 Y.624
N420 X-.656 Y.569
N425 X-.687 Y.51
N430 X-.712 Y.449
N435 X-.731 Y.385
N440 X-.745 Y.32
N445 X-.753 Y.252
N450 X-.754 Y.185
N455 X-.75 Y.116
N460 X-.739 Y.049
N465 X-.722 Y-.018
N470 X-.699 Y-.084
N475 X-.671 Y-.148
N480 X-.636 Y-.209
N485 X-.596 Y-.267
N490 X-.551 Y-.322
N495 X-.501 Y-.373
N500 X-.447 Y-.419
N505 X-.388 Y-.461
N510 X-.326 Y-.498
N515 X-.26 Y-.53
N520 X-.192 Y-.555
N525 X-.121 Y-.575
N530 X-.049 Y-.589
N535 X.025 Y-.597
N540 X.099 Y-.599
N545 X.174 Y-.594
N550 X.248 Y-.583
N555 X.322 Y-.565
N560 X.394 Y-.541
N565 X.464 Y-.512
N570 X.531 Y-.476
N575 X.596 Y-.434
N580 X.657 Y-.388
N585 X.715 Y-.336
N590 X.768 Y-.279
N595 X.817 Y-.218
N600 X.86 Y-.153
N605 X.898 Y-.084
N610 X.931 Y-.012
N615 X.958 Y.063
N620 X.979 Y.14
N625 X.993 Y.218
N630 X1.001 Y.298
N635 X1.003 Y.379
N640 X.998 Y.459
N645 X.987 Y.54
N650 X.969 Y.619
N655 X.945 Y.697
N660 X.914 Y.774
N665 X.878 Y.847
N670 X.836 Y.918
N675 X.788 Y.986
N680 X.735 Y1.05
N685 X.676 Y1.11
N690 X.613 Y1.165
N695 X.546 Y1.215
N700 X.474 Y1.26
N705 X.4 Y1.3
N710 X.322 Y1.333
N715 X.241 Y1.361
N720 X.158 Y1.382
N725 X.074 Y1.397
N730 X-.012 Y1.406
N735 X-.098 Y1.407
N740 X-.184 Y1.403
N745 X-.271 Y1.391
N750 X-.356 Y1.373
N755 X-.44 Y1.349
N760 X-.522 Y1.318
N765 X-.601 Y1.281
N770 X-.678 Y1.238
N775 X-.752 Y1.189
N780 X-.822 Y1.135
N785 X-.888 Y1.075
N790 X-.949 Y1.01
N795 X-1.006 Y.941
N800 X-1.057 Y.868
N805 X-1.103 Y.79
N810 X-1.143 Y.71
N815 X-1.178 Y.626
N820 X-1.206 Y.54
N825 X-1.227 Y.451
N830 X-1.242 Y.361
N835 X-1.251 Y.27
N840 X-1.252 Y.179
N845 X-1.248 Y.087
N850 X-1.236 Y-.005
N855 X-1.217 Y-.095
N860 X-1.193 Y-.184
N865 X-1.161 Y-.272
N870 X-1.123 Y-.357
N875 X-1.079 Y-.439
N880 X-1.029 Y-.519
N885 X-.974 Y-.594
N890 X-.913 Y-.666
N895 X-.846 Y-.733
N900 X-.775 Y-.795
N905 X-.7 Y-.853
N910 X-.62 Y-.904
N915 X-.537 Y-.951
N920 X-.45 Y-.991
N925 X-.361 Y-1.025
N930 X-.269 Y-1.053
N935 X-.175 Y-1.074
N940 X-.08 Y-1.088
N945 X.017 Y-1.096
N950 X.114 Y-1.097
N955 X.21 Y-1.091
N960 X.307 Y-1.079
N965 X.402 Y-1.059
N970 X.497 Y-1.033
N975 X.589 Y-1.
N980 X.679 Y-.961
N985 X.766 Y-.916
N990 X.851 Y-.865
N995 X.931 Y-.807
N1000 X1.008 Y-.744
N1005 X1.08 Y-.676
N1010 X1.147 Y-.603
N1015 X1.21 Y-.525
N1020 X1.267 Y-.443
N1025 X1.318 Y-.357
N1030 X1.364 Y-.268
N1035 X1.403 Y-.175
N1040 X1.436 Y-.08
N1045 X1.462 Y.017
N1050 X1.482 Y.117
N1055 X1.495 Y.217
N1060 X1.501 Y.318
N1065 Y.42
N1070 X1.493 Y.522
N1075 X1.479 Y.623
N1080 X1.457 Y.723
N1085 X1.429 Y.822
N1090 X1.395 Y.919
N1095 X1.353 Y1.013
N1100 X1.306 Y1.105
N1105 X1.252 Y1.193
N1110 X1.193 Y1.278
N1115 X1.127 Y1.359
N1120 X1.057 Y1.435
N1125 X.981 Y1.507
N1130 X.901 Y1.574
N1135 X.816 Y1.635
N1140 X.727 Y1.691
N1145 X.634 Y1.74
N1150 X.539 Y1.784
N1155 X.44 Y1.821
N1160 X.339 Y1.852
N1165 X.236 Y1.876
N1170 X.131 Y1.893
N1175 X.026 Y1.903
N1180 X-.081 Y1.907
N1185 X-.187 Y1.903
N1190 X-.293 Y1.893
N1195 X-.399 Y1.875
N1200 X-.503 Y1.851
N1205 X-.606 Y1.82
N1210 X-.707 Y1.782
N1215 X-.805 Y1.738
N1220 X-.9 Y1.687
N1225 X-.992 Y1.63
N1230 X-1.08 Y1.567
N1235 X-1.164 Y1.499
N1240 X-1.244 Y1.425
N1245 X-1.319 Y1.346
N1250 X-1.389 Y1.262
N1255 X-1.453 Y1.174
N1260 X-1.512 Y1.082
N1265 X-1.565 Y.986
N1270 X-1.611 Y.886
N1275 X-1.651 Y.784
N1280 X-1.685 Y.679
N1285 X-1.712 Y.572
N1290 X-1.732 Y.464
N1295 X-1.745 Y.354
N1300 X-1.751 Y.243
N1305 Y.132
N1310 X-1.743 Y.021
N1315 X-1.728 Y-.089
N1320 X-1.706 Y-.198
N1325 X-1.677 Y-.306
N1330 X-1.642 Y-.413
N1335 X-1.6 Y-.516
N1340 X-1.551 Y-.617
N1345 X-1.496 Y-.715
N1350 X-1.435 Y-.81
N1355 X-1.368 Y-.901
N1360 X-1.295 Y-.987
N1365 X-1.217 Y-1.069
N1370 X-1.134 Y-1.146
N1375 X-1.046 Y-1.218
N1380 X-.954 Y-1.284
N1385 X-.857 Y-1.344
N1390 X-.757 Y-1.399
N1395 X-.654 Y-1.447
N1400 X-.547 Y-1.489
N1405 X-.438 Y-1.524
N1410 X-.327 Y-1.552
N1415 X-.215 Y-1.574
N1420 X-.101 Y-1.588
N1425 X.014 Y-1.596
N1430 X.13
N1435 X.245 Y-1.59
N1440 X.36 Y-1.576
N1445 X.474 Y-1.555
N1450 X.586 Y-1.527
N1455 X.697 Y-1.493
N1460 X.806 Y-1.451
N1465 X.912 Y-1.404
N1470 X1.015 Y-1.349
N1475 X1.115 Y-1.288
N1480 X1.211 Y-1.222
N1485 X1.303 Y-1.149
N1490 X1.39 Y-1.071
N1495 X1.473 Y-.988
N1500 X1.551 Y-.899
N1505 X1.623 Y-.806
N1510 X1.69 Y-.709
N1515 X1.75 Y-.608
N1520 X1.805 Y-.503
N1525 X1.853 Y-.395
N1530 X1.895 Y-.284
N1535 X1.93 Y-.17
N1540 X1.958 Y-.055
N1545 X1.979 Y.062
N1550 X1.993 Y.181
N1555 X2.001 Y.3
N1560 Y.419
N1565 X1.993 Y.539
N1570 X1.979 Y.658
N1575 X1.958 Y.776
N1580 X1.929 Y.892
N1585 X1.894 Y1.007
N1590 X1.852 Y1.12
N1595 X1.803 Y1.231
N1600 X1.748 Y1.338
N1605 X1.686 Y1.442
N1610 X1.618 Y1.542
N1615 X1.545 Y1.638
N1620 X1.465 Y1.73
N1625 X1.381 Y1.817
N1630 X1.291 Y1.9
N1635 X1.196 Y1.976
N1640 X1.097 Y2.048
N1645 X.994 Y2.113
N1650 X.887 Y2.172
N1655 X.777 Y2.225
N1660 X.663 Y2.272
N1665 X.547 Y2.311
N1670 X.429 Y2.344
N1675 X.309 Y2.37
N1680 X.187 Y2.389
N1685 X.064 Y2.401
N1690 X-.059 Y2.406
N1695 X-.183 Y2.404
N1700 X-.306 Y2.394
N1705 X-.429 Y2.377
N1710 X-.55 Y2.354
N1715 X-.671 Y2.323
N1720 X-.789 Y2.285
N1725 X-.905 Y2.24
N1730 X-1.019 Y2.189
N1735 X-1.13 Y2.131
N1740 X-1.237 Y2.067
N1745 X-1.34 Y1.996
N1750 X-1.439 Y1.92
N1755 X-1.534 Y1.838
N1760 X-1.624 Y1.751
N1765 X-1.709 Y1.658
N1770 X-1.789 Y1.561
N1775 X-1.863 Y1.459
N1780 X-1.931 Y1.353
N1785 X-1.994 Y1.243
N1790 X-2.049 Y1.13
N1795 X-2.099 Y1.014
N1800 X-2.141 Y.894
N1805 X-2.177 Y.773
N1810 X-2.206 Y.649
N1815 X-2.228 Y.524
N1820 X-2.243 Y.398
N1825 X-2.25 Y.271
N1830 X-2.251 Y.143
N1835 X-2.244 Y.016
N1840 X-2.23 Y-.111
N1845 X-2.209 Y-.237
N1850 X-2.18 Y-.362
N1855 X-2.145 Y-.486
N1860 X-2.103 Y-.607
N1865 X-2.054 Y-.725
N1870 X-1.998 Y-.841
N1875 X-1.936 Y-.954
N1880 X-1.867 Y-1.063
N1885 X-1.792 Y-1.168
N1890 X-1.712 Y-1.269
N1895 X-1.626 Y-1.366
N1900 X-1.534 Y-1.457
N1905 X-1.438 Y-1.544
N1910 X-1.336 Y-1.624
N1915 X-1.231 Y-1.7
N1920 X-1.121 Y-1.769
N1925 X-1.007 Y-1.832
N1930 X-.89 Y-1.889
N1935 X-.769 Y-1.939
N1940 X-.646 Y-1.983
N1945 X-.521 Y-2.019
N1950 X-.394 Y-2.049
N1955 X-.265 Y-2.071
N1960 X-.135 Y-2.087
N1965 X-.004 Y-2.095
N1970 X.128 Y-2.096
N1975 X.259 Y-2.09
N1980 X.39 Y-2.076
N1985 X.52 Y-2.056
N1990 X.649 Y-2.028
N1995 X.776 Y-1.993
N2000 X.901 Y-1.951
N2005 X1.024 Y-1.902
N2010 X1.144 Y-1.846
N2015 X1.261 Y-1.784
N2020 X1.375 Y-1.716
N2025 X1.484 Y-1.641
N2030 X1.59 Y-1.56
N2035 X1.691 Y-1.474
N2040 X1.787 Y-1.382
N2045 X1.878 Y-1.285
N2050 X1.964 Y-1.183
N2055 X2.045 Y-1.076
N2060 X2.119 Y-.965
N2065 X2.187 Y-.85
N2070 X2.249 Y-.731
N2075 X2.305 Y-.609
N2080 X2.354 Y-.484
N2085 X2.396 Y-.357
N2090 X2.431 Y-.227
N2095 X2.459 Y-.096
N2100 X2.48 Y.037
N2105 X2.494 Y.171
N2110 X2.501 Y.306
N2115 X2.5 Y.441
N2120 X2.492 Y.576
N2125 X2.476 Y.711
N2130 X2.454 Y.844
N2135 X2.424 Y.976
N2140 X2.387 Y1.107
N2145 X2.343 Y1.235
N2150 X2.293 Y1.361
N2155 X2.235 Y1.485
N2160 X2.171 Y1.605
N2165 X2.101 Y1.722
N2170 X2.024 Y1.834
N2175 X1.941 Y1.943
N2180 X1.853 Y2.047
N2185 X1.759 Y2.147
N2190 X1.66 Y2.241
N2195 X1.555 Y2.33
N2200 X1.446 Y2.413
N2205 X1.333 Y2.491
N2210 X1.216 Y2.562
N2215 X1.095 Y2.627
N2220 X.97 Y2.686
N2225 X.843 Y2.738
N2230 X.712 Y2.783
N2235 X.58 Y2.822
N2240 X.445 Y2.853
N2245 X.309 Y2.877
N2250 X.172 Y2.894
N2255 X.034 Y2.904
N2260 X-.105 Y2.906
N2265 X-.244 Y2.901
N2270 X-.382 Y2.889
N2275 X-.519 Y2.869
N2280 X-.656 Y2.842
N2285 X-.791 Y2.808
N2290 X-.924 Y2.767
N2295 X-1.055 Y2.719
N2300 X-1.183 Y2.664
N2305 X-1.309 Y2.602
N2310 X-1.431 Y2.534
N2315 X-1.549 Y2.46
N2320 X-1.663 Y2.379
N2325 X-1.774 Y2.292
N2330 X-1.879 Y2.2
N2335 X-1.98 Y2.102
N2340 X-2.075 Y1.999
N2345 X-2.165 Y1.891
N2350 X-2.25 Y1.779
N2355 X-2.328 Y1.662
N2360 X-2.401 Y1.541
N2365 X-2.467 Y1.416
N2370 X-2.526 Y1.288
N2375 X-2.579 Y1.157
N2380 X-2.625 Y1.023
N2385 X-2.664 Y.887
N2390 X-2.696 Y.749
N2395 X-2.721 Y.609
N2400 X-2.738 Y.469
N2405 X-2.748 Y.327
N2410 X-2.751 Y.185
N2415 X-2.747 Y.043
N2420 X-2.735 Y-.099
N2425 X-2.716 Y-.24
N2430 X-2.689 Y-.381
N2435 X-2.656 Y-.519
N2440 X-2.615 Y-.656
N2445 X-2.567 Y-.791
N2450 X-2.513 Y-.923
N2455 X-2.451 Y-1.052
N2460 X-2.383 Y-1.178
N2465 X-2.309 Y-1.301
N2470 X-2.228 Y-1.419
N2475 X-2.141 Y-1.534
N2480 X-2.049 Y-1.644
N2485 X-1.95 Y-1.749
N2490 X-1.847 Y-1.849
N2495 X-1.738 Y-1.944
N2500 X-1.625 Y-2.033
N2505 X-1.507 Y-2.116
N2510 X-1.385 Y-2.193
N2515 X-1.259 Y-2.264
N2520 X-1.13 Y-2.329
N2525 X-.997 Y-2.386
N2530 X-.862 Y-2.438
N2535 X-.724 Y-2.482
N2540 X-.583 Y-2.519
N2545 X-.441 Y-2.549
N2550 X-.298 Y-2.571
N2555 X-.153 Y-2.587
N2560 X-.008 Y-2.595
N2565 X.138 Y-2.596
N2570 X.283 Y-2.589
N2575 X.428 Y-2.575
N2580 X.573 Y-2.554
N2585 X.716 Y-2.525
N2590 X.858 Y-2.489
N2595 X.997 Y-2.446
N2600 X1.135 Y-2.396
N2605 X1.27 Y-2.339
N2610 X1.402 Y-2.276
N2615 X1.531 Y-2.206
N2620 X1.656 Y-2.129
N2625 X1.777 Y-2.046
N2630 X1.894 Y-1.957
N2635 X2.007 Y-1.862
N2640 X2.114 Y-1.761
N2645 X2.217 Y-1.656
N2650 X2.314 Y-1.545
N2655 X2.406 Y-1.429
N2660 X2.491 Y-1.309
N2665 X2.571 Y-1.184
N2670 X2.644 Y-1.056
N2675 X2.711 Y-.924
N2680 X2.772 Y-.789
N2685 X2.825 Y-.651
N2690 X2.872 Y-.51
N2695 X2.912 Y-.367
N2700 X2.944 Y-.222
N2705 X2.969 Y-.075
N2710 X2.987 Y.072
N2715 X2.998 Y.221
N2720 X3.001 Y.37
N2725 X2.997 Y.518
N2730 X2.985 Y.667
N2735 X2.966 Y.815
N2740 X2.94 Y.962
N2745 X2.906 Y1.108
N2750 X2.865 Y1.252
N2755 X2.818 Y1.394
N2760 X2.763 Y1.533
N2765 X2.701 Y1.67
N2770 X2.633 Y1.803
N2775 X2.558 Y1.933
N2780 X2.476 Y2.059
N2785 X2.389 Y2.182
N2790 X2.295 Y2.299
N2795 X2.196 Y2.412
N2800 X2.091 Y2.521
N2805 X1.981 Y2.624
N2810 X1.866 Y2.721
N2815 X1.746 Y2.813
N2820 X1.622 Y2.899
N2825 X1.494 Y2.979
N2830 X1.362 Y3.052
N2835 X1.226 Y3.119
N2840 X1.087 Y3.179
N2845 X.945 Y3.232
N2850 X.801 Y3.279
N2855 X.654 Y3.318
N2860 X.506 Y3.35
N2865 X.356 Y3.375
N2870 X.205 Y3.393
N2875 X.053 Y3.403
N2880 X-.099 Y3.406
N2885 X-.251 Y3.401
N2890 X-.403 Y3.389
N2895 X-.555 Y3.37
N2900 X-.705 Y3.343
N2905 X-.854 Y3.309
N2910 X-1.001 Y3.267
N2915 X-1.146 Y3.219
N2920 X-1.289 Y3.163
N2925 X-1.429 Y3.101
N2930 X-1.565 Y3.032
N2935 X-1.699 Y2.956
N2940 X-1.828 Y2.874
N2945 X-1.954 Y2.786
N2950 X-2.075 Y2.691
N2955 X-2.192 Y2.591
N2960 X-2.304 Y2.486
N2965 X-2.41 Y2.374
N2970 X-2.511 Y2.258
N2975 X-2.607 Y2.137
N2980 X-2.696 Y2.012
N2985 X-2.78 Y1.882
N2990 X-2.857 Y1.748
N2995 X-2.928 Y1.611
N3000 X-2.992 Y1.47
N3005 X-3.049 Y1.326
N3010 X-3.1 Y1.18
N3015 X-3.143 Y1.031
N3020 X-3.179 Y.88
N3025 X-3.208 Y.728
N3030 X-3.23 Y.574
N3035 X-3.244 Y.42
N3040 X-3.251 Y.264
N3045 X-3.25 Y.109
N3050 X-3.242 Y-.047
N3055 X-3.226 Y-.202
N3060 X-3.203 Y-.356
N3065 X-3.173 Y-.509
N3070 X-3.136 Y-.66
N3075 X-3.091 Y-.81
N3080 X-3.039 Y-.957
N3085 X-2.98 Y-1.102
N3090 X-2.914 Y-1.244
N3095 X-2.842 Y-1.382
N3100 X-2.763 Y-1.517
N3105 X-2.678 Y-1.649
N3110 X-2.586 Y-1.776
N3115 X-2.488 Y-1.899
N3120 X-2.385 Y-2.017
N3125 X-2.276 Y-2.13
N3130 X-2.162 Y-2.238
N3135 X-2.043 Y-2.341
N3140 X-1.919 Y-2.437
N3145 X-1.79 Y-2.528
N3150 X-1.657 Y-2.613
N3155 X-1.52 Y-2.691
N3160 X-1.38 Y-2.763
N3165 X-1.236 Y-2.828
N3170 X-1.089 Y-2.887
N3175 X-.94 Y-2.938
N3180 X-.788 Y-2.983
N3185 X-.635 Y-3.02
N3190 X-.479 Y-3.05
N3195 X-.322 Y-3.072
N3200 X-.165 Y-3.087
N3205 X-.006 Y-3.095
N3210 X.152
N3215 X.311 Y-3.088
N3220 X.469 Y-3.074
N3225 X.627 Y-3.052
N3230 X.783 Y-3.022
N3235 X.938 Y-2.985
N3240 X1.091 Y-2.942
N3245 X1.242 Y-2.89
N3250 X1.39 Y-2.832
N3255 X1.536 Y-2.767
N3260 X1.678 Y-2.695
N3265 X1.817 Y-2.617
N3270 X1.953 Y-2.532
N3275 X2.084 Y-2.441
N3280 X2.211 Y-2.343
N3285 X2.333 Y-2.24
N3290 X2.451 Y-2.131
N3295 X2.563 Y-2.017
N3300 X2.67 Y-1.898
N3305 X2.772 Y-1.773
N3310 X2.867 Y-1.644
N3315 X2.957 Y-1.511
N3320 X3.04 Y-1.373
N3325 X3.117 Y-1.232
N3330 X3.187 Y-1.087
N3335 X3.25 Y-.939
N3340 X3.307 Y-.789
N3345 X3.356 Y-.635
N3350 X3.399 Y-.48
N3355 X3.434 Y-.322
N3360 X3.461 Y-.163
N3365 X3.482 Y-.003
N3370 X3.495 Y.158
N3375 X3.501 Y.32
N3380 X3.499 Y.482
N3385 X3.489 Y.643
N3390 X3.472 Y.804
N3395 X3.448 Y.964
N3400 X3.416 Y1.124
N3405 X3.377 Y1.281
N3410 X3.331 Y1.437
N3415 X3.278 Y1.59
N3420 X3.218 Y1.741
N3425 X3.15 Y1.889
N3430 X3.076 Y2.034
N3435 X2.995 Y2.175
N3440 X2.908 Y2.313
N3445 X2.815 Y2.446
N3450 X2.715 Y2.575
N3455 X2.61 Y2.7
N3460 X2.499 Y2.82
N3465 X2.382 Y2.934
N3470 X2.261 Y3.043
N3475 X2.134 Y3.147
N3480 X2.003 Y3.244
N3485 X1.867 Y3.336
N3490 X1.727 Y3.421
N3495 X1.584 Y3.5
N3500 X1.437 Y3.572
N3505 X1.286 Y3.638
N3510 X1.133 Y3.696
N3515 X.977 Y3.748
N3520 X.819 Y3.792
N3525 X.659 Y3.83
N3530 X.497 Y3.859
N3535 X.334 Y3.882
N3540 X.17 Y3.897
N3545 X.006 Y3.905
N3550 X-.159
N3555 X-.324 Y3.897
N3560 X-.488 Y3.883
N3565 X-.652 Y3.86
N3570 X-.814 Y3.831
N3575 X-.975 Y3.793
N3580 X-1.135 Y3.749
N3585 X-1.292 Y3.698
N3590 X-1.447 Y3.639
N3595 X-1.599 Y3.573
N3600 X-1.748 Y3.501
N3605 X-1.893 Y3.422
N3610 X-2.035 Y3.336
N3615 X-2.173 Y3.244
N3620 X-2.307 Y3.145
N3625 X-2.436 Y3.041
N3630 X-2.561 Y2.931
N3635 X-2.68 Y2.815
N3640 X-2.795 Y2.694
N3645 X-2.903 Y2.568
N3650 X-3.006 Y2.438
N3655 X-3.103 Y2.302
N3660 X-3.194 Y2.162
N3665 X-3.279 Y2.018
N3670 X-3.357 Y1.871
N3675 X-3.428 Y1.72
N3680 X-3.493 Y1.566
N3685 X-3.55 Y1.409
N3690 X-3.601 Y1.25
N3695 X-3.644 Y1.088
N3700 X-3.68 Y.925
N3705 X-3.709 Y.76
N3710 X-3.73 Y.593
N3715 X-3.744 Y.426
N3720 X-3.751 Y.259
N3725 X-3.749 Y.091
N3730 X-3.741 Y-.077
N3735 X-3.725 Y-.244
N3740 X-3.701 Y-.411
N3745 X-3.67 Y-.576
N3750 X-3.632 Y-.74
N3755 X-3.586 Y-.902
N3760 X-3.533 Y-1.061
N3765 X-3.473 Y-1.219
N3770 X-3.406 Y-1.374
N3775 X-3.332 Y-1.525
N3780 X-3.252 Y-1.674
N3785 X-3.164 Y-1.818
N3790 X-3.071 Y-1.959
N3795 X-2.971 Y-2.095
N3800 X-2.865 Y-2.227
N3805 X-2.754 Y-2.354
N3810 X-2.637 Y-2.477
N3815 X-2.514 Y-2.593
N3820 X-2.387 Y-2.705
N3825 X-2.254 Y-2.81
N3830 X-2.117 Y-2.91
N3835 X-1.975 Y-3.004
N3840 X-1.83 Y-3.091
N3845 X-1.68 Y-3.172
N3850 X-1.528 Y-3.246
N3855 X-1.372 Y-3.313
N3860 X-1.213 Y-3.374
N3865 X-1.192 Y-3.381
N3870 X-1.04 Y-3.364
N3875 G02 X-1.026 Y-3.362 I.056 J-.497
N3880 G01 X-.744 Y-3.339
N3885 G02 X-.73 Y-3.338 I.042 J-.498
N3890 G01 X-.446 Y-3.322
N3895 G02 X-.432 Y-3.321 I.028 J-.499
N3900 G01 X-.149 Y-3.314
N3905 G02 X-.135 Y-3.313 I.014 J-.5
N3910 G01 X.149 Y-3.314
N3915 G02 X.163 I0 J-.5
N3920 G01 X.447 Y-3.322
N3925 G02 X.461 Y-3.323 I-.014 J-.5
N3930 G01 X.744 Y-3.339
N3935 G02 X.758 Y-3.34 I-.028 J-.499
N3940 G01 X1.042 Y-3.364
N3945 G02 X1.052 Y-3.365 I-.042 J-.498
N3950 G01 X1.194 Y-3.38
N3955 G02 X1.201 Y-3.381 I-.053 J-.497
N3960 G01 X1.314 Y-3.394
N3965 X1.464 Y-3.341
N3970 X1.622 Y-3.277
N3975 X1.778 Y-3.205
N3980 X1.931 Y-3.127
N3985 X2.08 Y-3.042
N3990 X2.226 Y-2.951
N3995 X2.367 Y-2.853
N4000 X2.504 Y-2.749
N4005 X2.637 Y-2.639
N4010 X2.764 Y-2.524
N4015 X2.887 Y-2.402
N4020 X3.004 Y-2.276
N4025 X3.115 Y-2.145
N4030 X3.221 Y-2.008
N4035 X3.32 Y-1.867
N4040 X3.414 Y-1.722
N4045 X3.501 Y-1.573
N4050 X3.581 Y-1.42
N4055 X3.655 Y-1.264
N4060 X3.722 Y-1.105
N4065 X3.782 Y-.943
N4070 X3.835 Y-.778
N4075 X3.881 Y-.611
N4080 X3.919 Y-.442
N4085 X3.951 Y-.271
N4090 X3.974 Y-.1
N4095 X3.99 Y.073
N4100 X3.999 Y.246
N4105 X4. Y.42
N4110 X3.994 Y.594
N4115 X3.98 Y.767
N4120 X3.958 Y.939
N4125 X3.929 Y1.111
N4130 X3.893 Y1.281
N4135 X3.849 Y1.45
N4140 X3.799 Y1.616
N4145 X3.74 Y1.781
N4150 X3.675 Y1.942
N4155 X3.603 Y2.101
N4160 X3.524 Y2.257
N4165 X3.438 Y2.409
N4170 X3.346 Y2.557
N4175 X3.247 Y2.701
N4180 X3.143 Y2.841
N4185 X3.032 Y2.977
N4190 X2.915 Y3.107
N4195 X2.793 Y3.232
N4200 X2.666 Y3.353
N4205 X2.533 Y3.467
N4210 X2.396 Y3.576
N4215 X2.254 Y3.679
N4220 X2.107 Y3.775
N4225 X1.957 Y3.866
N4230 X1.803 Y3.95
N4235 X1.645 Y4.027
N4240 X1.484 Y4.097
N4245 X1.32 Y4.16
N4250 X1.153 Y4.217
N4255 X.984 Y4.266
N4260 X.813 Y4.308
N4265 X.64 Y4.342
N4270 X.466 Y4.369
N4275 X.291 Y4.389
N4280 X.115 Y4.401
N4285 X-.061 Y4.405
N4290 X-.238 Y4.402
N4295 X-.414 Y4.392
N4300 X-.59 Y4.374
N4305 X-.765 Y4.348
N4310 X-.938 Y4.315
N4315 X-1.111 Y4.275
N4320 X-1.281 Y4.227
N4325 X-1.449 Y4.172
N4330 X-1.615 Y4.11
N4335 X-1.778 Y4.041
N4340 X-1.938 Y3.965
N4345 X-2.095 Y3.882
N4350 X-2.248 Y3.792
N4355 X-2.398 Y3.696
N4360 X-2.543 Y3.594
N4365 X-2.683 Y3.485
N4370 X-2.819 Y3.371
N4375 X-2.951 Y3.251
N4380 X-3.077 Y3.125
N4385 X-3.197 Y2.994
N4390 X-3.312 Y2.858
N4395 X-3.421 Y2.718
N4400 X-3.524 Y2.572
N4405 X-3.621 Y2.423
N4410 X-3.712 Y2.269
N4415 X-3.795 Y2.111
N4420 X-3.873 Y1.951
N4425 X-3.943 Y1.786
N4430 X-4.006 Y1.619
N4435 X-4.063 Y1.45
N4440 X-4.112 Y1.278
N4445 X-4.154 Y1.104
N4450 X-4.188 Y.928
N4455 X-4.215 Y.751
N4460 X-4.234 Y.573
N4465 X-4.246 Y.395
N4470 X-4.251 Y.215
N4475 X-4.248 Y.036
N4480 X-4.237 Y-.143
N4485 X-4.219 Y-.321
N4490 X-4.193 Y-.499
N4495 X-4.16 Y-.676
N4500 X-4.119 Y-.851
N4505 X-4.071 Y-1.024
N4510 X-4.016 Y-1.195
N4515 X-3.953 Y-1.364
N4520 X-3.884 Y-1.53
N4525 X-3.808 Y-1.693
N4530 X-3.724 Y-1.853
N4535 X-3.634 Y-2.009
N4540 X-3.538 Y-2.161
N4545 X-3.435 Y-2.309
N4550 X-3.326 Y-2.453
N4555 X-3.211 Y-2.592
N4560 X-3.091 Y-2.727
N4565 X-2.964 Y-2.856
N4570 X-2.833 Y-2.98
N4575 X-2.696 Y-3.098
N4580 X-2.554 Y-3.21
N4585 X-2.408 Y-3.317
N4590 X-2.257 Y-3.417
N4595 X-2.102 Y-3.511
N4600 X-2.086 Y-3.52
N4605 X-2.069 Y-3.516
N4610 G02 X-2.062 Y-3.515 I.101 J-.49
N4615 G01 X-1.922 Y-3.488
N4620 G02 X-1.912 Y-3.486 I.094 J-.491
N4625 G01 X-1.632 Y-3.439
N4630 G02 X-1.618 Y-3.437 I.083 J-.493
N4635 G01 X-1.336 Y-3.397
N4640 G02 X-1.322 Y-3.395 I.07 J-.495
N4645 G01 X-1.04 Y-3.364
N4650 G02 X-1.026 Y-3.362 I.056 J-.497
N4655 G01 X-.744 Y-3.339
N4660 G02 X-.73 Y-3.338 I.042 J-.498
N4665 G01 X-.446 Y-3.322
N4670 G02 X-.432 Y-3.321 I.028 J-.499
N4675 G01 X-.149 Y-3.314
N4680 G02 X-.135 Y-3.313 I.014 J-.5
N4685 G01 X.149 Y-3.314
N4690 G02 X.163 I0 J-.5
N4695 G01 X.447 Y-3.322
N4700 G02 X.461 Y-3.323 I-.014 J-.5
N4705 G01 X.744 Y-3.339
N4710 G02 X.758 Y-3.34 I-.028 J-.499
N4715 G01 X1.042 Y-3.364
N4720 G02 X1.052 Y-3.365 I-.042 J-.498
N4725 G01 X1.194 Y-3.38
N4730 G02 X1.201 Y-3.381 I-.053 J-.497
N4735 G01 X1.342 Y-3.398
N4740 G02 X1.349 Y-3.399 I-.06 J-.496
N4745 G01 X1.49 Y-3.418
N4750 G02 X1.497 Y-3.419 I-.067 J-.496
N4755 G01 X1.638 Y-3.44
N4760 G02 X1.645 Y-3.441 I-.074 J-.495
N4765 G01 X1.785 Y-3.464
N4770 G02 X1.792 Y-3.465 I-.081 J-.493
N4775 G01 X1.933 Y-3.49
N4780 G02 X1.94 Y-3.491 I-.088 J-.492
N4785 G01 X2.08 Y-3.518
N4790 G02 X2.087 Y-3.52 I-.095 J-.491
N4795 G01 X2.208 Y-3.545
N4800 X2.246 Y-3.524
N4805 X2.404 Y-3.43
N4810 X2.557 Y-3.33
N4815 X2.706 Y-3.224
N4820 X2.851 Y-3.112
N4825 X2.991 Y-2.994
N4830 X3.126 Y-2.869
N4835 X3.256 Y-2.74
N4840 X3.38 Y-2.605
N4845 X3.499 Y-2.465
N4850 X3.612 Y-2.32
N4855 X3.719 Y-2.171
N4860 X3.819 Y-2.017
N4865 X3.914 Y-1.859
N4870 X4.001 Y-1.698
N4875 X4.082 Y-1.533
N4880 X4.157 Y-1.364
N4885 X4.224 Y-1.193
N4890 X4.284 Y-1.019
N4895 X4.337 Y-.842
N4900 X4.383 Y-.664
N4905 X4.421 Y-.483
N4910 X4.452 Y-.301
N4915 X4.475 Y-.118
N4920 X4.491 Y.066
N4925 X4.499 Y.25
N4930 X4.5 Y.435
N4935 X4.493 Y.619
N4940 X4.479 Y.804
N4945 X4.457 Y.987
N4950 X4.427 Y1.17
N4955 X4.39 Y1.351
N4960 X4.346 Y1.531
N4965 X4.294 Y1.709
N4970 X4.235 Y1.885
N4975 X4.169 Y2.058
N4980 X4.095 Y2.228
N4985 X4.015 Y2.396
N4990 X3.928 Y2.559
N4995 X3.834 Y2.72
N5000 X3.734 Y2.876
N5005 X3.628 Y3.028
N5010 X3.515 Y3.176
N5015 X3.396 Y3.319
N5020 X3.272 Y3.458
N5025 X3.142 Y3.591
N5030 X3.006 Y3.719
N5035 X2.866 Y3.841
N5040 X2.72 Y3.957
N5045 X2.57 Y4.067
N5050 X2.416 Y4.172
N5055 X2.257 Y4.27
N5060 X2.094 Y4.361
N5065 X1.928 Y4.446
N5070 X1.758 Y4.524
N5075 X1.586 Y4.595
N5080 X1.41 Y4.658
N5085 X1.232 Y4.715
N5090 X1.052 Y4.765
N5095 X.869 Y4.807
N5100 X.686 Y4.842
N5105 X.5 Y4.869
N5110 X.314 Y4.889
N5115 X.127 Y4.901
N5120 X-.06 Y4.905
N5125 X-.248 Y4.902
N5130 X-.435 Y4.892
N5135 X-.621 Y4.874
N5140 X-.807 Y4.848
N5145 X-.992 Y4.815
N5150 X-1.175 Y4.774
N5155 X-1.357 Y4.726
N5160 X-1.537 Y4.67
N5165 X-1.714 Y4.608
N5170 X-1.889 Y4.538
N5175 X-2.06 Y4.461
N5180 X-2.229 Y4.377
N5185 X-2.394 Y4.287
N5190 X-2.555 Y4.19
N5195 X-2.713 Y4.086
N5200 X-2.866 Y3.976
N5205 X-3.015 Y3.86
N5210 X-3.159 Y3.739
N5215 X-3.297 Y3.611
N5220 X-3.431 Y3.478
N5225 X-3.56 Y3.339
N5230 X-3.682 Y3.195
N5235 X-3.799 Y3.047
N5240 X-3.91 Y2.894
N5245 X-4.014 Y2.736
N5250 X-4.113 Y2.575
N5255 X-4.204 Y2.409
N5260 X-4.289 Y2.24
N5265 X-4.368 Y2.067
N5270 X-4.439 Y1.892
N5275 X-4.503 Y1.714
N5280 X-4.56 Y1.533
N5285 X-4.609 Y1.35
N5290 X-4.652 Y1.165
N5295 X-4.687 Y.978
N5300 X-4.714 Y.79
N5305 X-4.734 Y.602
N5310 X-4.746 Y.412
N5315 X-4.751 Y.222
N5320 X-4.748 Y.032
N5325 X-4.737 Y-.158
N5330 X-4.719 Y-.347
N5335 X-4.694 Y-.536
N5340 X-4.66 Y-.723
N5345 X-4.62 Y-.909
N5350 X-4.572 Y-1.094
N5355 X-4.516 Y-1.276
N5360 X-4.453 Y-1.456
N5365 X-4.384 Y-1.633
N5370 X-4.307 Y-1.808
N5375 X-4.223 Y-1.979
N5380 X-4.132 Y-2.147
N5385 X-4.035 Y-2.312
N5390 X-3.931 Y-2.472
N5395 X-3.821 Y-2.628
N5400 X-3.705 Y-2.78
N5405 X-3.583 Y-2.927
N5410 X-3.454 Y-3.069
N5415 X-3.321 Y-3.206
N5420 X-3.182 Y-3.338
N5425 X-3.038 Y-3.464
N5430 X-2.888 Y-3.584
N5435 X-2.761 Y-3.678
N5440 X-2.651 Y-3.649
N5445 G02 X-2.645 Y-3.647 I.128 J-.483
N5450 G01 X-2.506 Y-3.613
N5455 G02 X-2.499 Y-3.611 I.121 J-.485
N5460 G01 X-2.361 Y-3.579
N5465 G02 X-2.354 Y-3.577 I.115 J-.487
N5470 G01 X-2.215 Y-3.546
N5475 G02 X-2.208 Y-3.545 I.108 J-.488
N5480 G01 X-2.069 Y-3.516
N5485 G02 X-2.062 Y-3.515 I.101 J-.49
N5490 G01 X-1.922 Y-3.488
N5495 G02 X-1.912 Y-3.486 I.094 J-.491
N5500 G01 X-1.632 Y-3.439
N5505 G02 X-1.618 Y-3.437 I.083 J-.493
N5510 G01 X-1.336 Y-3.397
N5515 G02 X-1.322 Y-3.395 I.07 J-.495
N5520 G01 X-1.04 Y-3.364
N5525 G02 X-1.026 Y-3.362 I.056 J-.497
N5530 G01 X-.744 Y-3.339
N5535 G02 X-.73 Y-3.338 I.042 J-.498
N5540 G01 X-.446 Y-3.322
N5545 G02 X-.432 Y-3.321 I.028 J-.499
N5550 G01 X-.149 Y-3.314
N5555 G02 X-.135 Y-3.313 I.014 J-.5
N5560 G01 X.149 Y-3.314
N5565 G02 X.163 I0 J-.5
N5570 G01 X.447 Y-3.322
N5575 G02 X.461 Y-3.323 I-.014 J-.5
N5580 G01 X.744 Y-3.339
N5585 G02 X.758 Y-3.34 I-.028 J-.499
N5590 G01 X1.042 Y-3.364
N5595 G02 X1.052 Y-3.365 I-.042 J-.498
N5600 G01 X1.194 Y-3.38
N5605 G02 X1.201 Y-3.381 I-.053 J-.497
N5610 G01 X1.342 Y-3.398
N5615 G02 X1.349 Y-3.399 I-.06 J-.496
N5620 G01 X1.49 Y-3.418
N5625 G02 X1.497 Y-3.419 I-.067 J-.496
N5630 G01 X1.638 Y-3.44
N5635 G02 X1.645 Y-3.441 I-.074 J-.495
N5640 G01 X1.785 Y-3.464
N5645 G02 X1.792 Y-3.465 I-.081 J-.493
N5650 G01 X1.933 Y-3.49
N5655 G02 X1.94 Y-3.491 I-.088 J-.492
N5660 G01 X2.08 Y-3.518
N5665 G02 X2.087 Y-3.52 I-.095 J-.491
N5670 G01 X2.227 Y-3.549
N5675 G02 X2.233 Y-3.55 I-.102 J-.49
N5680 G01 X2.373 Y-3.581
N5685 G02 X2.38 Y-3.583 I-.109 J-.488
N5690 G01 X2.519 Y-3.616
N5695 G02 X2.526 Y-3.618 I-.115 J-.486
N5700 G01 X2.665 Y-3.653
N5705 G02 X2.672 Y-3.654 I-.122 J-.485
N5710 G01 X2.81 Y-3.691
N5715 G02 X2.817 Y-3.693 I-.129 J-.483
N5720 G01 X2.884 Y-3.712
N5725 X3.029 Y-3.607
N5730 X3.181 Y-3.487
N5735 X3.329 Y-3.362
N5740 X3.472 Y-3.23
N5745 X3.609 Y-3.094
N5750 X3.741 Y-2.951
N5755 X3.867 Y-2.804
N5760 X3.988 Y-2.652
N5765 X4.102 Y-2.495
N5770 X4.211 Y-2.334
N5775 X4.313 Y-2.168
N5780 X4.408 Y-1.999
N5785 X4.497 Y-1.826
N5790 X4.578 Y-1.649
N5795 X4.653 Y-1.469
N5800 X4.721 Y-1.287
N5805 X4.782 Y-1.102
N5810 X4.835 Y-.915
N5815 X4.881 Y-.725
N5820 X4.92 Y-.534
N5825 X4.951 Y-.342
N5830 X4.975 Y-.148
N5835 X4.991 Y.046
N5840 X4.999 Y.241
N5845 X5. Y.437
N5850 X4.993 Y.632
N5855 X4.979 Y.827
N5860 X4.957 Y1.021
N5865 X4.927 Y1.214
N5870 X4.89 Y1.406
N5875 X4.845 Y1.597
N5880 X4.793 Y1.785
N5885 X4.734 Y1.972
N5890 X4.667 Y2.156
N5895 X4.594 Y2.337
N5900 X4.513 Y2.516
N5905 X4.425 Y2.691
N5910 X4.331 Y2.863
N5915 X4.23 Y3.031
N5920 X4.122 Y3.195
N5925 X4.008 Y3.355
N5930 X3.888 Y3.51
N5935 X3.762 Y3.661
N5940 X3.63 Y3.806
N5945 X3.493 Y3.947
N5950 X3.35 Y4.082
N5955 X3.202 Y4.211
N5960 X3.049 Y4.335
N5965 X2.891 Y4.453
N5970 X2.729 Y4.564
N5975 X2.563 Y4.669
N5980 X2.392 Y4.768
N5985 X2.218 Y4.86
N5990 X2.04 Y4.945
N5995 X1.859 Y5.024
N6000 X1.675 Y5.095
N6005 X1.489 Y5.159
N6010 X1.3 Y5.216
N6015 X1.109 Y5.265
N6020 X.916 Y5.308
N6025 X.722 Y5.342
N6030 X.526 Y5.369
N6035 X.329 Y5.389
N6040 X.132 Y5.401
N6045 X-.066 Y5.405
N6050 X-.264 Y5.402
N6055 X-.461 Y5.391
N6060 X-.658 Y5.373
N6065 X-.854 Y5.347
N6070 X-1.05 Y5.313
N6075 X-1.243 Y5.272
N6080 X-1.436 Y5.223
N6085 X-1.626 Y5.167
N6090 X-1.814 Y5.104
N6095 X-1.999 Y5.033
N6100 X-2.182 Y4.956
N6105 X-2.361 Y4.871
N6110 X-2.537 Y4.78
N6115 X-2.71 Y4.681
N6120 X-2.879 Y4.577
N6125 X-3.044 Y4.465
N6130 X-3.204 Y4.348
N6135 X-3.36 Y4.224
N6140 X-3.511 Y4.095
N6145 X-3.657 Y3.959
N6150 X-3.797 Y3.818
N6155 X-3.932 Y3.672
N6160 X-4.062 Y3.521
N6165 X-4.186 Y3.365
N6170 X-4.303 Y3.204
N6175 X-4.415 Y3.039
N6180 X-4.52 Y2.869
N6185 X-4.618 Y2.696
N6190 X-4.71 Y2.518
N6195 X-4.795 Y2.338
N6200 X-4.873 Y2.154
N6205 X-4.944 Y1.967
N6210 X-5.008 Y1.778
N6215 X-5.064 Y1.586
N6220 X-5.113 Y1.393
N6225 X-5.155 Y1.197
N6230 X-5.189 Y1.
N6235 X-5.216 Y.802
N6240 X-5.235 Y.602
N6245 X-5.247 Y.403
N6250 X-5.251 Y.202
N6255 X-5.247 Y.002
N6260 X-5.236 Y-.198
N6265 X-5.217 Y-.397
N6270 X-5.19 Y-.596
N6275 X-5.156 Y-.794
N6280 X-5.114 Y-.99
N6285 X-5.065 Y-1.185
N6290 X-5.009 Y-1.377
N6295 X-4.945 Y-1.568
N6300 X-4.874 Y-1.756
N6305 X-4.796 Y-1.941
N6310 X-4.71 Y-2.123
N6315 X-4.618 Y-2.301
N6320 X-4.52 Y-2.477
N6325 X-4.414 Y-2.648
N6330 X-4.302 Y-2.815
N6335 X-4.184 Y-2.978
N6340 X-4.06 Y-3.136
N6345 X-3.929 Y-3.29
N6350 X-3.793 Y-3.439
N6355 X-3.652 Y-3.582
N6360 X-3.505 Y-3.72
N6365 X-3.352 Y-3.852
N6370 X-3.349 Y-3.855
N6375 X-3.227 Y-3.815
N6380 G02 X-3.221 Y-3.813 I.155 J-.475
N6385 G01 X-3.084 Y-3.771
N6390 G02 X-3.077 Y-3.769 I.149 J-.477
N6395 G01 X-2.94 Y-3.728
N6400 G02 X-2.934 Y-3.726 I.142 J-.479
N6405 G01 X-2.796 Y-3.688
N6410 G02 X-2.789 Y-3.686 I.135 J-.481
N6415 G01 X-2.651 Y-3.649
N6420 G02 X-2.645 Y-3.647 I.128 J-.483
N6425 G01 X-2.506 Y-3.613
N6430 G02 X-2.499 Y-3.611 I.121 J-.485
N6435 G01 X-2.361 Y-3.579
N6440 G02 X-2.354 Y-3.577 I.115 J-.487
N6445 G01 X-2.215 Y-3.546
N6450 G02 X-2.208 Y-3.545 I.108 J-.488
N6455 G01 X-2.069 Y-3.516
N6460 G02 X-2.062 Y-3.515 I.101 J-.49
N6465 G01 X-1.922 Y-3.488
N6470 G02 X-1.912 Y-3.486 I.094 J-.491
N6475 G01 X-1.632 Y-3.439
N6480 G02 X-1.618 Y-3.437 I.083 J-.493
N6485 G01 X-1.336 Y-3.397
N6490 G02 X-1.322 Y-3.395 I.07 J-.495
N6495 G01 X-1.04 Y-3.364
N6500 G02 X-1.026 Y-3.362 I.056 J-.497
N6505 G01 X-.744 Y-3.339
N6510 G02 X-.73 Y-3.338 I.042 J-.498
N6515 G01 X-.446 Y-3.322
N6520 G02 X-.432 Y-3.321 I.028 J-.499
N6525 G01 X-.149 Y-3.314
N6530 G02 X-.135 Y-3.313 I.014 J-.5
N6535 G01 X.149 Y-3.314
N6540 G02 X.163 I0 J-.5
N6545 G01 X.447 Y-3.322
N6550 G02 X.461 Y-3.323 I-.014 J-.5
N6555 G01 X.744 Y-3.339
N6560 G02 X.758 Y-3.34 I-.028 J-.499
N6565 G01 X1.042 Y-3.364
N6570 G02 X1.052 Y-3.365 I-.042 J-.498
N6575 G01 X1.194 Y-3.38
N6580 G02 X1.201 Y-3.381 I-.053 J-.497
N6585 G01 X1.342 Y-3.398
N6590 G02 X1.349 Y-3.399 I-.06 J-.496
N6595 G01 X1.49 Y-3.418
N6600 G02 X1.497 Y-3.419 I-.067 J-.496
N6605 G01 X1.638 Y-3.44
N6610 G02 X1.645 Y-3.441 I-.074 J-.495
N6615 G01 X1.785 Y-3.464
N6620 G02 X1.792 Y-3.465 I-.081 J-.493
N6625 G01 X1.933 Y-3.49
N6630 G02 X1.94 Y-3.491 I-.088 J-.492
N6635 G01 X2.08 Y-3.518
N6640 G02 X2.087 Y-3.52 I-.095 J-.491
N6645 G01 X2.227 Y-3.549
N6650 G02 X2.233 Y-3.55 I-.102 J-.49
N6655 G01 X2.373 Y-3.581
N6660 G02 X2.38 Y-3.583 I-.109 J-.488
N6665 G01 X2.519 Y-3.616
N6670 G02 X2.526 Y-3.618 I-.115 J-.486
N6675 G01 X2.665 Y-3.653
N6680 G02 X2.672 Y-3.654 I-.122 J-.485
N6685 G01 X2.81 Y-3.691
N6690 G02 X2.817 Y-3.693 I-.129 J-.483
N6695 G01 X2.955 Y-3.732
N6700 G02 X2.962 Y-3.734 I-.136 J-.481
N6705 G01 X3.1 Y-3.775
N6710 G02 X3.106 Y-3.778 I-.143 J-.479
N6715 G01 X3.244 Y-3.821
N6720 G02 X3.253 Y-3.824 I-.15 J-.477
N6725 G01 X3.469 Y-3.896
N6730 X3.556 Y-3.826
N6735 X3.71 Y-3.692
N6740 X3.858 Y-3.552
N6745 X4.001 Y-3.407
N6750 X4.139 Y-3.256
N6755 X4.271 Y-3.1
N6760 X4.397 Y-2.94
N6765 X4.517 Y-2.774
N6770 X4.631 Y-2.605
N6775 X4.738 Y-2.431
N6780 X4.839 Y-2.253
N6785 X4.933 Y-2.071
N6790 X5.02 Y-1.886
N6795 X5.1 Y-1.698
N6800 X5.174 Y-1.507
N6805 X5.24 Y-1.313
N6810 X5.298 Y-1.117
N6815 X5.35 Y-.919
N6820 X5.394 Y-.719
N6825 X5.43 Y-.517
N6830 X5.459 Y-.314
N6835 X5.48 Y-.11
N6840 X5.494 Y.094
N6845 X5.5 Y.3
N6850 X5.498 Y.505
N6855 X5.489 Y.71
N6860 X5.472 Y.914
N6865 X5.448 Y1.118
N6870 X5.416 Y1.321
N6875 X5.376 Y1.523
N6880 X5.329 Y1.723
N6885 X5.274 Y1.921
N6890 X5.212 Y2.117
N6895 X5.143 Y2.311
N6900 X5.067 Y2.502
N6905 X4.983 Y2.69
N6910 X4.893 Y2.875
N6915 X4.795 Y3.057
N6920 X4.691 Y3.235
N6925 X4.581 Y3.409
N6930 X4.464 Y3.578
N6935 X4.341 Y3.744
N6940 X4.211 Y3.904
N6945 X4.076 Y4.06
N6950 X3.935 Y4.211
N6955 X3.789 Y4.356
N6960 X3.637 Y4.496
N6965 X3.48 Y4.631
N6970 X3.318 Y4.759
N6975 X3.151 Y4.881
N6980 X2.98 Y4.997
N6985 X2.805 Y5.107
N6990 X2.626 Y5.21
N6995 X2.443 Y5.307
N7000 X2.256 Y5.396
N7005 X2.066 Y5.479
N7010 X1.874 Y5.555
N7015 X1.678 Y5.623
N7020 X1.48 Y5.684
N7025 X1.28 Y5.738
N7030 X1.078 Y5.785
N7035 X.875 Y5.824
N7040 X.67 Y5.855
N7045 X.464 Y5.879
N7050 X.257 Y5.895
N7055 X.049 Y5.904
N7060 X-.158 Y5.905
N7065 X-.366 Y5.898
N7070 X-.573 Y5.884
N7075 X-.78 Y5.862
N7080 X-.986 Y5.832
N7085 X-1.19 Y5.795
N7090 X-1.393 Y5.75
N7095 X-1.595 Y5.698
N7100 X-1.794 Y5.638
N7105 X-1.991 Y5.571
N7110 X-2.185 Y5.497
N7115 X-2.377 Y5.416
N7120 X-2.566 Y5.328
N7125 X-2.751 Y5.232
N7130 X-2.933 Y5.13
N7135 X-3.111 Y5.022
N7140 X-3.285 Y4.907
N7145 X-3.454 Y4.785
N7150 X-3.619 Y4.657
N7155 X-3.78 Y4.524
N7160 X-3.935 Y4.384
N7165 X-4.085 Y4.239
N7170 X-4.23 Y4.089
N7175 X-4.369 Y3.933
N7180 X-4.502 Y3.772
N7185 X-4.629 Y3.606
N7190 X-4.751 Y3.436
N7195 X-4.866 Y3.261
N7200 X-4.974 Y3.082
N7205 X-5.076 Y2.899
N7210 X-5.171 Y2.713
N7215 X-5.26 Y2.523
N7220 X-5.341 Y2.33
N7225 X-5.415 Y2.134
N7230 X-5.482 Y1.936
N7235 X-5.542 Y1.735
N7240 X-5.594 Y1.532
N7245 X-5.639 Y1.327
N7250 X-5.677 Y1.121
N7255 X-5.706 Y.913
N7260 X-5.729 Y.704
N7265 X-5.743 Y.495
N7270 X-5.75 Y.285
N7275 X-5.749 Y.075
N7280 X-5.741 Y-.135
N7285 X-5.725 Y-.344
N7290 X-5.701 Y-.553
N7295 X-5.67 Y-.761
N7300 X-5.631 Y-.968
N7305 X-5.585 Y-1.173
N7310 X-5.531 Y-1.376
N7315 X-5.469 Y-1.578
N7320 X-5.401 Y-1.777
N7325 X-5.325 Y-1.973
N7330 X-5.242 Y-2.167
N7335 X-5.152 Y-2.357
N7340 X-5.055 Y-2.544
N7345 X-4.952 Y-2.728
N7350 X-4.841 Y-2.908
N7355 X-4.725 Y-3.083
N7360 X-4.601 Y-3.255
N7365 X-4.472 Y-3.421
N7370 X-4.337 Y-3.583
N7375 X-4.196 Y-3.74
N7380 X-4.049 Y-3.892
N7385 X-3.897 Y-4.039
N7390 X-3.884 Y-4.05
N7395 X-3.795 Y-4.015
N7400 G02 X-3.788 Y-4.012 I.182 J-.466
N7405 G01 X-3.654 Y-3.962
N7410 G02 X-3.647 Y-3.959 I.176 J-.468
N7415 G01 X-3.512 Y-3.911
N7420 G02 X-3.505 Y-3.909 I.169 J-.471
N7425 G01 X-3.37 Y-3.862
N7430 G02 X-3.363 Y-3.86 I.162 J-.473
N7435 G01 X-3.227 Y-3.815
N7440 G02 X-3.221 Y-3.813 I.155 J-.475
N7445 G01 X-3.084 Y-3.771
N7450 G02 X-3.077 Y-3.769 I.149 J-.477
N7455 G01 X-2.94 Y-3.728
N7460 G02 X-2.934 Y-3.726 I.142 J-.479
N7465 G01 X-2.796 Y-3.688
N7470 G02 X-2.789 Y-3.686 I.135 J-.481
N7475 G01 X-2.651 Y-3.649
N7480 G02 X-2.645 Y-3.647 I.128 J-.483
N7485 G01 X-2.506 Y-3.613
N7490 G02 X-2.499 Y-3.611 I.121 J-.485
N7495 G01 X-2.361 Y-3.579
N7500 G02 X-2.354 Y-3.577 I.115 J-.487
N7505 G01 X-2.215 Y-3.546
N7510 G02 X-2.208 Y-3.545 I.108 J-.488
N7515 G01 X-2.069 Y-3.516
N7520 G02 X-2.062 Y-3.515 I.101 J-.49
N7525 G01 X-1.922 Y-3.488
N7530 G02 X-1.912 Y-3.486 I.094 J-.491
N7535 G01 X-1.632 Y-3.439
N7540 G02 X-1.618 Y-3.437 I.083 J-.493
N7545 G01 X-1.336 Y-3.397
N7550 G02 X-1.322 Y-3.395 I.07 J-.495
N7555 G01 X-1.04 Y-3.364
N7560 G02 X-1.026 Y-3.362 I.056 J-.497
N7565 G01 X-.744 Y-3.339
N7570 G02 X-.73 Y-3.338 I.042 J-.498
N7575 G01 X-.446 Y-3.322
N7580 G02 X-.432 Y-3.321 I.028 J-.499
N7585 G01 X-.149 Y-3.314
N7590 G02 X-.135 Y-3.313 I.014 J-.5
N7595 G01 X.149 Y-3.314
N7600 G02 X.163 I0 J-.5
N7605 G01 X.447 Y-3.322
N7610 G02 X.461 Y-3.323 I-.014 J-.5
N7615 G01 X.744 Y-3.339
N7620 G02 X.758 Y-3.34 I-.028 J-.499
N7625 G01 X1.042 Y-3.364
N7630 G02 X1.052 Y-3.365 I-.042 J-.498
N7635 G01 X1.194 Y-3.38
N7640 G02 X1.201 Y-3.381 I-.053 J-.497
N7645 G01 X1.342 Y-3.398
N7650 G02 X1.349 Y-3.399 I-.06 J-.496
N7655 G01 X1.49 Y-3.418
N7660 G02 X1.497 Y-3.419 I-.067 J-.496
N7665 G01 X1.638 Y-3.44
N7670 G02 X1.645 Y-3.441 I-.074 J-.495
N7675 G01 X1.785 Y-3.464
N7680 G02 X1.792 Y-3.465 I-.081 J-.493
N7685 G01 X1.933 Y-3.49
N7690 G02 X1.94 Y-3.491 I-.088 J-.492
N7695 G01 X2.08 Y-3.518
N7700 G02 X2.087 Y-3.52 I-.095 J-.491
N7705 G01 X2.227 Y-3.549
N7710 G02 X2.233 Y-3.55 I-.102 J-.49
N7715 G01 X2.373 Y-3.581
N7720 G02 X2.38 Y-3.583 I-.109 J-.488
N7725 G01 X2.519 Y-3.616
N7730 G02 X2.526 Y-3.618 I-.115 J-.486
N7735 G01 X2.665 Y-3.653
N7740 G02 X2.672 Y-3.654 I-.122 J-.485
N7745 G01 X2.81 Y-3.691
N7750 G02 X2.817 Y-3.693 I-.129 J-.483
N7755 G01 X2.955 Y-3.732
N7760 G02 X2.962 Y-3.734 I-.136 J-.481
N7765 G01 X3.1 Y-3.775
N7770 G02 X3.106 Y-3.778 I-.143 J-.479
N7775 G01 X3.244 Y-3.821
N7780 G02 X3.253 Y-3.824 I-.15 J-.477
N7785 G01 X3.509 Y-3.91
N7790 G02 X3.521 Y-3.914 I-.16 J-.474
N7795 G01 X3.744 Y-3.995
N7800 G02 X3.754 Y-3.999 I-.171 J-.47
N7805 G01 X3.948 Y-4.075
N7810 G02 X3.957 Y-4.078 I-.182 J-.466
N7815 G01 X4.005 Y-4.098
N7820 X4.035 Y-4.071
N7825 X4.191 Y-3.925
N7830 X4.342 Y-3.774
N7835 X4.487 Y-3.617
N7840 X4.626 Y-3.455
N7845 X4.76 Y-3.288
N7850 X4.887 Y-3.117
N7855 X5.008 Y-2.941
N7860 X5.123 Y-2.76
N7865 X5.232 Y-2.576
N7870 X5.333 Y-2.387
N7875 X5.428 Y-2.195
N7880 X5.516 Y-2.
N7885 X5.597 Y-1.802
N7890 X5.671 Y-1.601
N7895 X5.737 Y-1.397
N7900 X5.796 Y-1.191
N7905 X5.848 Y-.983
N7910 X5.892 Y-.773
N7915 X5.929 Y-.562
N7920 X5.958 Y-.35
N7925 X5.98 Y-.136
N7930 X5.994 Y.078
N7935 X6. Y.293
N7940 X5.999 Y.507
N7945 X5.989 Y.722
N7950 X5.973 Y.936
N7955 X5.948 Y1.15
N7960 X5.916 Y1.362
N7965 X5.876 Y1.573
N7970 X5.829 Y1.783
N7975 X5.774 Y1.991
N7980 X5.712 Y2.197
N7985 X5.643 Y2.401
N7990 X5.566 Y2.602
N7995 X5.482 Y2.8
N8000 X5.392 Y2.996
N8005 X5.294 Y3.188
N8010 X5.189 Y3.376
N8015 X5.078 Y3.56
N8020 X4.96 Y3.741
N8025 X4.836 Y3.917
N8030 X4.705 Y4.089
N8035 X4.569 Y4.256
N8040 X4.426 Y4.418
N8045 X4.278 Y4.575
N8050 X4.125 Y4.727
N8055 X3.966 Y4.873
N8060 X3.802 Y5.013
N8065 X3.632 Y5.148
N8070 X3.459 Y5.276
N8075 X3.28 Y5.398
N8080 X3.098 Y5.514
N8085 X2.911 Y5.623
N8090 X2.721 Y5.726
N8095 X2.527 Y5.822
N8100 X2.329 Y5.911
N8105 X2.129 Y5.992
N8110 X1.95 Y6.058
N8115 X1.874 Y6.068
N8120 X1.666 Y6.093
N8125 X1.459 Y6.115
N8130 X1.251 Y6.134
N8135 X1.042 Y6.151
N8140 X.834 Y6.164
N8145 X.626 Y6.174
N8150 X.417 Y6.181
N8155 X.209 Y6.186
N8160 X0 Y6.187
N8165 X-.209 Y6.186
N8170 X-.417 Y6.181
N8175 X-.626 Y6.174
N8180 X-.834 Y6.164
N8185 X-1.042 Y6.151
N8190 X-1.251 Y6.134
N8195 X-1.459 Y6.115
N8200 X-1.666 Y6.093
N8205 X-1.874 Y6.068
N8210 X-2.081 Y6.041
N8215 X-2.216 Y6.02
N8220 X-2.324 Y5.98
N8225 X-2.526 Y5.897
N8230 X-2.724 Y5.807
N8235 X-2.918 Y5.709
N8240 X-3.11 Y5.605
N8245 X-3.297 Y5.495
N8250 X-3.481 Y5.377
N8255 X-3.66 Y5.254
N8260 X-3.835 Y5.124
N8265 X-4.006 Y4.988
N8270 X-4.171 Y4.845
N8275 X-4.331 Y4.698
N8280 X-4.486 Y4.544
N8285 X-4.636 Y4.385
N8290 X-4.78 Y4.221
N8295 X-4.918 Y4.052
N8300 X-5.05 Y3.878
N8305 X-5.176 Y3.7
N8310 X-5.295 Y3.517
N8315 X-5.409 Y3.33
N8320 X-5.515 Y3.139
N8325 X-5.615 Y2.944
N8330 X-5.708 Y2.746
N8335 X-5.793 Y2.545
N8340 X-5.872 Y2.341
N8345 X-5.944 Y2.134
N8350 X-6.008 Y1.925
N8355 X-6.065 Y1.713
N8360 X-6.114 Y1.5
N8365 X-6.156 Y1.285
N8370 X-6.19 Y1.069
N8375 X-6.217 Y.851
N8380 X-6.236 Y.633
N8385 X-6.247 Y.414
N8390 X-6.251 Y.195
N8395 X-6.247 Y-.025
N8400 X-6.235 Y-.244
N8405 X-6.215 Y-.462
N8410 X-6.188 Y-.68
N8415 X-6.154 Y-.897
N8420 X-6.111 Y-1.112
N8425 X-6.062 Y-1.326
N8430 X-6.004 Y-1.538
N8435 X-5.94 Y-1.748
N8440 X-5.868 Y-1.956
N8445 X-5.788 Y-2.161
N8450 X-5.702 Y-2.363
N8455 X-5.608 Y-2.563
N8460 X-5.508 Y-2.758
N8465 X-5.401 Y-2.95
N8470 X-5.287 Y-3.139
N8475 X-5.166 Y-3.323
N8480 X-5.04 Y-3.503
N8485 X-4.907 Y-3.679
N8490 X-4.767 Y-3.849
N8495 X-4.622 Y-4.015
N8500 X-4.471 Y-4.176
N8505 X-4.385 Y-4.262
N8510 X-4.353 Y-4.247
N8515 G02 X-4.346 Y-4.244 I.208 J-.454
N8520 G01 X-4.214 Y-4.186
N8525 G02 X-4.208 Y-4.183 I.202 J-.457
N8530 G01 X-4.075 Y-4.127
N8535 G02 X-4.068 Y-4.124 I.195 J-.46
N8540 G01 X-3.935 Y-4.07
N8545 G02 X-3.929 Y-4.067 I.189 J-.463
N8550 G01 X-3.795 Y-4.015
N8555 G02 X-3.788 Y-4.012 I.182 J-.466
N8560 G01 X-3.654 Y-3.962
N8565 G02 X-3.647 Y-3.959 I.176 J-.468
N8570 G01 X-3.512 Y-3.911
N8575 G02 X-3.505 Y-3.909 I.169 J-.471
N8580 G01 X-3.37 Y-3.862
N8585 G02 X-3.363 Y-3.86 I.162 J-.473
N8590 G01 X-3.227 Y-3.815
N8595 G02 X-3.221 Y-3.813 I.155 J-.475
N8600 G01 X-3.084 Y-3.771
N8605 G02 X-3.077 Y-3.769 I.149 J-.477
N8610 G01 X-2.94 Y-3.728
N8615 G02 X-2.934 Y-3.726 I.142 J-.479
N8620 G01 X-2.796 Y-3.688
N8625 G02 X-2.789 Y-3.686 I.135 J-.481
N8630 G01 X-2.651 Y-3.649
N8635 G02 X-2.645 Y-3.647 I.128 J-.483
N8640 G01 X-2.506 Y-3.613
N8645 G02 X-2.499 Y-3.611 I.121 J-.485
N8650 G01 X-2.361 Y-3.579
N8655 G02 X-2.354 Y-3.577 I.115 J-.487
N8660 G01 X-2.215 Y-3.546
N8665 G02 X-2.208 Y-3.545 I.108 J-.488
N8670 G01 X-2.069 Y-3.516
N8675 G02 X-2.062 Y-3.515 I.101 J-.49
N8680 G01 X-1.922 Y-3.488
N8685 G02 X-1.912 Y-3.486 I.094 J-.491
N8690 G01 X-1.632 Y-3.439
N8695 G02 X-1.618 Y-3.437 I.083 J-.493
N8700 G01 X-1.336 Y-3.397
N8705 G02 X-1.322 Y-3.395 I.07 J-.495
N8710 G01 X-1.04 Y-3.364
N8715 G02 X-1.026 Y-3.362 I.056 J-.497
N8720 G01 X-.744 Y-3.339
N8725 G02 X-.73 Y-3.338 I.042 J-.498
N8730 G01 X-.446 Y-3.322
N8735 G02 X-.432 Y-3.321 I.028 J-.499
N8740 G01 X-.149 Y-3.314
N8745 G02 X-.135 Y-3.313 I.014 J-.5
N8750 G01 X.149 Y-3.314
N8755 G02 X.163 I0 J-.5
N8760 G01 X.447 Y-3.322
N8765 G02 X.461 Y-3.323 I-.014 J-.5
N8770 G01 X.744 Y-3.339
N8775 G02 X.758 Y-3.34 I-.028 J-.499
N8780 G01 X1.042 Y-3.364
N8785 G02 X1.052 Y-3.365 I-.042 J-.498
N8790 G01 X1.194 Y-3.38
N8795 G02 X1.201 Y-3.381 I-.053 J-.497
N8800 G01 X1.342 Y-3.398
N8805 G02 X1.349 Y-3.399 I-.06 J-.496
N8810 G01 X1.49 Y-3.418
N8815 G02 X1.497 Y-3.419 I-.067 J-.496
N8820 G01 X1.638 Y-3.44
N8825 G02 X1.645 Y-3.441 I-.074 J-.495
N8830 G01 X1.785 Y-3.464
N8835 G02 X1.792 Y-3.465 I-.081 J-.493
N8840 G01 X1.933 Y-3.49
N8845 G02 X1.94 Y-3.491 I-.088 J-.492
N8850 G01 X2.08 Y-3.518
N8855 G02 X2.087 Y-3.52 I-.095 J-.491
N8860 G01 X2.227 Y-3.549
N8865 G02 X2.233 Y-3.55 I-.102 J-.49
N8870 G01 X2.373 Y-3.581
N8875 G02 X2.38 Y-3.583 I-.109 J-.488
N8880 G01 X2.519 Y-3.616
N8885 G02 X2.526 Y-3.618 I-.115 J-.486
N8890 G01 X2.665 Y-3.653
N8895 G02 X2.672 Y-3.654 I-.122 J-.485
N8900 G01 X2.81 Y-3.691
N8905 G02 X2.817 Y-3.693 I-.129 J-.483
N8910 G01 X2.955 Y-3.732
N8915 G02 X2.962 Y-3.734 I-.136 J-.481
N8920 G01 X3.1 Y-3.775
N8925 G02 X3.106 Y-3.778 I-.143 J-.479
N8930 G01 X3.244 Y-3.821
N8935 G02 X3.253 Y-3.824 I-.15 J-.477
N8940 G01 X3.509 Y-3.91
N8945 G02 X3.521 Y-3.914 I-.16 J-.474
N8950 G01 X3.744 Y-3.995
N8955 G02 X3.754 Y-3.999 I-.171 J-.47
N8960 G01 X3.948 Y-4.075
N8965 G02 X3.957 Y-4.078 I-.182 J-.466
N8970 G01 X4.125 Y-4.148
N8975 G02 X4.133 Y-4.151 I-.191 J-.462
N8980 G01 X4.28 Y-4.215
N8985 G02 X4.29 Y-4.219 I-.199 J-.459
N8990 G01 X4.505 Y-4.318
N8995 X4.512 Y-4.311
N9000 X4.67 Y-4.154
N9005 X4.823 Y-3.991
N9010 X4.97 Y-3.824
N9015 X5.111 Y-3.651
N9020 X5.246 Y-3.474
N9025 X5.375 Y-3.292
N9030 X5.497 Y-3.106
N9035 X5.613 Y-2.915
N9040 X5.722 Y-2.721
N9045 X5.825 Y-2.523
N9050 X5.921 Y-2.321
N9055 X6.01 Y-2.116
N9060 X6.091 Y-1.908
N9065 X6.166 Y-1.698
N9070 X6.233 Y-1.485
N9075 X6.293 Y-1.269
N9080 X6.345 Y-1.052
N9085 X6.39 Y-.833
N9090 X6.427 Y-.613
N9095 X6.457 Y-.391
N9100 X6.479 Y-.169
N9105 X6.493 Y.055
N9110 X6.5 Y.278
N9115 X6.499 Y.502
N9120 X6.49 Y.726
N9125 X6.474 Y.949
N9130 X6.449 Y1.172
N9135 X6.418 Y1.394
N9140 X6.378 Y1.614
N9145 X6.331 Y1.833
N9150 X6.277 Y2.051
N9155 X6.215 Y2.266
N9160 X6.145 Y2.48
N9165 X6.069 Y2.69
N9170 X5.985 Y2.899
N9175 X5.894 Y3.104
N9180 X5.796 Y3.306
N9185 X5.691 Y3.504
N9190 X5.579 Y3.699
N9195 X5.461 Y3.89
N9200 X5.336 Y4.077
N9205 X5.205 Y4.259
N9210 X5.068 Y4.437
N9215 X4.924 Y4.61
N9220 X4.775 Y4.778
N9225 X4.62 Y4.941
N9230 X4.459 Y5.099
N9235 X4.293 Y5.251
N9240 X4.122 Y5.397
N9245 X3.946 Y5.537
N9250 X3.765 Y5.671
N9255 X3.698 Y5.718
N9260 X3.52 Y5.763
N9265 X3.316 Y5.812
N9270 X3.111 Y5.857
N9275 X2.906 Y5.9
N9280 X2.7 Y5.939
N9285 X2.494 Y5.976
N9290 X2.288 Y6.01
N9295 X2.081 Y6.041
N9300 X1.874 Y6.068
N9305 X1.666 Y6.093
N9310 X1.459 Y6.115
N9315 X1.251 Y6.134
N9320 X1.042 Y6.151
N9325 X.834 Y6.164
N9330 X.626 Y6.174
N9335 X.417 Y6.181
N9340 X.209 Y6.186
N9345 X0 Y6.187
N9350 X-.209 Y6.186
N9355 X-.417 Y6.181
N9360 X-.626 Y6.174
N9365 X-.834 Y6.164
N9370 X-1.042 Y6.151
N9375 X-1.251 Y6.134
N9380 X-1.459 Y6.115
N9385 X-1.666 Y6.093
N9390 X-1.874 Y6.068
N9395 X-2.081 Y6.041
N9400 X-2.288 Y6.01
N9405 X-2.494 Y5.976
N9410 X-2.7 Y5.939
N9415 X-2.906 Y5.9
N9420 X-3.111 Y5.857
N9425 X-3.316 Y5.812
N9430 X-3.52 Y5.763
N9435 X-3.724 Y5.712
N9440 X-3.927 Y5.657
N9445 X-3.971 Y5.645
N9450 X-4.054 Y5.585
N9455 X-4.234 Y5.446
N9460 X-4.409 Y5.302
N9465 X-4.578 Y5.151
N9470 X-4.743 Y4.995
N9475 X-4.902 Y4.833
N9480 X-5.056 Y4.665
N9485 X-5.204 Y4.493
N9490 X-5.346 Y4.316
N9495 X-5.482 Y4.134
N9500 X-5.612 Y3.947
N9505 X-5.736 Y3.756
N9510 X-5.853 Y3.561
N9515 X-5.963 Y3.362
N9520 X-6.066 Y3.159
N9525 X-6.163 Y2.953
N9530 X-6.252 Y2.743
N9535 X-6.335 Y2.531
N9540 X-6.41 Y2.316
N9545 X-6.478 Y2.099
N9550 X-6.538 Y1.879
N9555 X-6.591 Y1.657
N9560 X-6.637 Y1.434
N9565 X-6.675 Y1.209
N9570 X-6.705 Y.983
N9575 X-6.728 Y.756
N9580 X-6.743 Y.528
N9585 X-6.75 Y.3
N9590 X-6.749 Y.072
N9595 X-6.741 Y-.156
N9600 X-6.725 Y-.384
N9605 X-6.702 Y-.611
N9610 X-6.67 Y-.837
N9615 X-6.632 Y-1.062
N9620 X-6.585 Y-1.286
N9625 X-6.531 Y-1.508
N9630 X-6.47 Y-1.728
N9635 X-6.401 Y-1.946
N9640 X-6.324 Y-2.162
N9645 X-6.241 Y-2.375
N9650 X-6.15 Y-2.585
N9655 X-6.053 Y-2.792
N9660 X-5.948 Y-2.996
N9665 X-5.837 Y-3.196
N9670 X-5.718 Y-3.392
N9675 X-5.594 Y-3.584
N9680 X-5.462 Y-3.772
N9685 X-5.325 Y-3.955
N9690 X-5.181 Y-4.134
N9695 X-5.032 Y-4.307
N9700 X-4.877 Y-4.476
N9705 X-4.86 Y-4.492
N9710 X-4.763 Y-4.443
N9715 G02 X-4.757 Y-4.44 I.228 J-.445
N9720 G01 X-4.627 Y-4.376
N9725 G02 X-4.621 Y-4.372 I.221 J-.448
N9730 G01 X-4.49 Y-4.31
N9735 G02 X-4.484 Y-4.307 I.215 J-.451
N9740 G01 X-4.353 Y-4.247
N9745 G02 X-4.346 Y-4.244 I.208 J-.454
N9750 G01 X-4.214 Y-4.186
N9755 G02 X-4.208 Y-4.183 I.202 J-.457
N9760 G01 X-4.075 Y-4.127
N9765 G02 X-4.068 Y-4.124 I.195 J-.46
N9770 G01 X-3.935 Y-4.07
N9775 G02 X-3.929 Y-4.067 I.189 J-.463
N9780 G01 X-3.795 Y-4.015
N9785 G02 X-3.788 Y-4.012 I.182 J-.466
N9790 G01 X-3.654 Y-3.962
N9795 G02 X-3.647 Y-3.959 I.176 J-.468
N9800 G01 X-3.512 Y-3.911
N9805 G02 X-3.505 Y-3.909 I.169 J-.471
N9810 G01 X-3.37 Y-3.862
N9815 G02 X-3.363 Y-3.86 I.162 J-.473
N9820 G01 X-3.227 Y-3.815
N9825 G02 X-3.221 Y-3.813 I.155 J-.475
N9830 G01 X-3.084 Y-3.771
N9835 G02 X-3.077 Y-3.769 I.149 J-.477
N9840 G01 X-2.94 Y-3.728
N9845 G02 X-2.934 Y-3.726 I.142 J-.479
N9850 G01 X-2.796 Y-3.688
N9855 G02 X-2.789 Y-3.686 I.135 J-.481
N9860 G01 X-2.651 Y-3.649
N9865 G02 X-2.645 Y-3.647 I.128 J-.483
N9870 G01 X-2.506 Y-3.613
N9875 G02 X-2.499 Y-3.611 I.121 J-.485
N9880 G01 X-2.361 Y-3.579
N9885 G02 X-2.354 Y-3.577 I.115 J-.487
N9890 G01 X-2.215 Y-3.546
N9895 G02 X-2.208 Y-3.545 I.108 J-.488
N9900 G01 X-2.069 Y-3.516
N9905 G02 X-2.062 Y-3.515 I.101 J-.49
N9910 G01 X-1.922 Y-3.488
N9915 G02 X-1.912 Y-3.486 I.094 J-.491
N9920 G01 X-1.632 Y-3.439
N9925 G02 X-1.618 Y-3.437 I.083 J-.493
N9930 G01 X-1.336 Y-3.397
N9935 G02 X-1.322 Y-3.395 I.07 J-.495
N9940 G01 X-1.04 Y-3.364
N9945 G02 X-1.026 Y-3.362 I.056 J-.497
N9950 G01 X-.744 Y-3.339
N9955 G02 X-.73 Y-3.338 I.042 J-.498
N9960 G01 X-.446 Y-3.322
N9965 G02 X-.432 Y-3.321 I.028 J-.499
N9970 G01 X-.149 Y-3.314
N9975 G02 X-.135 Y-3.313 I.014 J-.5
N9980 G01 X.149 Y-3.314
N9985 G02 X.163 I0 J-.5
N9990 G01 X.447 Y-3.322
N9995 G02 X.461 Y-3.323 I-.014 J-.5
N5 G01 X.744 Y-3.339
N10 G02 X.758 Y-3.34 I-.028 J-.499
N15 G01 X1.042 Y-3.364
N20 G02 X1.052 Y-3.365 I-.042 J-.498
N25 G01 X1.194 Y-3.38
N30 G02 X1.201 Y-3.381 I-.053 J-.497
N35 G01 X1.342 Y-3.398
N40 G02 X1.349 Y-3.399 I-.06 J-.496
N45 G01 X1.49 Y-3.418
N50 G02 X1.497 Y-3.419 I-.067 J-.496
N55 G01 X1.638 Y-3.44
N60 G02 X1.645 Y-3.441 I-.074 J-.495
N65 G01 X1.785 Y-3.464
N70 G02 X1.792 Y-3.465 I-.081 J-.493
N75 G01 X1.933 Y-3.49
N80 G02 X1.94 Y-3.491 I-.088 J-.492
N85 G01 X2.08 Y-3.518
N90 G02 X2.087 Y-3.52 I-.095 J-.491
N95 G01 X2.227 Y-3.549
N100 G02 X2.233 Y-3.55 I-.102 J-.49
N105 G01 X2.373 Y-3.581
N110 G02 X2.38 Y-3.583 I-.109 J-.488
N115 G01 X2.519 Y-3.616
N120 G02 X2.526 Y-3.618 I-.115 J-.486
N125 G01 X2.665 Y-3.653
N130 G02 X2.672 Y-3.654 I-.122 J-.485
N135 G01 X2.81 Y-3.691
N140 G02 X2.817 Y-3.693 I-.129 J-.483
N145 G01 X2.955 Y-3.732
N150 G02 X2.962 Y-3.734 I-.136 J-.481
N155 G01 X3.1 Y-3.775
N160 G02 X3.106 Y-3.778 I-.143 J-.479
N165 G01 X3.244 Y-3.821
N170 G02 X3.253 Y-3.824 I-.15 J-.477
N175 G01 X3.509 Y-3.91
N180 G02 X3.521 Y-3.914 I-.16 J-.474
N185 G01 X3.744 Y-3.995
N190 G02 X3.754 Y-3.999 I-.171 J-.47
N195 G01 X3.948 Y-4.075
N200 G02 X3.957 Y-4.078 I-.182 J-.466
N205 G01 X4.125 Y-4.148
N210 G02 X4.133 Y-4.151 I-.191 J-.462
N215 G01 X4.28 Y-4.215
N220 G02 X4.29 Y-4.219 I-.199 J-.459
N225 G01 X4.544 Y-4.336
N230 G02 X4.555 Y-4.341 I-.208 J-.454
N235 G01 X4.745 Y-4.434
N240 G02 X4.753 Y-4.438 I-.219 J-.449
N245 G01 X4.894 Y-4.51
N250 G02 X4.903 Y-4.514 I-.228 J-.445
N255 G01 X4.977 Y-4.554
N260 X5.029 Y-4.502
N265 X5.188 Y-4.333
N270 X5.341 Y-4.16
N275 X5.488 Y-3.981
N280 X5.629 Y-3.797
N285 X5.764 Y-3.609
N290 X5.892 Y-3.416
N295 X6.014 Y-3.219
N300 X6.13 Y-3.018
N305 X6.239 Y-2.813
N310 X6.341 Y-2.605
N315 X6.436 Y-2.393
N320 X6.524 Y-2.178
N325 X6.604 Y-1.961
N330 X6.678 Y-1.74
N335 X6.744 Y-1.518
N340 X6.802 Y-1.293
N345 X6.853 Y-1.066
N350 X6.897 Y-.838
N355 X6.933 Y-.609
N360 X6.961 Y-.378
N365 X6.982 Y-.147
N370 X6.995 Y.086
N375 X7. Y.318
N380 X6.998 Y.551
N385 X6.987 Y.783
N390 X6.97 Y1.015
N395 X6.944 Y1.246
N400 X6.911 Y1.477
N405 X6.87 Y1.706
N410 X6.821 Y1.934
N415 X6.765 Y2.16
N420 X6.702 Y2.384
N425 X6.631 Y2.606
N430 X6.552 Y2.825
N435 X6.467 Y3.042
N440 X6.374 Y3.256
N445 X6.274 Y3.467
N450 X6.168 Y3.674
N455 X6.054 Y3.878
N460 X5.934 Y4.078
N465 X5.807 Y4.274
N470 X5.674 Y4.465
N475 X5.534 Y4.652
N480 X5.388 Y4.835
N485 X5.237 Y5.012
N490 X5.079 Y5.185
N495 X4.923 Y5.345
N500 X4.733 Y5.411
N505 X4.532 Y5.477
N510 X4.331 Y5.54
N515 X4.129 Y5.6
N520 X3.927 Y5.657
N525 X3.724 Y5.712
N530 X3.52 Y5.763
N535 X3.316 Y5.812
N540 X3.111 Y5.857
N545 X2.906 Y5.9
N550 X2.7 Y5.939
N555 X2.494 Y5.976
N560 X2.288 Y6.01
N565 X2.081 Y6.041
N570 X1.874 Y6.068
N575 X1.666 Y6.093
N580 X1.459 Y6.115
N585 X1.251 Y6.134
N590 X1.042 Y6.151
N595 X.834 Y6.164
N600 X.626 Y6.174
N605 X.417 Y6.181
N610 X.209 Y6.186
N615 X0 Y6.187
N620 X-.209 Y6.186
N625 X-.417 Y6.181
N630 X-.626 Y6.174
N635 X-.834 Y6.164
N640 X-1.042 Y6.151
N645 X-1.251 Y6.134
N650 X-1.459 Y6.115
N655 X-1.666 Y6.093
N660 X-1.874 Y6.068
N665 X-2.081 Y6.041
N670 X-2.288 Y6.01
N675 X-2.494 Y5.976
N680 X-2.7 Y5.939
N685 X-2.906 Y5.9
N690 X-3.111 Y5.857
N695 X-3.316 Y5.812
N700 X-3.52 Y5.763
N705 X-3.724 Y5.712
N710 X-3.927 Y5.657
N715 X-4.129 Y5.6
N720 X-4.331 Y5.54
N725 X-4.532 Y5.477
N730 X-4.733 Y5.411
N735 X-4.932 Y5.342
N740 X-5.131 Y5.27
N745 X-5.2 Y5.244
N750 X-5.213 Y5.231
N755 X-5.375 Y5.059
N760 X-5.53 Y4.882
N765 X-5.68 Y4.7
N770 X-5.824 Y4.513
N775 X-5.962 Y4.321
N780 X-6.093 Y4.125
N785 X-6.218 Y3.925
N790 X-6.337 Y3.721
N795 X-6.448 Y3.513
N800 X-6.553 Y3.301
N805 X-6.651 Y3.086
N810 X-6.741 Y2.868
N815 X-6.825 Y2.646
N820 X-6.901 Y2.423
N825 X-6.97 Y2.197
N830 X-7.032 Y1.968
N835 X-7.086 Y1.738
N840 X-7.132 Y1.506
N845 X-7.171 Y1.273
N850 X-7.202 Y1.038
N855 X-7.226 Y.802
N860 X-7.241 Y.566
N865 X-7.249 Y.33
N870 X-7.25 Y.093
N875 X-7.242 Y-.144
N880 X-7.227 Y-.38
N885 X-7.205 Y-.616
N890 X-7.174 Y-.851
N895 X-7.136 Y-1.085
N900 X-7.09 Y-1.318
N905 X-7.037 Y-1.549
N910 X-6.976 Y-1.778
N915 X-6.907 Y-2.005
N920 X-6.832 Y-2.23
N925 X-6.749 Y-2.452
N930 X-6.658 Y-2.672
N935 X-6.561 Y-2.888
N940 X-6.457 Y-3.102
N945 X-6.345 Y-3.311
N950 X-6.227 Y-3.518
N955 X-6.102 Y-3.72
N960 X-5.971 Y-3.918
N965 X-5.833 Y-4.111
N970 X-5.689 Y-4.301
N975 X-5.539 Y-4.485
N980 X-5.383 Y-4.664
N985 X-5.313 Y-4.74
N990 X-5.3 Y-4.733
N995 G02 X-5.294 Y-4.729 I.253 J-.431
N1000 G01 X-5.167 Y-4.657
N1005 G02 X-5.161 Y-4.654 I.247 J-.435
N1010 G01 X-5.034 Y-4.584
N1015 G02 X-5.027 Y-4.58 I.241 J-.438
N1020 G01 X-4.899 Y-4.512
N1025 G02 X-4.893 Y-4.509 I.234 J-.442
N1030 G01 X-4.763 Y-4.443
N1035 G02 X-4.757 Y-4.44 I.228 J-.445
N1040 G01 X-4.627 Y-4.376
N1045 G02 X-4.621 Y-4.372 I.221 J-.448
N1050 G01 X-4.49 Y-4.31
N1055 G02 X-4.484 Y-4.307 I.215 J-.451
N1060 G01 X-4.353 Y-4.247
N1065 G02 X-4.346 Y-4.244 I.208 J-.454
N1070 G01 X-4.214 Y-4.186
N1075 G02 X-4.208 Y-4.183 I.202 J-.457
N1080 G01 X-4.075 Y-4.127
N1085 G02 X-4.068 Y-4.124 I.195 J-.46
N1090 G01 X-3.935 Y-4.07
N1095 G02 X-3.929 Y-4.067 I.189 J-.463
N1100 G01 X-3.795 Y-4.015
N1105 G02 X-3.788 Y-4.012 I.182 J-.466
N1110 G01 X-3.654 Y-3.962
N1115 G02 X-3.647 Y-3.959 I.176 J-.468
N1120 G01 X-3.512 Y-3.911
N1125 G02 X-3.505 Y-3.909 I.169 J-.471
N1130 G01 X-3.37 Y-3.862
N1135 G02 X-3.363 Y-3.86 I.162 J-.473
N1140 G01 X-3.227 Y-3.815
N1145 G02 X-3.221 Y-3.813 I.155 J-.475
N1150 G01 X-3.084 Y-3.771
N1155 G02 X-3.077 Y-3.769 I.149 J-.477
N1160 G01 X-2.94 Y-3.728
N1165 G02 X-2.934 Y-3.726 I.142 J-.479
N1170 G01 X-2.796 Y-3.688
N1175 G02 X-2.789 Y-3.686 I.135 J-.481
N1180 G01 X-2.651 Y-3.649
N1185 G02 X-2.645 Y-3.647 I.128 J-.483
N1190 G01 X-2.506 Y-3.613
N1195 G02 X-2.499 Y-3.611 I.121 J-.485
N1200 G01 X-2.361 Y-3.579
N1205 G02 X-2.354 Y-3.577 I.115 J-.487
N1210 G01 X-2.215 Y-3.546
N1215 G02 X-2.208 Y-3.545 I.108 J-.488
N1220 G01 X-2.069 Y-3.516
N1225 G02 X-2.062 Y-3.515 I.101 J-.49
N1230 G01 X-1.922 Y-3.488
N1235 G02 X-1.912 Y-3.486 I.094 J-.491
N1240 G01 X-1.632 Y-3.439
N1245 G02 X-1.618 Y-3.437 I.083 J-.493
N1250 G01 X-1.336 Y-3.397
N1255 G02 X-1.322 Y-3.395 I.07 J-.495
N1260 G01 X-1.04 Y-3.364
N1265 G02 X-1.026 Y-3.362 I.056 J-.497
N1270 G01 X-.744 Y-3.339
N1275 G02 X-.73 Y-3.338 I.042 J-.498
N1280 G01 X-.446 Y-3.322
N1285 G02 X-.432 Y-3.321 I.028 J-.499
N1290 G01 X-.149 Y-3.314
N1295 G02 X-.135 Y-3.313 I.014 J-.5
N1300 G01 X.149 Y-3.314
N1305 G02 X.163 I0 J-.5
N1310 G01 X.447 Y-3.322
N1315 G02 X.461 Y-3.323 I-.014 J-.5
N1320 G01 X.744 Y-3.339
N1325 G02 X.758 Y-3.34 I-.028 J-.499
N1330 G01 X1.042 Y-3.364
N1335 G02 X1.052 Y-3.365 I-.042 J-.498
N1340 G01 X1.194 Y-3.38
N1345 G02 X1.201 Y-3.381 I-.053 J-.497
N1350 G01 X1.342 Y-3.398
N1355 G02 X1.349 Y-3.399 I-.06 J-.496
N1360 G01 X1.49 Y-3.418
N1365 G02 X1.497 Y-3.419 I-.067 J-.496
N1370 G01 X1.638 Y-3.44
N1375 G02 X1.645 Y-3.441 I-.074 J-.495
N1380 G01 X1.785 Y-3.464
N1385 G02 X1.792 Y-3.465 I-.081 J-.493
N1390 G01 X1.933 Y-3.49
N1395 G02 X1.94 Y-3.491 I-.088 J-.492
N1400 G01 X2.08 Y-3.518
N1405 G02 X2.087 Y-3.52 I-.095 J-.491
N1410 G01 X2.227 Y-3.549
N1415 G02 X2.233 Y-3.55 I-.102 J-.49
N1420 G01 X2.373 Y-3.581
N1425 G02 X2.38 Y-3.583 I-.109 J-.488
N1430 G01 X2.519 Y-3.616
N1435 G02 X2.526 Y-3.618 I-.115 J-.486
N1440 G01 X2.665 Y-3.653
N1445 G02 X2.672 Y-3.654 I-.122 J-.485
N1450 G01 X2.81 Y-3.691
N1455 G02 X2.817 Y-3.693 I-.129 J-.483
N1460 G01 X2.955 Y-3.732
N1465 G02 X2.962 Y-3.734 I-.136 J-.481
N1470 G01 X3.1 Y-3.775
N1475 G02 X3.106 Y-3.778 I-.143 J-.479
N1480 G01 X3.244 Y-3.821
N1485 G02 X3.253 Y-3.824 I-.15 J-.477
N1490 G01 X3.509 Y-3.91
N1495 G02 X3.521 Y-3.914 I-.16 J-.474
N1500 G01 X3.744 Y-3.995
N1505 G02 X3.754 Y-3.999 I-.171 J-.47
N1510 G01 X3.948 Y-4.075
N1515 G02 X3.957 Y-4.078 I-.182 J-.466
N1520 G01 X4.125 Y-4.148
N1525 G02 X4.133 Y-4.151 I-.191 J-.462
N1530 G01 X4.28 Y-4.215
N1535 G02 X4.29 Y-4.219 I-.199 J-.459
N1540 G01 X4.544 Y-4.336
N1545 G02 X4.555 Y-4.341 I-.208 J-.454
N1550 G01 X4.745 Y-4.434
N1555 G02 X4.753 Y-4.438 I-.219 J-.449
N1560 G01 X4.894 Y-4.51
N1565 G02 X4.903 Y-4.514 I-.228 J-.445
N1570 G01 X5.113 Y-4.627
N1575 G02 X5.123 Y-4.633 I-.236 J-.441
N1580 G01 X5.326 Y-4.748
N1585 X5.336 Y-4.753
N1590 X5.353 Y-4.752
N1595 G02 X5.358 Y-4.751 I.055 J-.497
N1600 G01 X5.373 Y-4.749
N1605 G02 X5.396 Y-4.746 I.075 J-.494
N1610 G01 X5.496 Y-4.735
N1615 X5.623 Y-4.596
N1620 X5.78 Y-4.414
N1625 X5.93 Y-4.227
N1630 X6.074 Y-4.035
N1635 X6.212 Y-3.838
N1640 X6.344 Y-3.637
N1645 X6.469 Y-3.432
N1650 X6.588 Y-3.223
N1655 X6.699 Y-3.01
N1660 X6.804 Y-2.794
N1665 X6.902 Y-2.574
N1670 X6.993 Y-2.351
N1675 X7.076 Y-2.126
N1680 X7.152 Y-1.898
N1685 X7.221 Y-1.667
N1690 X7.282 Y-1.434
N1695 X7.336 Y-1.2
N1700 X7.383 Y-.963
N1705 X7.421 Y-.726
N1710 X7.452 Y-.487
N1715 X7.476 Y-.247
N1720 X7.491 Y-.007
N1725 X7.499 Y.234
N1730 Y.475
N1735 X7.492 Y.716
N1740 X7.476 Y.957
N1745 X7.453 Y1.197
N1750 X7.423 Y1.436
N1755 X7.384 Y1.674
N1760 X7.338 Y1.911
N1765 X7.285 Y2.146
N1770 X7.223 Y2.379
N1775 X7.155 Y2.611
N1780 X7.079 Y2.84
N1785 X6.995 Y3.067
N1790 X6.905 Y3.291
N1795 X6.807 Y3.511
N1800 X6.702 Y3.729
N1805 X6.59 Y3.943
N1810 X6.472 Y4.154
N1815 X6.347 Y4.361
N1820 X6.215 Y4.563
N1825 X6.076 Y4.762
N1830 X5.941 Y4.943
N1835 X5.651 Y5.066
N1840 X5.491 Y5.132
N1845 X5.317 Y5.2
N1850 X5.131 Y5.27
N1855 X4.932 Y5.342
N1860 X4.733 Y5.411
N1865 X4.532 Y5.477
N1870 X4.331 Y5.54
N1875 X4.129 Y5.6
N1880 X3.927 Y5.657
N1885 X3.724 Y5.712
N1890 X3.52 Y5.763
N1895 X3.316 Y5.812
N1900 X3.111 Y5.857
N1905 X2.906 Y5.9
N1910 X2.7 Y5.939
N1915 X2.494 Y5.976
N1920 X2.288 Y6.01
N1925 X2.081 Y6.041
N1930 X1.874 Y6.068
N1935 X1.666 Y6.093
N1940 X1.459 Y6.115
N1945 X1.251 Y6.134
N1950 X1.042 Y6.151
N1955 X.834 Y6.164
N1960 X.626 Y6.174
N1965 X.417 Y6.181
N1970 X.209 Y6.186
N1975 X0 Y6.187
N1980 X-.209 Y6.186
N1985 X-.417 Y6.181
N1990 X-.626 Y6.174
N1995 X-.834 Y6.164
N2000 X-1.042 Y6.151
N2005 X-1.251 Y6.134
N2010 X-1.459 Y6.115
N2015 X-1.666 Y6.093
N2020 X-1.874 Y6.068
N2025 X-2.081 Y6.041
N2030 X-2.288 Y6.01
N2035 X-2.494 Y5.976
N2040 X-2.7 Y5.939
N2045 X-2.906 Y5.9
N2050 X-3.111 Y5.857
N2055 X-3.316 Y5.812
N2060 X-3.52 Y5.763
N2065 X-3.724 Y5.712
N2070 X-3.927 Y5.657
N2075 X-4.129 Y5.6
N2080 X-4.331 Y5.54
N2085 X-4.532 Y5.477
N2090 X-4.733 Y5.411
N2095 X-4.932 Y5.342
N2100 X-5.131 Y5.27
N2105 X-5.329 Y5.195
N2110 X-5.527 Y5.117
N2115 X-5.723 Y5.037
N2120 X-5.918 Y4.953
N2125 X-6.113 Y4.866
N2130 X-6.221 Y4.816
N2135 X-6.243 Y4.788
N2140 X-6.385 Y4.589
N2145 X-6.52 Y4.386
N2150 X-6.649 Y4.178
N2155 X-6.772 Y3.967
N2160 X-6.887 Y3.752
N2165 X-6.996 Y3.533
N2170 X-7.098 Y3.31
N2175 X-7.193 Y3.085
N2180 X-7.281 Y2.856
N2185 X-7.361 Y2.625
N2190 X-7.434 Y2.392
N2195 X-7.5 Y2.156
N2200 X-7.558 Y1.918
N2205 X-7.608 Y1.678
N2210 X-7.651 Y1.437
N2215 X-7.686 Y1.195
N2220 X-7.714 Y.952
N2225 X-7.734 Y.707
N2230 X-7.746 Y.463
N2235 X-7.751 Y.218
N2240 X-7.747 Y-.027
N2245 X-7.736 Y-.272
N2250 X-7.717 Y-.517
N2255 X-7.691 Y-.761
N2260 X-7.657 Y-1.004
N2265 X-7.615 Y-1.245
N2270 X-7.565 Y-1.486
N2275 X-7.508 Y-1.724
N2280 X-7.443 Y-1.961
N2285 X-7.371 Y-2.196
N2290 X-7.292 Y-2.428
N2295 X-7.205 Y-2.658
N2300 X-7.111 Y-2.885
N2305 X-7.01 Y-3.109
N2310 X-6.902 Y-3.329
N2315 X-6.787 Y-3.546
N2320 X-6.665 Y-3.76
N2325 X-6.536 Y-3.969
N2330 X-6.401 Y-4.175
N2335 X-6.259 Y-4.376
N2340 X-6.112 Y-4.572
N2345 X-5.958 Y-4.764
N2350 X-5.798 Y-4.951
N2355 X-5.747 Y-5.006
N2360 X-5.694 Y-4.972
N2365 G02 X-5.688 Y-4.968 I.272 J-.42
N2370 G01 X-5.564 Y-4.89
N2375 G02 X-5.558 Y-4.886 I.265 J-.424
N2380 G01 X-5.433 Y-4.81
N2385 G02 X-5.426 Y-4.807 I.259 J-.428
N2390 G01 X-5.3 Y-4.733
N2395 G02 X-5.294 Y-4.729 I.253 J-.431
N2400 G01 X-5.167 Y-4.657
N2405 G02 X-5.161 Y-4.654 I.247 J-.435
N2410 G01 X-5.034 Y-4.584
N2415 G02 X-5.027 Y-4.58 I.241 J-.438
N2420 G01 X-4.899 Y-4.512
N2425 G02 X-4.893 Y-4.509 I.234 J-.442
N2430 G01 X-4.763 Y-4.443
N2435 G02 X-4.757 Y-4.44 I.228 J-.445
N2440 G01 X-4.627 Y-4.376
N2445 G02 X-4.621 Y-4.372 I.221 J-.448
N2450 G01 X-4.49 Y-4.31
N2455 G02 X-4.484 Y-4.307 I.215 J-.451
N2460 G01 X-4.353 Y-4.247
N2465 G02 X-4.346 Y-4.244 I.208 J-.454
N2470 G01 X-4.214 Y-4.186
N2475 G02 X-4.208 Y-4.183 I.202 J-.457
N2480 G01 X-4.075 Y-4.127
N2485 G02 X-4.068 Y-4.124 I.195 J-.46
N2490 G01 X-3.935 Y-4.07
N2495 G02 X-3.929 Y-4.067 I.189 J-.463
N2500 G01 X-3.795 Y-4.015
N2505 G02 X-3.788 Y-4.012 I.182 J-.466
N2510 G01 X-3.654 Y-3.962
N2515 G02 X-3.647 Y-3.959 I.176 J-.468
N2520 G01 X-3.512 Y-3.911
N2525 G02 X-3.505 Y-3.909 I.169 J-.471
N2530 G01 X-3.37 Y-3.862
N2535 G02 X-3.363 Y-3.86 I.162 J-.473
N2540 G01 X-3.227 Y-3.815
N2545 G02 X-3.221 Y-3.813 I.155 J-.475
N2550 G01 X-3.084 Y-3.771
N2555 G02 X-3.077 Y-3.769 I.149 J-.477
N2560 G01 X-2.94 Y-3.728
N2565 G02 X-2.934 Y-3.726 I.142 J-.479
N2570 G01 X-2.796 Y-3.688
N2575 G02 X-2.789 Y-3.686 I.135 J-.481
N2580 G01 X-2.651 Y-3.649
N2585 G02 X-2.645 Y-3.647 I.128 J-.483
N2590 G01 X-2.506 Y-3.613
N2595 G02 X-2.499 Y-3.611 I.121 J-.485
N2600 G01 X-2.361 Y-3.579
N2605 G02 X-2.354 Y-3.577 I.115 J-.487
N2610 G01 X-2.215 Y-3.546
N2615 G02 X-2.208 Y-3.545 I.108 J-.488
N2620 G01 X-2.069 Y-3.516
N2625 G02 X-2.062 Y-3.515 I.101 J-.49
N2630 G01 X-1.922 Y-3.488
N2635 G02 X-1.912 Y-3.486 I.094 J-.491
N2640 G01 X-1.632 Y-3.439
N2645 G02 X-1.618 Y-3.437 I.083 J-.493
N2650 G01 X-1.336 Y-3.397
N2655 G02 X-1.322 Y-3.395 I.07 J-.495
N2660 G01 X-1.04 Y-3.364
N2665 G02 X-1.026 Y-3.362 I.056 J-.497
N2670 G01 X-.744 Y-3.339
N2675 G02 X-.73 Y-3.338 I.042 J-.498
N2680 G01 X-.446 Y-3.322
N2685 G02 X-.432 Y-3.321 I.028 J-.499
N2690 G01 X-.149 Y-3.314
N2695 G02 X-.135 Y-3.313 I.014 J-.5
N2700 G01 X.149 Y-3.314
N2705 G02 X.163 I0 J-.5
N2710 G01 X.447 Y-3.322
N2715 G02 X.461 Y-3.323 I-.014 J-.5
N2720 G01 X.744 Y-3.339
N2725 G02 X.758 Y-3.34 I-.028 J-.499
N2730 G01 X1.042 Y-3.364
N2735 G02 X1.052 Y-3.365 I-.042 J-.498
N2740 G01 X1.194 Y-3.38
N2745 G02 X1.201 Y-3.381 I-.053 J-.497
N2750 G01 X1.342 Y-3.398
N2755 G02 X1.349 Y-3.399 I-.06 J-.496
N2760 G01 X1.49 Y-3.418
N2765 G02 X1.497 Y-3.419 I-.067 J-.496
N2770 G01 X1.638 Y-3.44
N2775 G02 X1.645 Y-3.441 I-.074 J-.495
N2780 G01 X1.785 Y-3.464
N2785 G02 X1.792 Y-3.465 I-.081 J-.493
N2790 G01 X1.933 Y-3.49
N2795 G02 X1.94 Y-3.491 I-.088 J-.492
N2800 G01 X2.08 Y-3.518
N2805 G02 X2.087 Y-3.52 I-.095 J-.491
N2810 G01 X2.227 Y-3.549
N2815 G02 X2.233 Y-3.55 I-.102 J-.49
N2820 G01 X2.373 Y-3.581
N2825 G02 X2.38 Y-3.583 I-.109 J-.488
N2830 G01 X2.519 Y-3.616
N2835 G02 X2.526 Y-3.618 I-.115 J-.486
N2840 G01 X2.665 Y-3.653
N2845 G02 X2.672 Y-3.654 I-.122 J-.485
N2850 G01 X2.81 Y-3.691
N2855 G02 X2.817 Y-3.693 I-.129 J-.483
N2860 G01 X2.955 Y-3.732
N2865 G02 X2.962 Y-3.734 I-.136 J-.481
N2870 G01 X3.1 Y-3.775
N2875 G02 X3.106 Y-3.778 I-.143 J-.479
N2880 G01 X3.244 Y-3.821
N2885 G02 X3.253 Y-3.824 I-.15 J-.477
N2890 G01 X3.509 Y-3.91
N2895 G02 X3.521 Y-3.914 I-.16 J-.474
N2900 G01 X3.744 Y-3.995
N2905 G02 X3.754 Y-3.999 I-.171 J-.47
N2910 G01 X3.948 Y-4.075
N2915 G02 X3.957 Y-4.078 I-.182 J-.466
N2920 G01 X4.125 Y-4.148
N2925 G02 X4.133 Y-4.151 I-.191 J-.462
N2930 G01 X4.28 Y-4.215
N2935 G02 X4.29 Y-4.219 I-.199 J-.459
N2940 G01 X4.544 Y-4.336
N2945 G02 X4.555 Y-4.341 I-.208 J-.454
N2950 G01 X4.745 Y-4.434
N2955 G02 X4.753 Y-4.438 I-.219 J-.449
N2960 G01 X4.894 Y-4.51
N2965 G02 X4.903 Y-4.514 I-.228 J-.445
N2970 G01 X5.113 Y-4.627
N2975 G02 X5.123 Y-4.633 I-.236 J-.441
N2980 G01 X5.326 Y-4.748
N2985 X5.336 Y-4.753
N2990 X5.353 Y-4.752
N2995 G02 X5.358 Y-4.751 I.055 J-.497
N3000 G01 X5.373 Y-4.749
N3005 G02 X5.396 Y-4.746 I.075 J-.494
N3010 G01 X5.512 Y-4.734
N3015 G02 X5.536 Y-4.732 I.052 J-.497
N3020 G01 X5.652 Y-4.725
N3025 G02 X5.672 I.028 J-.499
N3030 G01 X5.749 Y-4.724
N3035 G02 X5.768 I.008 J-.5
N3040 G01 X5.871 Y-4.726
N3045 G02 X5.892 Y-4.727 I-.011 J-.5
N3050 G01 X5.994 Y-4.733
N3055 G02 X6.015 Y-4.735 I-.033 J-.499
N3060 G01 X6.117 Y-4.746
N3065 G02 X6.138 Y-4.749 I-.054 J-.497
N3070 G01 X6.149 Y-4.751
N3075 X6.169 Y-4.727
N3080 X6.325 Y-4.534
N3085 X6.474 Y-4.335
N3090 X6.617 Y-4.132
N3095 X6.754 Y-3.925
N3100 X6.884 Y-3.713
N3105 X7.007 Y-3.497
N3110 X7.124 Y-3.278
N3115 X7.234 Y-3.055
N3120 X7.337 Y-2.829
N3125 X7.432 Y-2.599
N3130 X7.521 Y-2.367
N3135 X7.602 Y-2.132
N3140 X7.676 Y-1.894
N3145 X7.742 Y-1.654
N3150 X7.801 Y-1.413
N3155 X7.853 Y-1.169
N3160 X7.897 Y-.924
N3165 X7.933 Y-.678
N3170 X7.961 Y-.43
N3175 X7.982 Y-.182
N3180 X7.995 Y.067
N3185 X8. Y.31
N3190 Y.327
N3195 X7.998 Y.565
N3200 X7.987 Y.814
N3205 X7.969 Y1.062
N3210 X7.944 Y1.31
N3215 X7.91 Y1.557
N3220 X7.869 Y1.803
N3225 X7.82 Y2.048
N3230 X7.764 Y2.291
N3235 X7.7 Y2.532
N3240 X7.628 Y2.771
N3245 X7.55 Y3.008
N3250 X7.463 Y3.242
N3255 X7.37 Y3.474
N3260 X7.269 Y3.702
N3265 X7.162 Y3.928
N3270 X7.047 Y4.15
N3275 X6.926 Y4.368
N3280 X6.839 Y4.512
N3285 X6.817 Y4.524
N3290 X6.644 Y4.612
N3295 X6.446 Y4.71
N3300 X6.217 Y4.818
N3305 X5.955 Y4.937
N3310 X5.651 Y5.066
N3315 X5.491 Y5.132
N3320 X5.317 Y5.2
N3325 X5.131 Y5.27
N3330 X4.932 Y5.342
N3335 X4.733 Y5.411
N3340 X4.532 Y5.477
N3345 X4.331 Y5.54
N3350 X4.129 Y5.6
N3355 X3.927 Y5.657
N3360 X3.724 Y5.712
N3365 X3.52 Y5.763
N3370 X3.316 Y5.812
N3375 X3.111 Y5.857
N3380 X2.906 Y5.9
N3385 X2.7 Y5.939
N3390 X2.494 Y5.976
N3395 X2.288 Y6.01
N3400 X2.081 Y6.041
N3405 X1.874 Y6.068
N3410 X1.666 Y6.093
N3415 X1.459 Y6.115
N3420 X1.251 Y6.134
N3425 X1.042 Y6.151
N3430 X.834 Y6.164
N3435 X.626 Y6.174
N3440 X.417 Y6.181
N3445 X.209 Y6.186
N3450 X0 Y6.187
N3455 X-.209 Y6.186
N3460 X-.417 Y6.181
N3465 X-.626 Y6.174
N3470 X-.834 Y6.164
N3475 X-1.042 Y6.151
N3480 X-1.251 Y6.134
N3485 X-1.459 Y6.115
N3490 X-1.666 Y6.093
N3495 X-1.874 Y6.068
N3500 X-2.081 Y6.041
N3505 X-2.288 Y6.01
N3510 X-2.494 Y5.976
N3515 X-2.7 Y5.939
N3520 X-2.906 Y5.9
N3525 X-3.111 Y5.857
N3530 X-3.316 Y5.812
N3535 X-3.52 Y5.763
N3540 X-3.724 Y5.712
N3545 X-3.927 Y5.657
N3550 X-4.129 Y5.6
N3555 X-4.331 Y5.54
N3560 X-4.532 Y5.477
N3565 X-4.733 Y5.411
N3570 X-4.932 Y5.342
N3575 X-5.131 Y5.27
N3580 X-5.329 Y5.195
N3585 X-5.527 Y5.117
N3590 X-5.723 Y5.037
N3595 X-5.918 Y4.953
N3600 X-6.113 Y4.866
N3605 X-6.307 Y4.777
N3610 X-6.499 Y4.684
N3615 X-6.691 Y4.589
N3620 X-6.881 Y4.491
N3625 X-7.071 Y4.389
N3630 X-7.121 Y4.361
N3635 X-7.178 Y4.264
N3640 X-7.3 Y4.042
N3645 X-7.414 Y3.817
N3650 X-7.522 Y3.588
N3655 X-7.622 Y3.357
N3660 X-7.715 Y3.122
N3665 X-7.801 Y2.884
N3670 X-7.88 Y2.644
N3675 X-7.951 Y2.401
N3680 X-8. Y2.214
N3685 Y-1.816
N3690 X-7.991 Y-1.853
N3695 X-7.924 Y-2.098
N3700 X-7.85 Y-2.34
N3705 X-7.769 Y-2.58
N3710 X-7.68 Y-2.817
N3715 X-7.583 Y-3.052
N3720 X-7.48 Y-3.284
N3725 X-7.37 Y-3.512
N3730 X-7.252 Y-3.737
N3735 X-7.128 Y-3.958
N3740 X-6.997 Y-4.176
N3745 X-6.86 Y-4.389
N3750 X-6.715 Y-4.598
N3755 X-6.565 Y-4.803
N3760 X-6.408 Y-5.003
N3765 X-6.246 Y-5.198
N3770 X-6.217 Y-5.23
N3775 X-6.188 Y-5.229
N3780 G02 X-6.177 I.02 J-.5
N3785 G01 X-6.097 Y-5.228
N3790 X-6.077 Y-5.226
N3795 X-6.063 Y-5.218
N3800 X-5.952 Y-5.141
N3805 G02 X-5.946 Y-5.137 I.284 J-.412
N3810 G01 X-5.824 Y-5.056
N3815 G02 X-5.817 Y-5.052 I.278 J-.416
N3820 G01 X-5.694 Y-4.972
N3825 G02 X-5.688 Y-4.968 I.272 J-.42
N3830 G01 X-5.564 Y-4.89
N3835 G02 X-5.558 Y-4.886 I.265 J-.424
N3840 G01 X-5.433 Y-4.81
N3845 G02 X-5.426 Y-4.807 I.259 J-.428
N3850 G01 X-5.3 Y-4.733
N3855 G02 X-5.294 Y-4.729 I.253 J-.431
N3860 G01 X-5.167 Y-4.657
N3865 G02 X-5.161 Y-4.654 I.247 J-.435
N3870 G01 X-5.034 Y-4.584
N3875 G02 X-5.027 Y-4.58 I.241 J-.438
N3880 G01 X-4.899 Y-4.512
N3885 G02 X-4.893 Y-4.509 I.234 J-.442
N3890 G01 X-4.763 Y-4.443
N3895 G02 X-4.757 Y-4.44 I.228 J-.445
N3900 G01 X-4.627 Y-4.376
N3905 G02 X-4.621 Y-4.372 I.221 J-.448
N3910 G01 X-4.49 Y-4.31
N3915 G02 X-4.484 Y-4.307 I.215 J-.451
N3920 G01 X-4.353 Y-4.247
N3925 G02 X-4.346 Y-4.244 I.208 J-.454
N3930 G01 X-4.214 Y-4.186
N3935 G02 X-4.208 Y-4.183 I.202 J-.457
N3940 G01 X-4.075 Y-4.127
N3945 G02 X-4.068 Y-4.124 I.195 J-.46
N3950 G01 X-3.935 Y-4.07
N3955 G02 X-3.929 Y-4.067 I.189 J-.463
N3960 G01 X-3.795 Y-4.015
N3965 G02 X-3.788 Y-4.012 I.182 J-.466
N3970 G01 X-3.654 Y-3.962
N3975 G02 X-3.647 Y-3.959 I.176 J-.468
N3980 G01 X-3.512 Y-3.911
N3985 G02 X-3.505 Y-3.909 I.169 J-.471
N3990 G01 X-3.37 Y-3.862
N3995 G02 X-3.363 Y-3.86 I.162 J-.473
N4000 G01 X-3.227 Y-3.815
N4005 G02 X-3.221 Y-3.813 I.155 J-.475
N4010 G01 X-3.084 Y-3.771
N4015 G02 X-3.077 Y-3.769 I.149 J-.477
N4020 G01 X-2.94 Y-3.728
N4025 G02 X-2.934 Y-3.726 I.142 J-.479
N4030 G01 X-2.796 Y-3.688
N4035 G02 X-2.789 Y-3.686 I.135 J-.481
N4040 G01 X-2.651 Y-3.649
N4045 G02 X-2.645 Y-3.647 I.128 J-.483
N4050 G01 X-2.506 Y-3.613
N4055 G02 X-2.499 Y-3.611 I.121 J-.485
N4060 G01 X-2.361 Y-3.579
N4065 G02 X-2.354 Y-3.577 I.115 J-.487
N4070 G01 X-2.215 Y-3.546
N4075 G02 X-2.208 Y-3.545 I.108 J-.488
N4080 G01 X-2.069 Y-3.516
N4085 G02 X-2.062 Y-3.515 I.101 J-.49
N4090 G01 X-1.922 Y-3.488
N4095 G02 X-1.912 Y-3.486 I.094 J-.491
N4100 G01 X-1.632 Y-3.439
N4105 G02 X-1.618 Y-3.437 I.083 J-.493
N4110 G01 X-1.336 Y-3.397
N4115 G02 X-1.322 Y-3.395 I.07 J-.495
N4120 G01 X-1.04 Y-3.364
N4125 G02 X-1.026 Y-3.362 I.056 J-.497
N4130 G01 X-.744 Y-3.339
N4135 G02 X-.73 Y-3.338 I.042 J-.498
N4140 G01 X-.446 Y-3.322
N4145 G02 X-.432 Y-3.321 I.028 J-.499
N4150 G01 X-.149 Y-3.314
N4155 G02 X-.135 Y-3.313 I.014 J-.5
N4160 G01 X.149 Y-3.314
N4165 G02 X.163 I0 J-.5
N4170 G01 X.447 Y-3.322
N4175 G02 X.461 Y-3.323 I-.014 J-.5
N4180 G01 X.744 Y-3.339
N4185 G02 X.758 Y-3.34 I-.028 J-.499
N4190 G01 X1.042 Y-3.364
N4195 G02 X1.052 Y-3.365 I-.042 J-.498
N4200 G01 X1.194 Y-3.38
N4205 G02 X1.201 Y-3.381 I-.053 J-.497
N4210 G01 X1.342 Y-3.398
N4215 G02 X1.349 Y-3.399 I-.06 J-.496
N4220 G01 X1.49 Y-3.418
N4225 G02 X1.497 Y-3.419 I-.067 J-.496
N4230 G01 X1.638 Y-3.44
N4235 G02 X1.645 Y-3.441 I-.074 J-.495
N4240 G01 X1.785 Y-3.464
N4245 G02 X1.792 Y-3.465 I-.081 J-.493
N4250 G01 X1.933 Y-3.49
N4255 G02 X1.94 Y-3.491 I-.088 J-.492
N4260 G01 X2.08 Y-3.518
N4265 G02 X2.087 Y-3.52 I-.095 J-.491
N4270 G01 X2.227 Y-3.549
N4275 G02 X2.233 Y-3.55 I-.102 J-.49
N4280 G01 X2.373 Y-3.581
N4285 G02 X2.38 Y-3.583 I-.109 J-.488
N4290 G01 X2.519 Y-3.616
N4295 G02 X2.526 Y-3.618 I-.115 J-.486
N4300 G01 X2.665 Y-3.653
N4305 G02 X2.672 Y-3.654 I-.122 J-.485
N4310 G01 X2.81 Y-3.691
N4315 G02 X2.817 Y-3.693 I-.129 J-.483
N4320 G01 X2.955 Y-3.732
N4325 G02 X2.962 Y-3.734 I-.136 J-.481
N4330 G01 X3.1 Y-3.775
N4335 G02 X3.106 Y-3.778 I-.143 J-.479
N4340 G01 X3.244 Y-3.821
N4345 G02 X3.253 Y-3.824 I-.15 J-.477
N4350 G01 X3.509 Y-3.91
N4355 G02 X3.521 Y-3.914 I-.16 J-.474
N4360 G01 X3.744 Y-3.995
N4365 G02 X3.754 Y-3.999 I-.171 J-.47
N4370 G01 X3.948 Y-4.075
N4375 G02 X3.957 Y-4.078 I-.182 J-.466
N4380 G01 X4.125 Y-4.148
N4385 G02 X4.133 Y-4.151 I-.191 J-.462
N4390 G01 X4.28 Y-4.215
N4395 G02 X4.29 Y-4.219 I-.199 J-.459
N4400 G01 X4.544 Y-4.336
N4405 G02 X4.555 Y-4.341 I-.208 J-.454
N4410 G01 X4.745 Y-4.434
N4415 G02 X4.753 Y-4.438 I-.219 J-.449
N4420 G01 X4.894 Y-4.51
N4425 G02 X4.903 Y-4.514 I-.228 J-.445
N4430 G01 X5.113 Y-4.627
N4435 G02 X5.123 Y-4.633 I-.236 J-.441
N4440 G01 X5.326 Y-4.748
N4445 X5.336 Y-4.753
N4450 X5.353 Y-4.752
N4455 G02 X5.358 Y-4.751 I.055 J-.497
N4460 G01 X5.373 Y-4.749
N4465 G02 X5.396 Y-4.746 I.075 J-.494
N4470 G01 X5.512 Y-4.734
N4475 G02 X5.536 Y-4.732 I.052 J-.497
N4480 G01 X5.652 Y-4.725
N4485 G02 X5.672 I.028 J-.499
N4490 G01 X5.749 Y-4.724
N4495 G02 X5.768 I.008 J-.5
N4500 G01 X5.871 Y-4.726
N4505 G02 X5.892 Y-4.727 I-.011 J-.5
N4510 G01 X5.994 Y-4.733
N4515 G02 X6.015 Y-4.735 I-.033 J-.499
N4520 G01 X6.117 Y-4.746
N4525 G02 X6.138 Y-4.749 I-.054 J-.497
N4530 G01 X6.238 Y-4.764
N4535 G02 X6.259 Y-4.768 I-.075 J-.494
N4540 G01 X6.359 Y-4.787
N4545 G02 X6.38 Y-4.792 I-.096 J-.491
N4550 G01 X6.479 Y-4.815
N4555 G02 X6.499 Y-4.821 I-.116 J-.486
N4560 G01 X6.597 Y-4.849
N4565 G02 X6.617 Y-4.855 I-.137 J-.481
N4570 G01 X6.689 Y-4.879
N4575 X6.698 Y-4.868
N4580 X6.853 Y-4.664
N4585 X7.002 Y-4.456
N4590 X7.144 Y-4.243
N4595 X7.28 Y-4.025
N4600 X7.409 Y-3.804
N4605 X7.531 Y-3.578
N4610 X7.647 Y-3.349
N4615 X7.756 Y-3.117
N4620 X7.857 Y-2.882
N4625 X7.952 Y-2.643
N4630 X8. Y-2.509
N4635 Y3.231
N4640 X7.942 Y3.392
N4645 X7.846 Y3.631
N4650 X7.744 Y3.867
N4655 X7.657 Y4.052
N4660 X7.423 Y4.191
N4665 X7.229 Y4.302
N4670 X6.966 Y4.446
N4675 X6.817 Y4.524
N4680 X6.644 Y4.612
N4685 X6.446 Y4.71
N4690 X6.217 Y4.818
N4695 X5.955 Y4.937
N4700 X5.651 Y5.066
N4705 X5.491 Y5.132
N4710 X5.317 Y5.2
N4715 X5.131 Y5.27
N4720 X4.932 Y5.342
N4725 X4.733 Y5.411
N4730 X4.532 Y5.477
N4735 X4.331 Y5.54
N4740 X4.129 Y5.6
N4745 X3.927 Y5.657
N4750 X3.724 Y5.712
N4755 X3.52 Y5.763
N4760 X3.316 Y5.812
N4765 X3.111 Y5.857
N4770 X2.906 Y5.9
N4775 X2.7 Y5.939
N4780 X2.494 Y5.976
N4785 X2.288 Y6.01
N4790 X2.081 Y6.041
N4795 X1.874 Y6.068
N4800 X1.666 Y6.093
N4805 X1.459 Y6.115
N4810 X1.251 Y6.134
N4815 X1.042 Y6.151
N4820 X.834 Y6.164
N4825 X.626 Y6.174
N4830 X.417 Y6.181
N4835 X.209 Y6.186
N4840 X0 Y6.187
N4845 X-.209 Y6.186
N4850 X-.417 Y6.181
N4855 X-.626 Y6.174
N4860 X-.834 Y6.164
N4865 X-1.042 Y6.151
N4870 X-1.251 Y6.134
N4875 X-1.459 Y6.115
N4880 X-1.666 Y6.093
N4885 X-1.874 Y6.068
N4890 X-2.081 Y6.041
N4895 X-2.288 Y6.01
N4900 X-2.494 Y5.976
N4905 X-2.7 Y5.939
N4910 X-2.906 Y5.9
N4915 X-3.111 Y5.857
N4920 X-3.316 Y5.812
N4925 X-3.52 Y5.763
N4930 X-3.724 Y5.712
N4935 X-3.927 Y5.657
N4940 X-4.129 Y5.6
N4945 X-4.331 Y5.54
N4950 X-4.532 Y5.477
N4955 X-4.733 Y5.411
N4960 X-4.932 Y5.342
N4965 X-5.131 Y5.27
N4970 X-5.329 Y5.195
N4975 X-5.527 Y5.117
N4980 X-5.723 Y5.037
N4985 X-5.918 Y4.953
N4990 X-6.113 Y4.866
N4995 X-6.307 Y4.777
N5000 X-6.499 Y4.684
N5005 X-6.691 Y4.589
N5010 X-6.881 Y4.491
N5015 X-7.071 Y4.389
N5020 X-7.259 Y4.285
N5025 X-7.446 Y4.178
N5030 X-7.632 Y4.068
N5035 X-7.817 Y3.955
N5040 X-7.939 Y3.877
N5045 X-8. Y3.741
N5050 Y-2.928
N5055 G02 Y-2.943 I-.5 J0
N5060 G01 X-8.003 Y-3.039
N5065 G02 X-8.005 Y-3.069 I-.5 J.015
N5070 G01 X-8.014 Y-3.165
N5075 G02 X-8.016 Y-3.19 I-.498 J.045
N5080 G01 X-8.025 Y-3.253
N5085 G02 X-8.029 Y-3.272 I-.495 J.07
N5090 G01 X-8.03 Y-3.278
N5095 X-7.953 Y-3.453
N5100 X-7.84 Y-3.689
N5105 X-7.721 Y-3.922
N5110 X-7.594 Y-4.151
N5115 X-7.461 Y-4.376
N5120 X-7.322 Y-4.597
N5125 X-7.175 Y-4.814
N5130 X-7.023 Y-5.026
N5135 X-6.864 Y-5.234
N5140 X-6.819 Y-5.288
N5145 X-6.727 Y-5.275
N5150 G02 X-6.716 Y-5.273 I.074 J-.495
N5155 G01 X-6.62 Y-5.261
N5160 G02 X-6.609 Y-5.26 I.063 J-.496
N5165 G01 X-6.512 Y-5.249
N5170 G02 X-6.501 Y-5.248 I.052 J-.497
N5175 G01 X-6.404 Y-5.24
N5180 G02 X-6.393 I.041 J-.498
N5185 G01 X-6.296 Y-5.234
N5190 G02 X-6.285 Y-5.233 I.03 J-.499
N5195 G01 X-6.188 Y-5.229
N5200 G02 X-6.177 I.02 J-.5
N5205 G01 X-6.097 Y-5.228
N5210 X-6.077 Y-5.226
N5215 X-6.063 Y-5.218
N5220 X-5.952 Y-5.141
N5225 G02 X-5.946 Y-5.137 I.284 J-.412
N5230 G01 X-5.824 Y-5.056
N5235 G02 X-5.817 Y-5.052 I.278 J-.416
N5240 G01 X-5.694 Y-4.972
N5245 G02 X-5.688 Y-4.968 I.272 J-.42
N5250 G01 X-5.564 Y-4.89
N5255 G02 X-5.558 Y-4.886 I.265 J-.424
N5260 G01 X-5.433 Y-4.81
N5265 G02 X-5.426 Y-4.807 I.259 J-.428
N5270 G01 X-5.3 Y-4.733
N5275 G02 X-5.294 Y-4.729 I.253 J-.431
N5280 G01 X-5.167 Y-4.657
N5285 G02 X-5.161 Y-4.654 I.247 J-.435
N5290 G01 X-5.034 Y-4.584
N5295 G02 X-5.027 Y-4.58 I.241 J-.438
N5300 G01 X-4.899 Y-4.512
N5305 G02 X-4.893 Y-4.509 I.234 J-.442
N5310 G01 X-4.763 Y-4.443
N5315 G02 X-4.757 Y-4.44 I.228 J-.445
N5320 G01 X-4.627 Y-4.376
N5325 G02 X-4.621 Y-4.372 I.221 J-.448
N5330 G01 X-4.49 Y-4.31
N5335 G02 X-4.484 Y-4.307 I.215 J-.451
N5340 G01 X-4.353 Y-4.247
N5345 G02 X-4.346 Y-4.244 I.208 J-.454
N5350 G01 X-4.214 Y-4.186
N5355 G02 X-4.208 Y-4.183 I.202 J-.457
N5360 G01 X-4.075 Y-4.127
N5365 G02 X-4.068 Y-4.124 I.195 J-.46
N5370 G01 X-3.935 Y-4.07
N5375 G02 X-3.929 Y-4.067 I.189 J-.463
N5380 G01 X-3.795 Y-4.015
N5385 G02 X-3.788 Y-4.012 I.182 J-.466
N5390 G01 X-3.654 Y-3.962
N5395 G02 X-3.647 Y-3.959 I.176 J-.468
N5400 G01 X-3.512 Y-3.911
N5405 G02 X-3.505 Y-3.909 I.169 J-.471
N5410 G01 X-3.37 Y-3.862
N5415 G02 X-3.363 Y-3.86 I.162 J-.473
N5420 G01 X-3.227 Y-3.815
N5425 G02 X-3.221 Y-3.813 I.155 J-.475
N5430 G01 X-3.084 Y-3.771
N5435 G02 X-3.077 Y-3.769 I.149 J-.477
N5440 G01 X-2.94 Y-3.728
N5445 G02 X-2.934 Y-3.726 I.142 J-.479
N5450 G01 X-2.796 Y-3.688
N5455 G02 X-2.789 Y-3.686 I.135 J-.481
N5460 G01 X-2.651 Y-3.649
N5465 G02 X-2.645 Y-3.647 I.128 J-.483
N5470 G01 X-2.506 Y-3.613
N5475 G02 X-2.499 Y-3.611 I.121 J-.485
N5480 G01 X-2.361 Y-3.579
N5485 G02 X-2.354 Y-3.577 I.115 J-.487
N5490 G01 X-2.215 Y-3.546
N5495 G02 X-2.208 Y-3.545 I.108 J-.488
N5500 G01 X-2.069 Y-3.516
N5505 G02 X-2.062 Y-3.515 I.101 J-.49
N5510 G01 X-1.922 Y-3.488
N5515 G02 X-1.912 Y-3.486 I.094 J-.491
N5520 G01 X-1.632 Y-3.439
N5525 G02 X-1.618 Y-3.437 I.083 J-.493
N5530 G01 X-1.336 Y-3.397
N5535 G02 X-1.322 Y-3.395 I.07 J-.495
N5540 G01 X-1.04 Y-3.364
N5545 G02 X-1.026 Y-3.362 I.056 J-.497
N5550 G01 X-.744 Y-3.339
N5555 G02 X-.73 Y-3.338 I.042 J-.498
N5560 G01 X-.446 Y-3.322
N5565 G02 X-.432 Y-3.321 I.028 J-.499
N5570 G01 X-.149 Y-3.314
N5575 G02 X-.135 Y-3.313 I.014 J-.5
N5580 G01 X.149 Y-3.314
N5585 G02 X.163 I0 J-.5
N5590 G01 X.447 Y-3.322
N5595 G02 X.461 Y-3.323 I-.014 J-.5
N5600 G01 X.744 Y-3.339
N5605 G02 X.758 Y-3.34 I-.028 J-.499
N5610 G01 X1.042 Y-3.364
N5615 G02 X1.052 Y-3.365 I-.042 J-.498
N5620 G01 X1.194 Y-3.38
N5625 G02 X1.201 Y-3.381 I-.053 J-.497
N5630 G01 X1.342 Y-3.398
N5635 G02 X1.349 Y-3.399 I-.06 J-.496
N5640 G01 X1.49 Y-3.418
N5645 G02 X1.497 Y-3.419 I-.067 J-.496
N5650 G01 X1.638 Y-3.44
N5655 G02 X1.645 Y-3.441 I-.074 J-.495
N5660 G01 X1.785 Y-3.464
N5665 G02 X1.792 Y-3.465 I-.081 J-.493
N5670 G01 X1.933 Y-3.49
N5675 G02 X1.94 Y-3.491 I-.088 J-.492
N5680 G01 X2.08 Y-3.518
N5685 G02 X2.087 Y-3.52 I-.095 J-.491
N5690 G01 X2.227 Y-3.549
N5695 G02 X2.233 Y-3.55 I-.102 J-.49
N5700 G01 X2.373 Y-3.581
N5705 G02 X2.38 Y-3.583 I-.109 J-.488
N5710 G01 X2.519 Y-3.616
N5715 G02 X2.526 Y-3.618 I-.115 J-.486
N5720 G01 X2.665 Y-3.653
N5725 G02 X2.672 Y-3.654 I-.122 J-.485
N5730 G01 X2.81 Y-3.691
N5735 G02 X2.817 Y-3.693 I-.129 J-.483
N5740 G01 X2.955 Y-3.732
N5745 G02 X2.962 Y-3.734 I-.136 J-.481
N5750 G01 X3.1 Y-3.775
N5755 G02 X3.106 Y-3.778 I-.143 J-.479
N5760 G01 X3.244 Y-3.821
N5765 G02 X3.253 Y-3.824 I-.15 J-.477
N5770 G01 X3.509 Y-3.91
N5775 G02 X3.521 Y-3.914 I-.16 J-.474
N5780 G01 X3.744 Y-3.995
N5785 G02 X3.754 Y-3.999 I-.171 J-.47
N5790 G01 X3.948 Y-4.075
N5795 G02 X3.957 Y-4.078 I-.182 J-.466
N5800 G01 X4.125 Y-4.148
N5805 G02 X4.133 Y-4.151 I-.191 J-.462
N5810 G01 X4.28 Y-4.215
N5815 G02 X4.29 Y-4.219 I-.199 J-.459
N5820 G01 X4.544 Y-4.336
N5825 G02 X4.555 Y-4.341 I-.208 J-.454
N5830 G01 X4.745 Y-4.434
N5835 G02 X4.753 Y-4.438 I-.219 J-.449
N5840 G01 X4.894 Y-4.51
N5845 G02 X4.903 Y-4.514 I-.228 J-.445
N5850 G01 X5.113 Y-4.627
N5855 G02 X5.123 Y-4.633 I-.236 J-.441
N5860 G01 X5.326 Y-4.748
N5865 X5.336 Y-4.753
N5870 X5.353 Y-4.752
N5875 G02 X5.358 Y-4.751 I.055 J-.497
N5880 G01 X5.373 Y-4.749
N5885 G02 X5.396 Y-4.746 I.075 J-.494
N5890 G01 X5.512 Y-4.734
N5895 G02 X5.536 Y-4.732 I.052 J-.497
N5900 G01 X5.652 Y-4.725
N5905 G02 X5.672 I.028 J-.499
N5910 G01 X5.749 Y-4.724
N5915 G02 X5.768 I.008 J-.5
N5920 G01 X5.871 Y-4.726
N5925 G02 X5.892 Y-4.727 I-.011 J-.5
N5930 G01 X5.994 Y-4.733
N5935 G02 X6.015 Y-4.735 I-.033 J-.499
N5940 G01 X6.117 Y-4.746
N5945 G02 X6.138 Y-4.749 I-.054 J-.497
N5950 G01 X6.238 Y-4.764
N5955 G02 X6.259 Y-4.768 I-.075 J-.494
N5960 G01 X6.359 Y-4.787
N5965 G02 X6.38 Y-4.792 I-.096 J-.491
N5970 G01 X6.479 Y-4.815
N5975 G02 X6.499 Y-4.821 I-.116 J-.486
N5980 G01 X6.597 Y-4.849
N5985 G02 X6.617 Y-4.855 I-.137 J-.481
N5990 G01 X6.713 Y-4.887
N5995 G02 X6.733 Y-4.894 I-.157 J-.475
N6000 G01 X6.828 Y-4.93
N6005 G02 X6.848 Y-4.938 I-.177 J-.468
N6010 G01 X6.941 Y-4.978
N6015 G02 X6.961 Y-4.986 I-.197 J-.46
N6020 G01 X7.053 Y-5.03
N6025 G02 X7.072 Y-5.04 I-.216 J-.451
N6030 G01 X7.16 Y-5.087
N6035 X7.237 Y-4.986
N6040 X7.391 Y-4.772
N6045 X7.538 Y-4.553
N6050 X7.679 Y-4.33
N6055 X7.814 Y-4.103
N6060 X7.942 Y-3.872
N6065 X8.063 Y-3.637
N6070 X8.093 Y-3.573
N6075 X8.083 Y-3.542
N6080 G02 X8.078 Y-3.522 I.477 J.15
N6085 G01 X8.062 Y-3.464
N6090 G02 X8.057 Y-3.444 I.483 J.131
N6095 G01 X8.044 Y-3.385
N6100 G02 X8.039 Y-3.365 I.487 J.111
N6105 G01 X8.028 Y-3.305
N6110 G02 X8.025 Y-3.285 I.492 J.091
N6115 G01 X8.016 Y-3.225
N6120 G02 X8.014 Y-3.205 I.495 J.071
N6125 G01 X8.008 Y-3.144
N6130 G02 X8.006 Y-3.124 I.497 J.051
N6135 G01 X8.002 Y-3.063
N6140 G02 X8.001 Y-3.042 I.499 J.031
N6145 G01 X8. Y-2.981
N6150 G02 Y-2.97 I.5 J.01
N6155 G01 Y3.826
N6160 X7.999 Y3.839
N6165 X7.992 Y3.844
N6170 X7.713 Y4.018
N6175 X7.423 Y4.191
N6180 X7.229 Y4.302
N6185 X6.966 Y4.446
N6190 X6.817 Y4.524
N6195 X6.644 Y4.612
N6200 X6.446 Y4.71
N6205 X6.217 Y4.818
N6210 X5.955 Y4.937
N6215 X5.651 Y5.066
N6220 X5.491 Y5.132
N6225 X5.317 Y5.2
N6230 X5.131 Y5.27
N6235 X4.932 Y5.342
N6240 X4.733 Y5.411
N6245 X4.532 Y5.477
N6250 X4.331 Y5.54
N6255 X4.129 Y5.6
N6260 X3.927 Y5.657
N6265 X3.724 Y5.712
N6270 X3.52 Y5.763
N6275 X3.316 Y5.812
N6280 X3.111 Y5.857
N6285 X2.906 Y5.9
N6290 X2.7 Y5.939
N6295 X2.494 Y5.976
N6300 X2.288 Y6.01
N6305 X2.081 Y6.041
N6310 X1.874 Y6.068
N6315 X1.666 Y6.093
N6320 X1.459 Y6.115
N6325 X1.251 Y6.134
N6330 X1.042 Y6.151
N6335 X.834 Y6.164
N6340 X.626 Y6.174
N6345 X.417 Y6.181
N6350 X.209 Y6.186
N6355 X0 Y6.187
N6360 X-.209 Y6.186
N6365 X-.417 Y6.181
N6370 X-.626 Y6.174
N6375 X-.834 Y6.164
N6380 X-1.042 Y6.151
N6385 X-1.251 Y6.134
N6390 X-1.459 Y6.115
N6395 X-1.666 Y6.093
N6400 X-1.874 Y6.068
N6405 X-2.081 Y6.041
N6410 X-2.288 Y6.01
N6415 X-2.494 Y5.976
N6420 X-2.7 Y5.939
N6425 X-2.906 Y5.9
N6430 X-3.111 Y5.857
N6435 X-3.316 Y5.812
N6440 X-3.52 Y5.763
N6445 X-3.724 Y5.712
N6450 X-3.927 Y5.657
N6455 X-4.129 Y5.6
N6460 X-4.331 Y5.54
N6465 X-4.532 Y5.477
N6470 X-4.733 Y5.411
N6475 X-4.932 Y5.342
N6480 X-5.131 Y5.27
N6485 X-5.329 Y5.195
N6490 X-5.527 Y5.117
N6495 X-5.723 Y5.037
N6500 X-5.918 Y4.953
N6505 X-6.113 Y4.866
N6510 X-6.307 Y4.777
N6515 X-6.499 Y4.684
N6520 X-6.691 Y4.589
N6525 X-6.881 Y4.491
N6530 X-7.071 Y4.389
N6535 X-7.259 Y4.285
N6540 X-7.446 Y4.178
N6545 X-7.632 Y4.068
N6550 X-7.817 Y3.955
N6555 X-7.991 Y3.845
N6560 X-7.999 Y3.839
N6565 X-8. Y3.826
N6570 Y-2.928
N6575 G02 Y-2.943 I-.5 J0
N6580 G01 X-8.003 Y-3.039
N6585 G02 X-8.005 Y-3.069 I-.5 J.015
N6590 G01 X-8.014 Y-3.165
N6595 G02 X-8.016 Y-3.19 I-.498 J.045
N6600 G01 X-8.025 Y-3.253
N6605 G02 X-8.029 Y-3.272 I-.495 J.07
N6610 G01 X-8.04 Y-3.335
N6615 G02 X-8.044 Y-3.355 I-.492 J.09
N6620 G01 X-8.058 Y-3.417
N6625 G02 X-8.062 Y-3.436 I-.488 J.109
N6630 G01 X-8.079 Y-3.497
N6635 G02 X-8.084 Y-3.516 I-.483 J.128
N6640 G01 X-8.103 Y-3.577
N6645 G02 X-8.109 Y-3.595 I-.478 J.147
N6650 G01 X-8.13 Y-3.655
N6655 G02 X-8.137 Y-3.674 I-.472 J.166
N6660 G01 X-8.16 Y-3.732
N6665 G02 X-8.168 Y-3.751 I-.465 J.185
N6670 G01 X-8.194 Y-3.808
N6675 G02 X-8.202 Y-3.826 I-.457 J.203
N6680 G01 X-8.23 Y-3.883
N6685 G02 X-8.239 Y-3.901 I-.449 J.221
N6690 G01 X-8.267 Y-3.952
N6695 X-8.171 Y-4.14
N6700 X-8.042 Y-4.376
N6705 X-7.905 Y-4.608
N6710 X-7.762 Y-4.836
N6715 X-7.613 Y-5.06
N6720 X-7.457 Y-5.279
N6725 X-7.362 Y-5.405
N6730 X-7.342 Y-5.4
N6735 G02 X-7.326 Y-5.395 I.136 J-.481
N6740 G01 X-7.159 Y-5.354
N6745 G02 X-7.144 Y-5.351 I.12 J-.485
N6750 G01 X-7.049 Y-5.33
N6755 G02 X-7.038 Y-5.328 I.106 J-.489
N6760 G01 X-6.942 Y-5.309
N6765 G02 X-6.931 Y-5.307 I.095 J-.491
N6770 G01 X-6.835 Y-5.291
N6775 G02 X-6.824 Y-5.289 I.084 J-.493
N6780 G01 X-6.727 Y-5.275
N6785 G02 X-6.716 Y-5.273 I.074 J-.495
N6790 G01 X-6.62 Y-5.261
N6795 G02 X-6.609 Y-5.26 I.063 J-.496
N6800 G01 X-6.512 Y-5.249
N6805 G02 X-6.501 Y-5.248 I.052 J-.497
N6810 G01 X-6.404 Y-5.24
N6815 G02 X-6.393 I.041 J-.498
N6820 G01 X-6.296 Y-5.234
N6825 G02 X-6.285 Y-5.233 I.03 J-.499
N6830 G01 X-6.188 Y-5.229
N6835 G02 X-6.177 I.02 J-.5
N6840 G01 X-6.097 Y-5.228
N6845 X-6.077 Y-5.226
N6850 X-6.063 Y-5.218
N6855 X-5.952 Y-5.141
N6860 G02 X-5.946 Y-5.137 I.284 J-.412
N6865 G01 X-5.824 Y-5.056
N6870 G02 X-5.817 Y-5.052 I.278 J-.416
N6875 G01 X-5.694 Y-4.972
N6880 G02 X-5.688 Y-4.968 I.272 J-.42
N6885 G01 X-5.564 Y-4.89
N6890 G02 X-5.558 Y-4.886 I.265 J-.424
N6895 G01 X-5.433 Y-4.81
N6900 G02 X-5.426 Y-4.807 I.259 J-.428
N6905 G01 X-5.3 Y-4.733
N6910 G02 X-5.294 Y-4.729 I.253 J-.431
N6915 G01 X-5.167 Y-4.657
N6920 G02 X-5.161 Y-4.654 I.247 J-.435
N6925 G01 X-5.034 Y-4.584
N6930 G02 X-5.027 Y-4.58 I.241 J-.438
N6935 G01 X-4.899 Y-4.512
N6940 G02 X-4.893 Y-4.509 I.234 J-.442
N6945 G01 X-4.763 Y-4.443
N6950 G02 X-4.757 Y-4.44 I.228 J-.445
N6955 G01 X-4.627 Y-4.376
N6960 G02 X-4.621 Y-4.372 I.221 J-.448
N6965 G01 X-4.49 Y-4.31
N6970 G02 X-4.484 Y-4.307 I.215 J-.451
N6975 G01 X-4.353 Y-4.247
N6980 G02 X-4.346 Y-4.244 I.208 J-.454
N6985 G01 X-4.214 Y-4.186
N6990 G02 X-4.208 Y-4.183 I.202 J-.457
N6995 G01 X-4.075 Y-4.127
N7000 G02 X-4.068 Y-4.124 I.195 J-.46
N7005 G01 X-3.935 Y-4.07
N7010 G02 X-3.929 Y-4.067 I.189 J-.463
N7015 G01 X-3.795 Y-4.015
N7020 G02 X-3.788 Y-4.012 I.182 J-.466
N7025 G01 X-3.654 Y-3.962
N7030 G02 X-3.647 Y-3.959 I.176 J-.468
N7035 G01 X-3.512 Y-3.911
N7040 G02 X-3.505 Y-3.909 I.169 J-.471
N7045 G01 X-3.37 Y-3.862
N7050 G02 X-3.363 Y-3.86 I.162 J-.473
N7055 G01 X-3.227 Y-3.815
N7060 G02 X-3.221 Y-3.813 I.155 J-.475
N7065 G01 X-3.084 Y-3.771
N7070 G02 X-3.077 Y-3.769 I.149 J-.477
N7075 G01 X-2.94 Y-3.728
N7080 G02 X-2.934 Y-3.726 I.142 J-.479
N7085 G01 X-2.796 Y-3.688
N7090 G02 X-2.789 Y-3.686 I.135 J-.481
N7095 G01 X-2.651 Y-3.649
N7100 G02 X-2.645 Y-3.647 I.128 J-.483
N7105 G01 X-2.506 Y-3.613
N7110 G02 X-2.499 Y-3.611 I.121 J-.485
N7115 G01 X-2.361 Y-3.579
N7120 G02 X-2.354 Y-3.577 I.115 J-.487
N7125 G01 X-2.215 Y-3.546
N7130 G02 X-2.208 Y-3.545 I.108 J-.488
N7135 G01 X-2.069 Y-3.516
N7140 G02 X-2.062 Y-3.515 I.101 J-.49
N7145 G01 X-1.922 Y-3.488
N7150 G02 X-1.912 Y-3.486 I.094 J-.491
N7155 G01 X-1.632 Y-3.439
N7160 G02 X-1.618 Y-3.437 I.083 J-.493
N7165 G01 X-1.336 Y-3.397
N7170 G02 X-1.322 Y-3.395 I.07 J-.495
N7175 G01 X-1.04 Y-3.364
N7180 G02 X-1.026 Y-3.362 I.056 J-.497
N7185 G01 X-.744 Y-3.339
N7190 G02 X-.73 Y-3.338 I.042 J-.498
N7195 G01 X-.446 Y-3.322
N7200 G02 X-.432 Y-3.321 I.028 J-.499
N7205 G01 X-.149 Y-3.314
N7210 G02 X-.135 Y-3.313 I.014 J-.5
N7215 G01 X.149 Y-3.314
N7220 G02 X.163 I0 J-.5
N7225 G01 X.447 Y-3.322
N7230 G02 X.461 Y-3.323 I-.014 J-.5
N7235 G01 X.744 Y-3.339
N7240 G02 X.758 Y-3.34 I-.028 J-.499
N7245 G01 X1.042 Y-3.364
N7250 G02 X1.052 Y-3.365 I-.042 J-.498
N7255 G01 X1.194 Y-3.38
N7260 G02 X1.201 Y-3.381 I-.053 J-.497
N7265 G01 X1.342 Y-3.398
N7270 G02 X1.349 Y-3.399 I-.06 J-.496
N7275 G01 X1.49 Y-3.418
N7280 G02 X1.497 Y-3.419 I-.067 J-.496
N7285 G01 X1.638 Y-3.44
N7290 G02 X1.645 Y-3.441 I-.074 J-.495
N7295 G01 X1.785 Y-3.464
N7300 G02 X1.792 Y-3.465 I-.081 J-.493
N7305 G01 X1.933 Y-3.49
N7310 G02 X1.94 Y-3.491 I-.088 J-.492
N7315 G01 X2.08 Y-3.518
N7320 G02 X2.087 Y-3.52 I-.095 J-.491
N7325 G01 X2.227 Y-3.549
N7330 G02 X2.233 Y-3.55 I-.102 J-.49
N7335 G01 X2.373 Y-3.581
N7340 G02 X2.38 Y-3.583 I-.109 J-.488
N7345 G01 X2.519 Y-3.616
N7350 G02 X2.526 Y-3.618 I-.115 J-.486
N7355 G01 X2.665 Y-3.653
N7360 G02 X2.672 Y-3.654 I-.122 J-.485
N7365 G01 X2.81 Y-3.691
N7370 G02 X2.817 Y-3.693 I-.129 J-.483
N7375 G01 X2.955 Y-3.732
N7380 G02 X2.962 Y-3.734 I-.136 J-.481
N7385 G01 X3.1 Y-3.775
N7390 G02 X3.106 Y-3.778 I-.143 J-.479
N7395 G01 X3.244 Y-3.821
N7400 G02 X3.253 Y-3.824 I-.15 J-.477
N7405 G01 X3.509 Y-3.91
N7410 G02 X3.521 Y-3.914 I-.16 J-.474
N7415 G01 X3.744 Y-3.995
N7420 G02 X3.754 Y-3.999 I-.171 J-.47
N7425 G01 X3.948 Y-4.075
N7430 G02 X3.957 Y-4.078 I-.182 J-.466
N7435 G01 X4.125 Y-4.148
N7440 G02 X4.133 Y-4.151 I-.191 J-.462
N7445 G01 X4.28 Y-4.215
N7450 G02 X4.29 Y-4.219 I-.199 J-.459
N7455 G01 X4.544 Y-4.336
N7460 G02 X4.555 Y-4.341 I-.208 J-.454
N7465 G01 X4.745 Y-4.434
N7470 G02 X4.753 Y-4.438 I-.219 J-.449
N7475 G01 X4.894 Y-4.51
N7480 G02 X4.903 Y-4.514 I-.228 J-.445
N7485 G01 X5.113 Y-4.627
N7490 G02 X5.123 Y-4.633 I-.236 J-.441
N7495 G01 X5.326 Y-4.748
N7500 X5.336 Y-4.753
N7505 X5.353 Y-4.752
N7510 G02 X5.358 Y-4.751 I.055 J-.497
N7515 G01 X5.373 Y-4.749
N7520 G02 X5.396 Y-4.746 I.075 J-.494
N7525 G01 X5.512 Y-4.734
N7530 G02 X5.536 Y-4.732 I.052 J-.497
N7535 G01 X5.652 Y-4.725
N7540 G02 X5.672 I.028 J-.499
N7545 G01 X5.749 Y-4.724
N7550 G02 X5.768 I.008 J-.5
N7555 G01 X5.871 Y-4.726
N7560 G02 X5.892 Y-4.727 I-.011 J-.5
N7565 G01 X5.994 Y-4.733
N7570 G02 X6.015 Y-4.735 I-.033 J-.499
N7575 G01 X6.117 Y-4.746
N7580 G02 X6.138 Y-4.749 I-.054 J-.497
N7585 G01 X6.238 Y-4.764
N7590 G02 X6.259 Y-4.768 I-.075 J-.494
N7595 G01 X6.359 Y-4.787
N7600 G02 X6.38 Y-4.792 I-.096 J-.491
N7605 G01 X6.479 Y-4.815
N7610 G02 X6.499 Y-4.821 I-.116 J-.486
N7615 G01 X6.597 Y-4.849
N7620 G02 X6.617 Y-4.855 I-.137 J-.481
N7625 G01 X6.713 Y-4.887
N7630 G02 X6.733 Y-4.894 I-.157 J-.475
N7635 G01 X6.828 Y-4.93
N7640 G02 X6.848 Y-4.938 I-.177 J-.468
N7645 G01 X6.941 Y-4.978
N7650 G02 X6.961 Y-4.986 I-.197 J-.46
N7655 G01 X7.053 Y-5.03
N7660 G02 X7.072 Y-5.04 I-.216 J-.451
N7665 G01 X7.162 Y-5.088
N7670 G02 X7.18 Y-5.098 I-.235 J-.441
N7675 G01 X7.268 Y-5.15
N7680 G02 X7.287 Y-5.161 I-.253 J-.431
N7685 G01 X7.373 Y-5.217
N7690 G02 X7.39 Y-5.229 I-.272 J-.42
N7695 G01 X7.474 Y-5.289
N7700 G02 X7.491 Y-5.301 I-.289 J-.408
N7705 G01 X7.573 Y-5.365
N7710 G02 X7.575 Y-5.366 I-.307 J-.395
N7715 G01 X7.653 Y-5.265
N7720 X7.811 Y-5.044
N7725 X7.962 Y-4.819
N7730 X8.107 Y-4.589
N7735 X8.246 Y-4.355
N7740 X8.371 Y-4.13
N7745 X8.364 Y-4.12
N7750 G02 X8.352 Y-4.104 I.405 J.294
N7755 G01 X8.318 Y-4.053
N7760 G02 X8.308 Y-4.036 I.416 J.277
N7765 G01 X8.276 Y-3.984
N7770 G02 X8.266 Y-3.967 I.427 J.26
N7775 G01 X8.237 Y-3.914
N7780 G02 X8.227 Y-3.896 I.437 J.243
N7785 G01 X8.2 Y-3.842
N7790 G02 X8.191 Y-3.824 I.447 J.225
N7795 G01 X8.166 Y-3.769
N7800 G02 X8.158 Y-3.75 I.455 J.207
N7805 G01 X8.136 Y-3.694
N7810 G02 X8.129 Y-3.675 I.463 J.188
N7815 G01 X8.108 Y-3.619
N7820 G02 X8.102 Y-3.599 I.47 J.169
N7825 G01 X8.083 Y-3.542
N7830 G02 X8.078 Y-3.522 I.477 J.15
N7835 G01 X8.062 Y-3.464
N7840 G02 X8.057 Y-3.444 I.483 J.131
N7845 G01 X8.044 Y-3.385
N7850 G02 X8.039 Y-3.365 I.487 J.111
N7855 G01 X8.028 Y-3.305
N7860 G02 X8.025 Y-3.285 I.492 J.091
N7865 G01 X8.016 Y-3.225
N7870 G02 X8.014 Y-3.205 I.495 J.071
N7875 G01 X8.008 Y-3.144
N7880 G02 X8.006 Y-3.124 I.497 J.051
N7885 G01 X8.002 Y-3.063
N7890 G02 X8.001 Y-3.042 I.499 J.031
N7895 G01 X8. Y-2.981
N7900 G02 Y-2.97 I.5 J.01
N7905 G01 Y3.826
N7910 X7.999 Y3.839
N7915 X7.992 Y3.844
N7920 X7.713 Y4.018
N7925 X7.423 Y4.191
N7930 X7.229 Y4.302
N7935 X6.966 Y4.446
N7940 X6.817 Y4.524
N7945 X6.644 Y4.612
N7950 X6.446 Y4.71
N7955 X6.217 Y4.818
N7960 X5.955 Y4.937
N7965 X5.651 Y5.066
N7970 X5.491 Y5.132
N7975 X5.317 Y5.2
N7980 X5.131 Y5.27
N7985 X4.932 Y5.342
N7990 X4.733 Y5.411
N7995 X4.532 Y5.477
N8000 X4.331 Y5.54
N8005 X4.129 Y5.6
N8010 X3.927 Y5.657
N8015 X3.724 Y5.712
N8020 X3.52 Y5.763
N8025 X3.316 Y5.812
N8030 X3.111 Y5.857
N8035 X2.906 Y5.9
N8040 X2.7 Y5.939
N8045 X2.494 Y5.976
N8050 X2.288 Y6.01
N8055 X2.081 Y6.041
N8060 X1.874 Y6.068
N8065 X1.666 Y6.093
N8070 X1.459 Y6.115
N8075 X1.251 Y6.134
N8080 X1.042 Y6.151
N8085 X.834 Y6.164
N8090 X.626 Y6.174
N8095 X.417 Y6.181
N8100 X.209 Y6.186
N8105 X0 Y6.187
N8110 X-.209 Y6.186
N8115 X-.417 Y6.181
N8120 X-.626 Y6.174
N8125 X-.834 Y6.164
N8130 X-1.042 Y6.151
N8135 X-1.251 Y6.134
N8140 X-1.459 Y6.115
N8145 X-1.666 Y6.093
N8150 X-1.874 Y6.068
N8155 X-2.081 Y6.041
N8160 X-2.288 Y6.01
N8165 X-2.494 Y5.976
N8170 X-2.7 Y5.939
N8175 X-2.906 Y5.9
N8180 X-3.111 Y5.857
N8185 X-3.316 Y5.812
N8190 X-3.52 Y5.763
N8195 X-3.724 Y5.712
N8200 X-3.927 Y5.657
N8205 X-4.129 Y5.6
N8210 X-4.331 Y5.54
N8215 X-4.532 Y5.477
N8220 X-4.733 Y5.411
N8225 X-4.932 Y5.342
N8230 X-5.131 Y5.27
N8235 X-5.329 Y5.195
N8240 X-5.527 Y5.117
N8245 X-5.723 Y5.037
N8250 X-5.918 Y4.953
N8255 X-6.113 Y4.866
N8260 X-6.307 Y4.777
N8265 X-6.499 Y4.684
N8270 X-6.691 Y4.589
N8275 X-6.881 Y4.491
N8280 X-7.071 Y4.389
N8285 X-7.259 Y4.285
N8290 X-7.446 Y4.178
N8295 X-7.632 Y4.068
N8300 X-7.817 Y3.955
N8305 X-7.991 Y3.845
N8310 X-7.999 Y3.839
N8315 X-8. Y3.826
N8320 Y-2.928
N8325 G02 Y-2.943 I-.5 J0
N8330 G01 X-8.003 Y-3.039
N8335 G02 X-8.005 Y-3.069 I-.5 J.015
N8340 G01 X-8.014 Y-3.165
N8345 G02 X-8.016 Y-3.19 I-.498 J.045
N8350 G01 X-8.025 Y-3.253
N8355 G02 X-8.029 Y-3.272 I-.495 J.07
N8360 G01 X-8.04 Y-3.335
N8365 G02 X-8.044 Y-3.355 I-.492 J.09
N8370 G01 X-8.058 Y-3.417
N8375 G02 X-8.062 Y-3.436 I-.488 J.109
N8380 G01 X-8.079 Y-3.497
N8385 G02 X-8.084 Y-3.516 I-.483 J.128
N8390 G01 X-8.103 Y-3.577
N8395 G02 X-8.109 Y-3.595 I-.478 J.147
N8400 G01 X-8.13 Y-3.655
N8405 G02 X-8.137 Y-3.674 I-.472 J.166
N8410 G01 X-8.16 Y-3.732
N8415 G02 X-8.168 Y-3.751 I-.465 J.185
N8420 G01 X-8.194 Y-3.808
N8425 G02 X-8.202 Y-3.826 I-.457 J.203
N8430 G01 X-8.23 Y-3.883
N8435 G02 X-8.239 Y-3.901 I-.449 J.221
N8440 G01 X-8.269 Y-3.956
N8445 G02 X-8.279 Y-3.974 I-.44 J.238
N8450 G01 X-8.311 Y-4.028
N8455 G02 X-8.322 Y-4.045 I-.43 J.256
N8460 G01 X-8.356 Y-4.098
N8465 G02 X-8.368 Y-4.115 I-.419 J.272
N8470 G01 X-8.404 Y-4.167
N8475 G02 X-8.416 Y-4.183 I-.408 J.289
N8480 G01 X-8.455 Y-4.233
N8485 G02 X-8.468 Y-4.249 I-.396 J.305
N8490 G01 X-8.509 Y-4.298
N8495 G02 X-8.522 Y-4.313 I-.384 J.32
N8500 G01 X-8.565 Y-4.36
N8505 G02 X-8.578 Y-4.375 I-.371 J.336
N8510 G01 X-8.6 Y-4.397
N8515 X-8.581 Y-4.433
N8520 X-8.447 Y-4.675
N8525 X-8.305 Y-4.912
N8530 X-8.157 Y-5.146
N8535 X-8.003 Y-5.375
N8540 X-7.862 Y-5.571
N8545 X-7.738 Y-5.524
N8550 G02 X-7.723 Y-5.519 I.177 J-.468
N8555 G01 X-7.584 Y-5.472
N8560 G02 X-7.572 Y-5.467 I.161 J-.473
N8565 G01 X-7.479 Y-5.438
N8570 G02 X-7.467 Y-5.435 I.149 J-.477
N8575 G01 X-7.342 Y-5.4
N8580 G02 X-7.326 Y-5.395 I.136 J-.481
N8585 G01 X-7.159 Y-5.354
N8590 G02 X-7.144 Y-5.351 I.12 J-.485
N8595 G01 X-7.049 Y-5.33
N8600 G02 X-7.038 Y-5.328 I.106 J-.489
N8605 G01 X-6.942 Y-5.309
N8610 G02 X-6.931 Y-5.307 I.095 J-.491
N8615 G01 X-6.835 Y-5.291
N8620 G02 X-6.824 Y-5.289 I.084 J-.493
N8625 G01 X-6.727 Y-5.275
N8630 G02 X-6.716 Y-5.273 I.074 J-.495
N8635 G01 X-6.62 Y-5.261
N8640 G02 X-6.609 Y-5.26 I.063 J-.496
N8645 G01 X-6.512 Y-5.249
N8650 G02 X-6.501 Y-5.248 I.052 J-.497
N8655 G01 X-6.404 Y-5.24
N8660 G02 X-6.393 I.041 J-.498
N8665 G01 X-6.296 Y-5.234
N8670 G02 X-6.285 Y-5.233 I.03 J-.499
N8675 G01 X-6.188 Y-5.229
N8680 G02 X-6.177 I.02 J-.5
N8685 G01 X-6.097 Y-5.228
N8690 X-6.077 Y-5.226
N8695 X-6.063 Y-5.218
N8700 X-5.952 Y-5.141
N8705 G02 X-5.946 Y-5.137 I.284 J-.412
N8710 G01 X-5.824 Y-5.056
N8715 G02 X-5.817 Y-5.052 I.278 J-.416
N8720 G01 X-5.694 Y-4.972
N8725 G02 X-5.688 Y-4.968 I.272 J-.42
N8730 G01 X-5.564 Y-4.89
N8735 G02 X-5.558 Y-4.886 I.265 J-.424
N8740 G01 X-5.433 Y-4.81
N8745 G02 X-5.426 Y-4.807 I.259 J-.428
N8750 G01 X-5.3 Y-4.733
N8755 G02 X-5.294 Y-4.729 I.253 J-.431
N8760 G01 X-5.167 Y-4.657
N8765 G02 X-5.161 Y-4.654 I.247 J-.435
N8770 G01 X-5.034 Y-4.584
N8775 G02 X-5.027 Y-4.58 I.241 J-.438
N8780 G01 X-4.899 Y-4.512
N8785 G02 X-4.893 Y-4.509 I.234 J-.442
N8790 G01 X-4.763 Y-4.443
N8795 G02 X-4.757 Y-4.44 I.228 J-.445
N8800 G01 X-4.627 Y-4.376
N8805 G02 X-4.621 Y-4.372 I.221 J-.448
N8810 G01 X-4.49 Y-4.31
N8815 G02 X-4.484 Y-4.307 I.215 J-.451
N8820 G01 X-4.353 Y-4.247
N8825 G02 X-4.346 Y-4.244 I.208 J-.454
N8830 G01 X-4.214 Y-4.186
N8835 G02 X-4.208 Y-4.183 I.202 J-.457
N8840 G01 X-4.075 Y-4.127
N8845 G02 X-4.068 Y-4.124 I.195 J-.46
N8850 G01 X-3.935 Y-4.07
N8855 G02 X-3.929 Y-4.067 I.189 J-.463
N8860 G01 X-3.795 Y-4.015
N8865 G02 X-3.788 Y-4.012 I.182 J-.466
N8870 G01 X-3.654 Y-3.962
N8875 G02 X-3.647 Y-3.959 I.176 J-.468
N8880 G01 X-3.512 Y-3.911
N8885 G02 X-3.505 Y-3.909 I.169 J-.471
N8890 G01 X-3.37 Y-3.862
N8895 G02 X-3.363 Y-3.86 I.162 J-.473
N8900 G01 X-3.227 Y-3.815
N8905 G02 X-3.221 Y-3.813 I.155 J-.475
N8910 G01 X-3.084 Y-3.771
N8915 G02 X-3.077 Y-3.769 I.149 J-.477
N8920 G01 X-2.94 Y-3.728
N8925 G02 X-2.934 Y-3.726 I.142 J-.479
N8930 G01 X-2.796 Y-3.688
N8935 G02 X-2.789 Y-3.686 I.135 J-.481
N8940 G01 X-2.651 Y-3.649
N8945 G02 X-2.645 Y-3.647 I.128 J-.483
N8950 G01 X-2.506 Y-3.613
N8955 G02 X-2.499 Y-3.611 I.121 J-.485
N8960 G01 X-2.361 Y-3.579
N8965 G02 X-2.354 Y-3.577 I.115 J-.487
N8970 G01 X-2.215 Y-3.546
N8975 G02 X-2.208 Y-3.545 I.108 J-.488
N8980 G01 X-2.069 Y-3.516
N8985 G02 X-2.062 Y-3.515 I.101 J-.49
N8990 G01 X-1.922 Y-3.488
N8995 G02 X-1.912 Y-3.486 I.094 J-.491
N9000 G01 X-1.632 Y-3.439
N9005 G02 X-1.618 Y-3.437 I.083 J-.493
N9010 G01 X-1.336 Y-3.397
N9015 G02 X-1.322 Y-3.395 I.07 J-.495
N9020 G01 X-1.04 Y-3.364
N9025 G02 X-1.026 Y-3.362 I.056 J-.497
N9030 G01 X-.744 Y-3.339
N9035 G02 X-.73 Y-3.338 I.042 J-.498
N9040 G01 X-.446 Y-3.322
N9045 G02 X-.432 Y-3.321 I.028 J-.499
N9050 G01 X-.149 Y-3.314
N9055 G02 X-.135 Y-3.313 I.014 J-.5
N9060 G01 X.149 Y-3.314
N9065 G02 X.163 I0 J-.5
N9070 G01 X.447 Y-3.322
N9075 G02 X.461 Y-3.323 I-.014 J-.5
N9080 G01 X.744 Y-3.339
N9085 G02 X.758 Y-3.34 I-.028 J-.499
N9090 G01 X1.042 Y-3.364
N9095 G02 X1.052 Y-3.365 I-.042 J-.498
N9100 G01 X1.194 Y-3.38
N9105 G02 X1.201 Y-3.381 I-.053 J-.497
N9110 G01 X1.342 Y-3.398
N9115 G02 X1.349 Y-3.399 I-.06 J-.496
N9120 G01 X1.49 Y-3.418
N9125 G02 X1.497 Y-3.419 I-.067 J-.496
N9130 G01 X1.638 Y-3.44
N9135 G02 X1.645 Y-3.441 I-.074 J-.495
N9140 G01 X1.785 Y-3.464
N9145 G02 X1.792 Y-3.465 I-.081 J-.493
N9150 G01 X1.933 Y-3.49
N9155 G02 X1.94 Y-3.491 I-.088 J-.492
N9160 G01 X2.08 Y-3.518
N9165 G02 X2.087 Y-3.52 I-.095 J-.491
N9170 G01 X2.227 Y-3.549
N9175 G02 X2.233 Y-3.55 I-.102 J-.49
N9180 G01 X2.373 Y-3.581
N9185 G02 X2.38 Y-3.583 I-.109 J-.488
N9190 G01 X2.519 Y-3.616
N9195 G02 X2.526 Y-3.618 I-.115 J-.486
N9200 G01 X2.665 Y-3.653
N9205 G02 X2.672 Y-3.654 I-.122 J-.485
N9210 G01 X2.81 Y-3.691
N9215 G02 X2.817 Y-3.693 I-.129 J-.483
N9220 G01 X2.955 Y-3.732
N9225 G02 X2.962 Y-3.734 I-.136 J-.481
N9230 G01 X3.1 Y-3.775
N9235 G02 X3.106 Y-3.778 I-.143 J-.479
N9240 G01 X3.244 Y-3.821
N9245 G02 X3.253 Y-3.824 I-.15 J-.477
N9250 G01 X3.509 Y-3.91
N9255 G02 X3.521 Y-3.914 I-.16 J-.474
N9260 G01 X3.744 Y-3.995
N9265 G02 X3.754 Y-3.999 I-.171 J-.47
N9270 G01 X3.948 Y-4.075
N9275 G02 X3.957 Y-4.078 I-.182 J-.466
N9280 G01 X4.125 Y-4.148
N9285 G02 X4.133 Y-4.151 I-.191 J-.462
N9290 G01 X4.28 Y-4.215
N9295 G02 X4.29 Y-4.219 I-.199 J-.459
N9300 G01 X4.544 Y-4.336
N9305 G02 X4.555 Y-4.341 I-.208 J-.454
N9310 G01 X4.745 Y-4.434
N9315 G02 X4.753 Y-4.438 I-.219 J-.449
N9320 G01 X4.894 Y-4.51
N9325 G02 X4.903 Y-4.514 I-.228 J-.445
N9330 G01 X5.113 Y-4.627
N9335 G02 X5.123 Y-4.633 I-.236 J-.441
N9340 G01 X5.326 Y-4.748
N9345 X5.336 Y-4.753
N9350 X5.353 Y-4.752
N9355 G02 X5.358 Y-4.751 I.055 J-.497
N9360 G01 X5.373 Y-4.749
N9365 G02 X5.396 Y-4.746 I.075 J-.494
N9370 G01 X5.512 Y-4.734
N9375 G02 X5.536 Y-4.732 I.052 J-.497
N9380 G01 X5.652 Y-4.725
N9385 G02 X5.672 I.028 J-.499
N9390 G01 X5.749 Y-4.724
N9395 G02 X5.768 I.008 J-.5
N9400 G01 X5.871 Y-4.726
N9405 G02 X5.892 Y-4.727 I-.011 J-.5
N9410 G01 X5.994 Y-4.733
N9415 G02 X6.015 Y-4.735 I-.033 J-.499
N9420 G01 X6.117 Y-4.746
N9425 G02 X6.138 Y-4.749 I-.054 J-.497
N9430 G01 X6.238 Y-4.764
N9435 G02 X6.259 Y-4.768 I-.075 J-.494
N9440 G01 X6.359 Y-4.787
N9445 G02 X6.38 Y-4.792 I-.096 J-.491
N9450 G01 X6.479 Y-4.815
N9455 G02 X6.499 Y-4.821 I-.116 J-.486
N9460 G01 X6.597 Y-4.849
N9465 G02 X6.617 Y-4.855 I-.137 J-.481
N9470 G01 X6.713 Y-4.887
N9475 G02 X6.733 Y-4.894 I-.157 J-.475
N9480 G01 X6.828 Y-4.93
N9485 G02 X6.848 Y-4.938 I-.177 J-.468
N9490 G01 X6.941 Y-4.978
N9495 G02 X6.961 Y-4.986 I-.197 J-.46
N9500 G01 X7.053 Y-5.03
N9505 G02 X7.072 Y-5.04 I-.216 J-.451
N9510 G01 X7.162 Y-5.088
N9515 G02 X7.18 Y-5.098 I-.235 J-.441
N9520 G01 X7.268 Y-5.15
N9525 G02 X7.287 Y-5.161 I-.253 J-.431
N9530 G01 X7.373 Y-5.217
N9535 G02 X7.39 Y-5.229 I-.272 J-.42
N9540 G01 X7.474 Y-5.289
N9545 G02 X7.491 Y-5.301 I-.289 J-.408
N9550 G01 X7.573 Y-5.365
N9555 G02 X7.59 Y-5.378 I-.307 J-.395
N9560 G01 X7.666 Y-5.443
N9565 X7.714 Y-5.483
N9570 X7.755 Y-5.512
N9575 X7.778 Y-5.527
N9580 X7.813 Y-5.547
N9585 X7.864 Y-5.571
N9590 X7.914 Y-5.591
N9595 X7.966 Y-5.606
N9600 X8.013 Y-5.616
N9605 X8.128 Y-5.461
N9610 X8.288 Y-5.232
N9615 X8.441 Y-4.999
N9620 X8.587 Y-4.762
N9625 X8.719 Y-4.534
N9630 X8.698 Y-4.505
N9635 X8.663 Y-4.462
N9640 X8.61 Y-4.408
N9645 X8.547 Y-4.344
N9650 G02 X8.526 Y-4.322 I.355 J.352
N9655 G01 X8.466 Y-4.253
N9660 G02 X8.449 Y-4.233 I.376 J.329
N9665 G01 X8.412 Y-4.186
N9670 G02 X8.399 Y-4.169 I.392 J.31
N9675 G01 X8.364 Y-4.12
N9680 G02 X8.352 Y-4.104 I.405 J.294
N9685 G01 X8.318 Y-4.053
N9690 G02 X8.308 Y-4.036 I.416 J.277
N9695 G01 X8.276 Y-3.984
N9700 G02 X8.266 Y-3.967 I.427 J.26
N9705 G01 X8.237 Y-3.914
N9710 G02 X8.227 Y-3.896 I.437 J.243
N9715 G01 X8.2 Y-3.842
N9720 G02 X8.191 Y-3.824 I.447 J.225
N9725 G01 X8.166 Y-3.769
N9730 G02 X8.158 Y-3.75 I.455 J.207
N9735 G01 X8.136 Y-3.694
N9740 G02 X8.129 Y-3.675 I.463 J.188
N9745 G01 X8.108 Y-3.619
N9750 G02 X8.102 Y-3.599 I.47 J.169
N9755 G01 X8.083 Y-3.542
N9760 G02 X8.078 Y-3.522 I.477 J.15
N9765 G01 X8.062 Y-3.464
N9770 G02 X8.057 Y-3.444 I.483 J.131
N9775 G01 X8.044 Y-3.385
N9780 G02 X8.039 Y-3.365 I.487 J.111
N9785 G01 X8.028 Y-3.305
N9790 G02 X8.025 Y-3.285 I.492 J.091
N9795 G01 X8.016 Y-3.225
N9800 G02 X8.014 Y-3.205 I.495 J.071
N9805 G01 X8.008 Y-3.144
N9810 G02 X8.006 Y-3.124 I.497 J.051
N9815 G01 X8.002 Y-3.063
N9820 G02 X8.001 Y-3.042 I.499 J.031
N9825 G01 X8. Y-2.981
N9830 G02 Y-2.97 I.5 J.01
N9835 G01 Y3.826
N9840 X7.999 Y3.839
N9845 X7.992 Y3.844
N9850 X7.713 Y4.018
N9855 X7.423 Y4.191
N9860 X7.229 Y4.302
N9865 X6.966 Y4.446
N9870 X6.817 Y4.524
N9875 X6.644 Y4.612
N9880 X6.446 Y4.71
N9885 X6.217 Y4.818
N9890 X5.955 Y4.937
N9895 X5.651 Y5.066
N9900 X5.491 Y5.132
N9905 X5.317 Y5.2
N9910 X5.131 Y5.27
N9915 X4.932 Y5.342
N9920 X4.733 Y5.411
N9925 X4.532 Y5.477
N9930 X4.331 Y5.54
N9935 X4.129 Y5.6
N9940 X3.927 Y5.657
N9945 X3.724 Y5.712
N9950 X3.52 Y5.763
N9955 X3.316 Y5.812
N9960 X3.111 Y5.857
N9965 X2.906 Y5.9
N9970 X2.7 Y5.939
N9975 X2.494 Y5.976
N9980 X2.288 Y6.01
N9985 X2.081 Y6.041
N9990 X1.874 Y6.068
N9995 X1.666 Y6.093
N5 X1.459 Y6.115
N10 X1.251 Y6.134
N15 X1.042 Y6.151
N20 X.834 Y6.164
N25 X.626 Y6.174
N30 X.417 Y6.181
N35 X.209 Y6.186
N40 X0 Y6.187
N45 X-.209 Y6.186
N50 X-.417 Y6.181
N55 X-.626 Y6.174
N60 X-.834 Y6.164
N65 X-1.042 Y6.151
N70 X-1.251 Y6.134
N75 X-1.459 Y6.115
N80 X-1.666 Y6.093
N85 X-1.874 Y6.068
N90 X-2.081 Y6.041
N95 X-2.288 Y6.01
N100 X-2.494 Y5.976
N105 X-2.7 Y5.939
N110 X-2.906 Y5.9
N115 X-3.111 Y5.857
N120 X-3.316 Y5.812
N125 X-3.52 Y5.763
N130 X-3.724 Y5.712
N135 X-3.927 Y5.657
N140 X-4.129 Y5.6
N145 X-4.331 Y5.54
N150 X-4.532 Y5.477
N155 X-4.733 Y5.411
N160 X-4.932 Y5.342
N165 X-5.131 Y5.27
N170 X-5.329 Y5.195
N175 X-5.527 Y5.117
N180 X-5.723 Y5.037
N185 X-5.918 Y4.953
N190 X-6.113 Y4.866
N195 X-6.307 Y4.777
N200 X-6.499 Y4.684
N205 X-6.691 Y4.589
N210 X-6.881 Y4.491
N215 X-7.071 Y4.389
N220 X-7.259 Y4.285
N225 X-7.446 Y4.178
N230 X-7.632 Y4.068
N235 X-7.817 Y3.955
N240 X-7.991 Y3.845
N245 X-7.999 Y3.839
N250 X-8. Y3.826
N255 Y-2.928
N260 G02 Y-2.943 I-.5 J0
N265 G01 X-8.003 Y-3.039
N270 G02 X-8.005 Y-3.069 I-.5 J.015
N275 G01 X-8.014 Y-3.165
N280 G02 X-8.016 Y-3.19 I-.498 J.045
N285 G01 X-8.025 Y-3.253
N290 G02 X-8.029 Y-3.272 I-.495 J.07
N295 G01 X-8.04 Y-3.335
N300 G02 X-8.044 Y-3.355 I-.492 J.09
N305 G01 X-8.058 Y-3.417
N310 G02 X-8.062 Y-3.436 I-.488 J.109
N315 G01 X-8.079 Y-3.497
N320 G02 X-8.084 Y-3.516 I-.483 J.128
N325 G01 X-8.103 Y-3.577
N330 G02 X-8.109 Y-3.595 I-.478 J.147
N335 G01 X-8.13 Y-3.655
N340 G02 X-8.137 Y-3.674 I-.472 J.166
N345 G01 X-8.16 Y-3.732
