%
O00001
(This Post Processor is distributed on an "AS IS" BASIS, )
(WITHOUT WARRANTIES OR CONDITIONS OF ANY KIND, either express or implied. )
N5 G21 G17 G40 G80 G90
N10 T01 M06 (1mm)
N15 G54 G90 G94 Z50
N20 S23000 M03
N25 G00 G90 X-13.762 Y.25
N30 G43 H01 Z2.5 M08
N35 G01 Z-.3 F750.
N40 G03 Y-.25 I0 J-.25 F3000.
N45 G01 X13.418
N50 G03 Y.25 I0 J.25
N55 G01 X-13.762
N60 G03 Y-.25 I0 J-.25
N65 G01 X13.418
N70 G03 Y.25 I0 J.25
N75 G01 X-13.762
N80 G00 Z2.5
N85 Z2.2
N90 G01 Z-.6 F750.
N95 G03 Y-.25 I0 J-.25 F3000.
N100 G01 X13.418
N105 G03 Y.25 I0 J.25
N110 G01 X-13.762
N115 G03 Y-.25 I0 J-.25
N120 G01 X13.418
N125 G03 Y.25 I0 J.25
N130 G01 X-13.762
N135 G00 Z2.5
N140 Z1.9
N145 G01 Z-.9 F750.
N150 G03 Y-.25 I0 J-.25 F3000.
N155 G01 X13.418
N160 G03 Y.25 I0 J.25
N165 G01 X-13.762
N170 G03 Y-.25 I0 J-.25
N175 G01 X13.418
N180 G03 Y.25 I0 J.25
N185 G01 X-13.762
N190 G00 Z2.5
N195 Z1.6
N200 G01 Z-.95 F750.
N205 G03 Y-.25 I0 J-.25 F3000.
N210 G01 X13.418
N215 G03 Y.25 I0 J.25
N220 G01 X-13.762
N225 G03 Y-.25 I0 J-.25
N230 G01 X13.418
N235 G03 Y.25 I0 J.25
N240 G01 X-13.762
N245 G00 Z2.5
N250 Z1.55
N255 G01 Z-1.2 F750.
N260 G03 Y-.25 I0 J-.25 F3000.
N265 G01 X13.418
N270 G03 Y.25 I0 J.25
N275 G01 X-13.762
N280 G03 Y-.25 I0 J-.25
N285 G01 X13.418
N290 G03 Y.25 I0 J.25
N295 G01 X-13.762
N300 G00 Z2.5
N305 Z25. M09
N310 G00 G90 M05
N315 G54 Z50 X210 Y0
N320 M30
%
