%
O00001
(This Post Processor is distributed on an "AS IS" BASIS, )
(WITHOUT WARRANTIES OR CONDITIONS OF ANY KIND, either express or implied. )
N5 G21 G17 G40 G80 G90
N10 T01 M06 (1mm)
N15 G54 G90 G94 Z50
N20 S23000 M03
N25 G00 G90 X-7.358 Y.973
N30 G43 H01 Z3. M08
N35 G01 Z-.2 F750.
N40 X-7.726 Y.605 F2250.
N45 G03 X-7.755 Y.534 I.071 J-.071
N50 G01 Y-2.982 F3000.
N55 X-7.759 Y-3.108
N60 X-7.771 Y-3.241
N65 X-7.785 Y-3.335
N70 X-7.801 Y-3.425
N75 X-7.822 Y-3.513
N80 X-7.845 Y-3.601
N85 X-7.872 Y-3.687
N90 X-7.903 Y-3.772
N95 X-7.937 Y-3.856
N100 X-7.974 Y-3.939
N105 X-8.015 Y-4.02
N110 X-8.059 Y-4.099
N115 X-8.106 Y-4.176
N120 X-8.157 Y-4.252
N125 X-8.21 Y-4.326
N130 X-8.267 Y-4.397
N135 X-8.326 Y-4.467
N140 X-8.389 Y-4.534
N145 X-8.44 Y-4.584
N150 X-8.476 Y-4.621
N155 X-8.499 Y-4.648
N160 X-8.507 Y-4.659
N165 X-8.522 Y-4.68
N170 X-8.542 Y-4.713
N175 X-8.557 Y-4.744
N180 X-8.57 Y-4.776
N185 X-8.58 Y-4.81
N190 X-8.587 Y-4.843
N195 X-8.593 Y-4.878
N200 X-8.595 Y-4.913
N205 Y-4.947
N210 X-8.592 Y-4.982
N215 X-8.587 Y-5.016
N220 X-8.579 Y-5.05
N225 X-8.568 Y-5.083
N230 X-8.555 Y-5.115
N235 X-8.54 Y-5.147
N240 X-8.521 Y-5.177
N245 X-8.5 Y-5.207
N250 X-8.474 Y-5.237
N255 X-8.453 Y-5.258
N260 X-8.427 Y-5.282
N265 X-8.417 Y-5.29
N270 X-8.396 Y-5.305
N275 X-8.363 Y-5.325
N280 X-8.332 Y-5.341
N285 X-8.3 Y-5.354
N290 X-8.267 Y-5.365
N295 X-8.233 Y-5.373
N300 X-8.199 Y-5.379
N305 X-8.164 Y-5.382
N310 X-8.13 Y-5.383
N315 X-8.095 Y-5.381
N320 X-8.061 Y-5.376
N325 X-8.027 Y-5.368
N330 X-7.994 Y-5.359
N335 X-7.961 Y-5.346
N340 X-7.93 Y-5.331
N345 X-7.899 Y-5.313
N350 X-7.869 Y-5.292
N355 X-7.821 Y-5.253
N360 X-7.723 Y-5.17
N365 X-7.604 Y-5.08
N370 X-7.517 Y-5.019
N375 X-7.406 Y-4.947
N380 X-7.291 Y-4.879
N385 X-7.173 Y-4.816
N390 X-7.052 Y-4.759
N395 X-6.93 Y-4.706
N400 X-6.805 Y-4.659
N405 X-6.679 Y-4.617
N410 X-6.551 Y-4.581
N415 X-6.421 Y-4.55
N420 X-6.291 Y-4.524
N425 X-6.159 Y-4.504
N430 X-6.026 Y-4.49
N435 X-5.892 Y-4.481
N440 X-5.758 Y-4.478
N445 X-5.623 Y-4.481
N450 X-5.488 Y-4.49
N455 X-5.352 Y-4.504
N460 X-5.202 Y-4.527
N465 X-5.056 Y-4.557
N470 X-4.953 Y-4.582
N475 X-4.826 Y-4.619
N480 X-4.698 Y-4.661
N485 X-4.573 Y-4.708
N490 X-4.451 Y-4.761
N495 X-4.331 Y-4.819
N500 X-4.213 Y-4.882
N505 X-4.099 Y-4.949
N510 X-3.987 Y-5.022
N515 X-3.878 Y-5.099
N520 X-3.773 Y-5.181
N525 X-3.671 Y-5.267
N530 X-3.573 Y-5.358
N535 X-3.479 Y-5.453
N540 X-3.388 Y-5.552
N545 X-3.301 Y-5.655
N550 X-3.219 Y-5.762
N555 X-3.154 Y-5.854
N560 X-3.133 Y-5.884
N565 X-3.121 Y-5.897
N570 X-3.111 Y-5.907
N575 X-3.102 Y-5.913
N580 X-3.093 Y-5.919
N585 X-3.084 Y-5.924
N590 X-3.074 Y-5.929
N595 X-3.064 Y-5.933
N600 X-3.054 Y-5.936
N605 X-3.043 Y-5.939
N610 X-3.032 Y-5.941
N615 X-3.021 Y-5.942
N620 X-3.01
N625 X-3. Y-5.941
N630 X-2.989 Y-5.94
N635 X-2.979 Y-5.938
N640 X-2.968 Y-5.935
N645 X-2.957 Y-5.932
N650 X-2.93 Y-5.92
N655 X-2.752 Y-5.839
N660 X-2.556 Y-5.755
N665 X-2.422 Y-5.702
N670 X-2.245 Y-5.635
N675 X-2.011 Y-5.553
N680 X-1.871 Y-5.508
N685 X-1.715 Y-5.461
N690 X-1.557 Y-5.417
N695 X-1.399 Y-5.376
N700 X-1.24 Y-5.338
N705 X-1.08 Y-5.303
N710 X-.92 Y-5.271
N715 X-.76 Y-5.243
N720 X-.599 Y-5.218
N725 X-.437 Y-5.195
N730 X-.276 Y-5.176
N735 X-.113 Y-5.161
N740 X.049 Y-5.148
N745 X.211 Y-5.138
N750 X.374 Y-5.132
N755 X.537 Y-5.129
N760 X.699
N765 X.862 Y-5.132
N770 X1.025 Y-5.139
N775 X1.188 Y-5.148
N780 X1.35 Y-5.161
N785 X1.513 Y-5.177
N790 X1.675 Y-5.196
N795 X1.837 Y-5.218
N800 X1.998 Y-5.244
N805 X2.16 Y-5.272
N810 X2.32 Y-5.304
N815 X2.481 Y-5.339
N820 X2.641 Y-5.378
N825 X2.8 Y-5.419
N830 X2.958 Y-5.464
N835 X3.116 Y-5.512
N840 X3.274 Y-5.563
N845 X3.412 Y-5.611
N850 X3.443 Y-5.62
N855 X3.456 Y-5.623
N860 X3.469 Y-5.625
N865 X3.481 Y-5.626
N870 X3.494 Y-5.625
N875 X3.507 Y-5.624
N880 X3.519 Y-5.621
N885 X3.532 Y-5.618
N890 X3.544 Y-5.613
N895 X3.575 Y-5.598
N900 X3.708 Y-5.529
N905 X3.86 Y-5.457
N910 X3.967 Y-5.409
N915 X4.106 Y-5.352
N920 X4.289 Y-5.283
N925 X4.401 Y-5.245
N930 X4.509 Y-5.21
N935 X4.619 Y-5.178
N940 X4.729 Y-5.149
N945 X4.839 Y-5.121
N950 X4.95 Y-5.097
N955 X5.062 Y-5.074
N960 X5.173 Y-5.054
N965 X5.285 Y-5.037
N970 X5.398 Y-5.022
N975 X5.51 Y-5.009
N980 X5.623 Y-4.999
N985 X5.736 Y-4.991
N990 X5.849 Y-4.986
N995 X5.963 Y-4.983
N1000 X6.076 Y-4.982
N1005 X6.189 Y-4.984
N1010 X6.303 Y-4.989
N1015 X6.416 Y-4.996
N1020 X6.529 Y-5.005
N1025 X6.642 Y-5.017
N1030 X6.755 Y-5.031
N1035 X6.868 Y-5.048
N1040 X6.98 Y-5.067
N1045 X7.092 Y-5.089
N1050 X7.204 Y-5.113
N1055 X7.316 Y-5.139
N1060 X7.426 Y-5.168
N1065 X7.537 Y-5.2
N1070 X7.647 Y-5.234
N1075 X7.756 Y-5.271
N1080 X7.865 Y-5.31
N1085 X7.956 Y-5.344
N1090 X8.008 Y-5.363
N1095 X8.047 Y-5.373
N1100 X8.063 Y-5.376
N1105 X8.097 Y-5.381
N1110 X8.127 Y-5.383
N1115 X8.158
N1120 X8.189 Y-5.38
N1125 X8.219 Y-5.376
N1130 X8.249 Y-5.37
N1135 X8.279 Y-5.361
N1140 X8.308 Y-5.351
N1145 X8.336 Y-5.339
N1150 X8.364 Y-5.325
N1155 X8.39 Y-5.309
N1160 X8.415 Y-5.291
N1165 X8.439 Y-5.272
N1170 X8.462 Y-5.25
N1175 X8.483 Y-5.227
N1180 X8.503 Y-5.203
N1185 X8.521 Y-5.177
N1190 X8.541 Y-5.144
N1195 X8.559 Y-5.108
N1200 X8.565 Y-5.094
N1205 X8.576 Y-5.061
N1210 X8.584 Y-5.031
N1215 X8.59 Y-5.001
N1220 X8.594 Y-4.971
N1225 X8.595 Y-4.94
N1230 Y-4.909
N1235 X8.593 Y-4.878
N1240 X8.588 Y-4.848
N1245 X8.582 Y-4.818
N1250 X8.573 Y-4.788
N1255 X8.563 Y-4.759
N1260 X8.551 Y-4.731
N1265 X8.536 Y-4.704
N1270 X8.52 Y-4.677
N1275 X8.502 Y-4.652
N1280 X8.482 Y-4.627
N1285 X8.442 Y-4.586
N1290 X8.361 Y-4.502
N1295 X8.272 Y-4.397
N1300 X8.213 Y-4.32
N1305 X8.159 Y-4.244
N1310 X8.108 Y-4.166
N1315 X8.061 Y-4.086
N1320 X8.017 Y-4.005
N1325 X7.976 Y-3.921
N1330 X7.938 Y-3.837
N1335 X7.904 Y-3.75
N1340 X7.873 Y-3.663
N1345 X7.846 Y-3.574
N1350 X7.822 Y-3.484
N1355 X7.802 Y-3.394
N1360 X7.785 Y-3.302
N1365 X7.772 Y-3.209
N1370 X7.762 Y-3.116
N1375 X7.757 Y-3.022
N1380 X7.755 Y-2.935
N1385 Y3.703
N1390 X7.586 Y3.809
N1395 X7.299 Y3.98
N1400 X7.11 Y4.088
N1405 X6.85 Y4.23
N1410 X6.704 Y4.307
N1415 X6.534 Y4.394
N1420 X6.339 Y4.49
N1425 X6.115 Y4.596
N1430 X5.856 Y4.713
N1435 X5.557 Y4.84
N1440 X5.4 Y4.904
N1445 X5.229 Y4.971
N1450 X5.046 Y5.04
N1455 X4.851 Y5.111
N1460 X4.654 Y5.179
N1465 X4.457 Y5.244
N1470 X4.259 Y5.306
N1475 X4.061 Y5.365
N1480 X3.862 Y5.421
N1485 X3.662 Y5.475
N1490 X3.462 Y5.525
N1495 X3.261 Y5.573
N1500 X3.06 Y5.618
N1505 X2.858 Y5.659
N1510 X2.656 Y5.698
N1515 X2.453 Y5.734
N1520 X2.25 Y5.768
N1525 X2.046 Y5.798
N1530 X1.843 Y5.825
N1535 X1.639 Y5.85
N1540 X1.434 Y5.872
N1545 X1.23 Y5.89
N1550 X1.025 Y5.906
N1555 X.82 Y5.919
N1560 X.615 Y5.929
N1565 X.41 Y5.937
N1570 X.205 Y5.941
N1575 X0 Y5.942
N1580 X-.205 Y5.941
N1585 X-.41 Y5.937
N1590 X-.615 Y5.929
N1595 X-.82 Y5.919
N1600 X-1.025 Y5.906
N1605 X-1.23 Y5.89
N1610 X-1.434 Y5.872
N1615 X-1.639 Y5.85
N1620 X-1.843 Y5.825
N1625 X-2.046 Y5.798
N1630 X-2.25 Y5.768
N1635 X-2.453 Y5.734
N1640 X-2.656 Y5.698
N1645 X-2.858 Y5.659
N1650 X-3.06 Y5.618
N1655 X-3.261 Y5.573
N1660 X-3.462 Y5.525
N1665 X-3.662 Y5.475
N1670 X-3.862 Y5.421
N1675 X-4.061 Y5.365
N1680 X-4.259 Y5.306
N1685 X-4.457 Y5.244
N1690 X-4.654 Y5.179
N1695 X-4.851 Y5.111
N1700 X-5.046 Y5.04
N1705 X-5.241 Y4.967
N1710 X-5.435 Y4.89
N1715 X-5.628 Y4.811
N1720 X-5.82 Y4.728
N1725 X-6.012 Y4.643
N1730 X-6.202 Y4.555
N1735 X-6.392 Y4.464
N1740 X-6.58 Y4.37
N1745 X-6.767 Y4.274
N1750 X-6.954 Y4.174
N1755 X-7.139 Y4.072
N1760 X-7.323 Y3.966
N1765 X-7.506 Y3.858
N1770 X-7.687 Y3.747
N1775 X-7.755 Y3.704
N1780 Y.334
N1785 G03 X-7.726 Y.264 I.1 J0
N1790 G01 X-7.358 Y-.104
N1795 G00 Z3.
N1800 G90 G54 X-7.613 Y.973
N1805 G01 Z-.2 F750.
N1810 X-7.981 Y.605 F2250.
N1815 G03 X-8.01 Y.534 I.071 J-.071
N1820 G01 Y-2.978 F3000.
N1825 X-8.014 Y-3.093
N1830 X-8.024 Y-3.211
N1835 X-8.036 Y-3.294
N1840 X-8.051 Y-3.373
N1845 X-8.069 Y-3.452
N1850 X-8.09 Y-3.529
N1855 X-8.114 Y-3.606
N1860 X-8.141 Y-3.681
N1865 X-8.171 Y-3.756
N1870 X-8.205 Y-3.829
N1875 X-8.241 Y-3.9
N1880 X-8.28 Y-3.971
N1885 X-8.321 Y-4.039
N1890 X-8.366 Y-4.106
N1895 X-8.413 Y-4.172
N1900 X-8.463 Y-4.235
N1905 X-8.516 Y-4.297
N1910 X-8.572 Y-4.356
N1915 X-8.62 Y-4.404
N1920 X-8.664 Y-4.449
N1925 X-8.697 Y-4.487
N1930 X-8.714 Y-4.509
N1935 X-8.737 Y-4.543
N1940 X-8.766 Y-4.592
N1945 X-8.79 Y-4.641
N1950 X-8.81 Y-4.692
N1955 X-8.826 Y-4.743
N1960 X-8.838 Y-4.796
N1965 X-8.846 Y-4.85
N1970 X-8.85 Y-4.904
N1975 Y-4.958
N1980 X-8.846 Y-5.012
N1985 X-8.837 Y-5.065
N1990 X-8.825 Y-5.118
N1995 X-8.808 Y-5.17
N2000 X-8.788 Y-5.22
N2005 X-8.763 Y-5.27
N2010 X-8.735 Y-5.317
N2015 X-8.701 Y-5.363
N2020 X-8.663 Y-5.409
N2025 X-8.63 Y-5.443
N2030 X-8.592 Y-5.477
N2035 X-8.57 Y-5.494
N2040 X-8.537 Y-5.518
N2045 X-8.488 Y-5.548
N2050 X-8.439 Y-5.572
N2055 X-8.389 Y-5.593
N2060 X-8.338 Y-5.61
N2065 X-8.285 Y-5.623
N2070 X-8.232 Y-5.632
N2075 X-8.178 Y-5.637
N2080 X-8.124 Y-5.638
N2085 X-8.07 Y-5.634
N2090 X-8.016 Y-5.627
N2095 X-7.963 Y-5.616
N2100 X-7.911 Y-5.6
N2105 X-7.86 Y-5.58
N2110 X-7.81 Y-5.557
N2115 X-7.762 Y-5.529
N2120 X-7.716 Y-5.496
N2125 X-7.658 Y-5.45
N2130 X-7.563 Y-5.369
N2135 X-7.454 Y-5.286
N2140 X-7.375 Y-5.23
N2145 X-7.272 Y-5.164
N2150 X-7.166 Y-5.102
N2155 X-7.058 Y-5.044
N2160 X-6.947 Y-4.991
N2165 X-6.835 Y-4.943
N2170 X-6.72 Y-4.9
N2175 X-6.604 Y-4.861
N2180 X-6.486 Y-4.828
N2185 X-6.367 Y-4.799
N2190 X-6.247 Y-4.776
N2195 X-6.126 Y-4.757
N2200 X-6.004 Y-4.744
N2205 X-5.881 Y-4.736
N2210 X-5.757 Y-4.733
N2215 X-5.634 Y-4.736
N2220 X-5.51 Y-4.744
N2225 X-5.385 Y-4.757
N2230 X-5.247 Y-4.778
N2235 X-5.112 Y-4.806
N2240 X-5.018 Y-4.829
N2245 X-4.901 Y-4.862
N2250 X-4.784 Y-4.901
N2255 X-4.669 Y-4.945
N2260 X-4.557 Y-4.993
N2265 X-4.446 Y-5.046
N2270 X-4.338 Y-5.104
N2275 X-4.233 Y-5.166
N2280 X-4.13 Y-5.233
N2285 X-4.031 Y-5.304
N2290 X-3.934 Y-5.379
N2295 X-3.84 Y-5.458
N2300 X-3.75 Y-5.541
N2305 X-3.663 Y-5.629
N2310 X-3.58 Y-5.72
N2315 X-3.5 Y-5.815
N2320 X-3.425 Y-5.913
N2325 X-3.362 Y-6.003
N2330 X-3.332 Y-6.043
N2335 X-3.308 Y-6.071
N2340 X-3.297 Y-6.082
N2345 X-3.273 Y-6.103
N2350 X-3.251 Y-6.121
N2355 X-3.227 Y-6.137
N2360 X-3.202 Y-6.151
N2365 X-3.176 Y-6.163
N2370 X-3.149 Y-6.174
N2375 X-3.122 Y-6.182
N2380 X-3.094 Y-6.189
N2385 X-3.065 Y-6.194
N2390 X-3.037 Y-6.196
N2395 X-3.008 Y-6.197
N2400 X-2.979 Y-6.196
N2405 X-2.951 Y-6.193
N2410 X-2.922 Y-6.187
N2415 X-2.894 Y-6.18
N2420 X-2.866 Y-6.17
N2425 X-2.826 Y-6.153
N2430 X-2.649 Y-6.072
N2435 X-2.459 Y-5.991
N2440 X-2.33 Y-5.939
N2445 X-2.158 Y-5.874
N2450 X-1.93 Y-5.795
N2455 X-1.795 Y-5.752
N2460 X-1.644 Y-5.706
N2465 X-1.491 Y-5.663
N2470 X-1.337 Y-5.623
N2475 X-1.183 Y-5.586
N2480 X-1.028 Y-5.553
N2485 X-.873 Y-5.522
N2490 X-.718 Y-5.494
N2495 X-.562 Y-5.47
N2500 X-.405 Y-5.448
N2505 X-.248 Y-5.43
N2510 X-.091 Y-5.415
N2515 X.066 Y-5.402
N2520 X.224 Y-5.393
N2525 X.381 Y-5.387
N2530 X.539 Y-5.384
N2535 X.697
N2540 X.855 Y-5.387
N2545 X1.013 Y-5.393
N2550 X1.17 Y-5.403
N2555 X1.328 Y-5.415
N2560 X1.485 Y-5.43
N2565 X1.643 Y-5.449
N2570 X1.799 Y-5.47
N2575 X1.956 Y-5.495
N2580 X2.112 Y-5.523
N2585 X2.268 Y-5.554
N2590 X2.424 Y-5.588
N2595 X2.579 Y-5.625
N2600 X2.733 Y-5.665
N2605 X2.887 Y-5.709
N2610 X3.04 Y-5.755
N2615 X3.193 Y-5.805
N2620 X3.332 Y-5.853
N2625 X3.378 Y-5.867
N2630 X3.411 Y-5.875
N2635 X3.445 Y-5.879
N2640 X3.479 Y-5.881
N2645 X3.513 Y-5.88
N2650 X3.547 Y-5.876
N2655 X3.58 Y-5.869
N2660 X3.613 Y-5.859
N2665 X3.645 Y-5.847
N2670 X3.689 Y-5.826
N2675 X3.821 Y-5.758
N2680 X3.966 Y-5.688
N2685 X4.067 Y-5.644
N2690 X4.2 Y-5.589
N2695 X4.375 Y-5.523
N2700 X4.48 Y-5.487
N2705 X4.584 Y-5.454
N2710 X4.688 Y-5.424
N2715 X4.793 Y-5.396
N2720 X4.898 Y-5.37
N2725 X5.003 Y-5.346
N2730 X5.109 Y-5.325
N2735 X5.215 Y-5.306
N2740 X5.322 Y-5.289
N2745 X5.429 Y-5.275
N2750 X5.536 Y-5.263
N2755 X5.644 Y-5.253
N2760 X5.751 Y-5.245
N2765 X5.859 Y-5.24
N2770 X5.967 Y-5.238
N2775 X6.074 Y-5.237
N2780 X6.182 Y-5.239
N2785 X6.29 Y-5.243
N2790 X6.398 Y-5.25
N2795 X6.506 Y-5.259
N2800 X6.613 Y-5.27
N2805 X6.721 Y-5.284
N2810 X6.828 Y-5.3
N2815 X6.935 Y-5.318
N2820 X7.041 Y-5.338
N2825 X7.148 Y-5.361
N2830 X7.254 Y-5.387
N2835 X7.359 Y-5.414
N2840 X7.464 Y-5.444
N2845 X7.569 Y-5.477
N2850 X7.673 Y-5.512
N2855 X7.776 Y-5.549
N2860 X7.868 Y-5.584
N2865 X7.933 Y-5.607
N2870 X7.99 Y-5.622
N2875 X8.021 Y-5.628
N2880 X8.072 Y-5.635
N2885 X8.12 Y-5.638
N2890 X8.168
N2895 X8.216 Y-5.634
N2900 X8.263 Y-5.627
N2905 X8.31 Y-5.617
N2910 X8.356 Y-5.604
N2915 X8.402 Y-5.588
N2920 X8.446 Y-5.569
N2925 X8.488 Y-5.547
N2930 X8.529 Y-5.522
N2935 X8.569 Y-5.495
N2940 X8.606 Y-5.464
N2945 X8.642 Y-5.431
N2950 X8.676 Y-5.395
N2955 X8.707 Y-5.356
N2960 X8.735 Y-5.316
N2965 X8.765 Y-5.266
N2970 X8.791 Y-5.213
N2975 X8.803 Y-5.184
N2980 X8.82 Y-5.136
N2985 X8.832 Y-5.089
N2990 X8.842 Y-5.042
N2995 X8.848 Y-4.994
N3000 X8.85 Y-4.946
N3005 Y-4.898
N3010 X8.846 Y-4.85
N3015 X8.84 Y-4.803
N3020 X8.83 Y-4.756
N3025 X8.816 Y-4.71
N3030 X8.8 Y-4.665
N3035 X8.781 Y-4.621
N3040 X8.758 Y-4.578
N3045 X8.733 Y-4.536
N3050 X8.704 Y-4.496
N3055 X8.672 Y-4.458
N3060 X8.626 Y-4.41
N3065 X8.55 Y-4.33
N3070 X8.47 Y-4.237
N3075 X8.418 Y-4.169
N3080 X8.37 Y-4.101
N3085 X8.325 Y-4.031
N3090 X8.283 Y-3.96
N3095 X8.243 Y-3.887
N3100 X8.207 Y-3.813
N3105 X8.173 Y-3.738
N3110 X8.143 Y-3.661
N3115 X8.115 Y-3.583
N3120 X8.091 Y-3.504
N3125 X8.07 Y-3.424
N3130 X8.052 Y-3.343
N3135 X8.037 Y-3.261
N3140 X8.025 Y-3.179
N3145 X8.017 Y-3.095
N3150 X8.012 Y-3.012
N3155 X8.01 Y-2.933
N3160 Y3.826
N3165 X8.006 Y3.846
N3170 X7.997 Y3.852
N3175 X7.718 Y4.027
N3180 X7.428 Y4.2
N3185 X7.234 Y4.31
N3190 X6.971 Y4.454
N3195 X6.821 Y4.533
N3200 X6.649 Y4.621
N3205 X6.45 Y4.719
N3210 X6.222 Y4.828
N3215 X5.959 Y4.946
N3220 X5.655 Y5.076
N3225 X5.494 Y5.141
N3230 X5.321 Y5.209
N3235 X5.135 Y5.279
N3240 X4.936 Y5.351
N3245 X4.736 Y5.42
N3250 X4.535 Y5.486
N3255 X4.334 Y5.55
N3260 X4.132 Y5.61
N3265 X3.93 Y5.667
N3270 X3.726 Y5.721
N3275 X3.523 Y5.773
N3280 X3.318 Y5.821
N3285 X3.113 Y5.867
N3290 X2.908 Y5.909
N3295 X2.702 Y5.949
N3300 X2.496 Y5.986
N3305 X2.289 Y6.02
N3310 X2.082 Y6.05
N3315 X1.875 Y6.078
N3320 X1.667 Y6.103
N3325 X1.46 Y6.125
N3330 X1.251 Y6.144
N3335 X1.043 Y6.161
N3340 X.835 Y6.174
N3345 X.626 Y6.184
N3350 X.417 Y6.191
N3355 X.209 Y6.196
N3360 X0 Y6.197
N3365 X-.209 Y6.196
N3370 X-.417 Y6.191
N3375 X-.626 Y6.184
N3380 X-.835 Y6.174
N3385 X-1.043 Y6.161
N3390 X-1.251 Y6.144
N3395 X-1.46 Y6.125
N3400 X-1.667 Y6.103
N3405 X-1.875 Y6.078
N3410 X-2.082 Y6.05
N3415 X-2.289 Y6.02
N3420 X-2.496 Y5.986
N3425 X-2.702 Y5.949
N3430 X-2.908 Y5.909
N3435 X-3.113 Y5.867
N3440 X-3.318 Y5.821
N3445 X-3.523 Y5.773
N3450 X-3.726 Y5.721
N3455 X-3.93 Y5.667
N3460 X-4.132 Y5.61
N3465 X-4.334 Y5.55
N3470 X-4.535 Y5.486
N3475 X-4.736 Y5.42
N3480 X-4.936 Y5.351
N3485 X-5.135 Y5.279
N3490 X-5.333 Y5.204
N3495 X-5.53 Y5.127
N3500 X-5.727 Y5.046
N3505 X-5.922 Y4.962
N3510 X-6.117 Y4.875
N3515 X-6.311 Y4.786
N3520 X-6.504 Y4.693
N3525 X-6.695 Y4.598
N3530 X-6.886 Y4.499
N3535 X-7.075 Y4.398
N3540 X-7.264 Y4.294
N3545 X-7.451 Y4.187
N3550 X-7.637 Y4.076
N3555 X-7.822 Y3.963
N3560 X-7.996 Y3.853
N3565 X-8.009 Y3.84
N3570 X-8.01 Y3.826
N3575 Y.334
N3580 G03 X-7.981 Y.264 I.1 J0
N3585 G01 X-7.613 Y-.104
N3590 G00 Z3.
N3595 G90 G54 X-7.358 Y.973
N3600 Z2.8
N3605 G01 Z-.3 F750.
N3610 X-7.726 Y.605 F2250.
N3615 G03 X-7.755 Y.534 I.071 J-.071
N3620 G01 Y-2.982 F3000.
N3625 X-7.759 Y-3.108
N3630 X-7.771 Y-3.241
N3635 X-7.785 Y-3.335
N3640 X-7.801 Y-3.425
N3645 X-7.822 Y-3.513
N3650 X-7.845 Y-3.601
N3655 X-7.872 Y-3.687
N3660 X-7.903 Y-3.772
N3665 X-7.937 Y-3.856
N3670 X-7.974 Y-3.939
N3675 X-8.015 Y-4.02
N3680 X-8.059 Y-4.099
N3685 X-8.106 Y-4.176
N3690 X-8.157 Y-4.252
N3695 X-8.21 Y-4.326
N3700 X-8.267 Y-4.397
N3705 X-8.326 Y-4.467
N3710 X-8.389 Y-4.534
N3715 X-8.44 Y-4.584
N3720 X-8.476 Y-4.621
N3725 X-8.499 Y-4.648
N3730 X-8.507 Y-4.659
N3735 X-8.522 Y-4.68
N3740 X-8.542 Y-4.713
N3745 X-8.557 Y-4.744
N3750 X-8.57 Y-4.776
N3755 X-8.58 Y-4.81
N3760 X-8.587 Y-4.843
N3765 X-8.593 Y-4.878
N3770 X-8.595 Y-4.913
N3775 Y-4.947
N3780 X-8.592 Y-4.982
N3785 X-8.587 Y-5.016
N3790 X-8.579 Y-5.05
N3795 X-8.568 Y-5.083
N3800 X-8.555 Y-5.115
N3805 X-8.54 Y-5.147
N3810 X-8.521 Y-5.177
N3815 X-8.5 Y-5.207
N3820 X-8.474 Y-5.237
N3825 X-8.453 Y-5.258
N3830 X-8.427 Y-5.282
N3835 X-8.417 Y-5.29
N3840 X-8.396 Y-5.305
N3845 X-8.363 Y-5.325
N3850 X-8.332 Y-5.341
N3855 X-8.3 Y-5.354
N3860 X-8.267 Y-5.365
N3865 X-8.233 Y-5.373
N3870 X-8.199 Y-5.379
N3875 X-8.164 Y-5.382
N3880 X-8.13 Y-5.383
N3885 X-8.095 Y-5.381
N3890 X-8.061 Y-5.376
N3895 X-8.027 Y-5.368
N3900 X-7.994 Y-5.359
N3905 X-7.961 Y-5.346
N3910 X-7.93 Y-5.331
N3915 X-7.899 Y-5.313
N3920 X-7.869 Y-5.292
N3925 X-7.821 Y-5.253
N3930 X-7.723 Y-5.17
N3935 X-7.604 Y-5.08
N3940 X-7.517 Y-5.019
N3945 X-7.406 Y-4.947
N3950 X-7.291 Y-4.879
N3955 X-7.173 Y-4.816
N3960 X-7.052 Y-4.759
N3965 X-6.93 Y-4.706
N3970 X-6.805 Y-4.659
N3975 X-6.679 Y-4.617
N3980 X-6.551 Y-4.581
N3985 X-6.421 Y-4.55
N3990 X-6.291 Y-4.524
N3995 X-6.159 Y-4.504
N4000 X-6.026 Y-4.49
N4005 X-5.892 Y-4.481
N4010 X-5.758 Y-4.478
N4015 X-5.623 Y-4.481
N4020 X-5.488 Y-4.49
N4025 X-5.352 Y-4.504
N4030 X-5.202 Y-4.527
N4035 X-5.056 Y-4.557
N4040 X-4.953 Y-4.582
N4045 X-4.826 Y-4.619
N4050 X-4.698 Y-4.661
N4055 X-4.573 Y-4.708
N4060 X-4.451 Y-4.761
N4065 X-4.331 Y-4.819
N4070 X-4.213 Y-4.882
N4075 X-4.099 Y-4.949
N4080 X-3.987 Y-5.022
N4085 X-3.878 Y-5.099
N4090 X-3.773 Y-5.181
N4095 X-3.671 Y-5.267
N4100 X-3.573 Y-5.358
N4105 X-3.479 Y-5.453
N4110 X-3.388 Y-5.552
N4115 X-3.301 Y-5.655
N4120 X-3.219 Y-5.762
N4125 X-3.154 Y-5.854
N4130 X-3.133 Y-5.884
N4135 X-3.121 Y-5.897
N4140 X-3.111 Y-5.907
N4145 X-3.102 Y-5.913
N4150 X-3.093 Y-5.919
N4155 X-3.084 Y-5.924
N4160 X-3.074 Y-5.929
N4165 X-3.064 Y-5.933
N4170 X-3.054 Y-5.936
N4175 X-3.043 Y-5.939
N4180 X-3.032 Y-5.941
N4185 X-3.021 Y-5.942
N4190 X-3.01
N4195 X-3. Y-5.941
N4200 X-2.989 Y-5.94
N4205 X-2.979 Y-5.938
N4210 X-2.968 Y-5.935
N4215 X-2.957 Y-5.932
N4220 X-2.93 Y-5.92
N4225 X-2.752 Y-5.839
N4230 X-2.556 Y-5.755
N4235 X-2.422 Y-5.702
N4240 X-2.245 Y-5.635
N4245 X-2.011 Y-5.553
N4250 X-1.871 Y-5.508
N4255 X-1.715 Y-5.461
N4260 X-1.557 Y-5.417
N4265 X-1.399 Y-5.376
N4270 X-1.24 Y-5.338
N4275 X-1.08 Y-5.303
N4280 X-.92 Y-5.271
N4285 X-.76 Y-5.243
N4290 X-.599 Y-5.218
N4295 X-.437 Y-5.195
N4300 X-.276 Y-5.176
N4305 X-.113 Y-5.161
N4310 X.049 Y-5.148
N4315 X.211 Y-5.138
N4320 X.374 Y-5.132
N4325 X.537 Y-5.129
N4330 X.699
N4335 X.862 Y-5.132
N4340 X1.025 Y-5.139
N4345 X1.188 Y-5.148
N4350 X1.35 Y-5.161
N4355 X1.513 Y-5.177
N4360 X1.675 Y-5.196
N4365 X1.837 Y-5.218
N4370 X1.998 Y-5.244
N4375 X2.16 Y-5.272
N4380 X2.32 Y-5.304
N4385 X2.481 Y-5.339
N4390 X2.641 Y-5.378
N4395 X2.8 Y-5.419
N4400 X2.958 Y-5.464
N4405 X3.116 Y-5.512
N4410 X3.274 Y-5.563
N4415 X3.412 Y-5.611
N4420 X3.443 Y-5.62
N4425 X3.456 Y-5.623
N4430 X3.469 Y-5.625
N4435 X3.481 Y-5.626
N4440 X3.494 Y-5.625
N4445 X3.507 Y-5.624
N4450 X3.519 Y-5.621
N4455 X3.532 Y-5.618
N4460 X3.544 Y-5.613
N4465 X3.575 Y-5.598
N4470 X3.708 Y-5.529
N4475 X3.86 Y-5.457
N4480 X3.967 Y-5.409
N4485 X4.106 Y-5.352
N4490 X4.289 Y-5.283
N4495 X4.401 Y-5.245
N4500 X4.509 Y-5.21
N4505 X4.619 Y-5.178
N4510 X4.729 Y-5.149
N4515 X4.839 Y-5.121
N4520 X4.95 Y-5.097
N4525 X5.062 Y-5.074
N4530 X5.173 Y-5.054
N4535 X5.285 Y-5.037
N4540 X5.398 Y-5.022
N4545 X5.51 Y-5.009
N4550 X5.623 Y-4.999
N4555 X5.736 Y-4.991
N4560 X5.849 Y-4.986
N4565 X5.963 Y-4.983
N4570 X6.076 Y-4.982
N4575 X6.189 Y-4.984
N4580 X6.303 Y-4.989
N4585 X6.416 Y-4.996
N4590 X6.529 Y-5.005
N4595 X6.642 Y-5.017
N4600 X6.755 Y-5.031
N4605 X6.868 Y-5.048
N4610 X6.98 Y-5.067
N4615 X7.092 Y-5.089
N4620 X7.204 Y-5.113
N4625 X7.316 Y-5.139
N4630 X7.426 Y-5.168
N4635 X7.537 Y-5.2
N4640 X7.647 Y-5.234
N4645 X7.756 Y-5.271
N4650 X7.865 Y-5.31
N4655 X7.956 Y-5.344
N4660 X8.008 Y-5.363
N4665 X8.047 Y-5.373
N4670 X8.063 Y-5.376
N4675 X8.097 Y-5.381
N4680 X8.127 Y-5.383
N4685 X8.158
N4690 X8.189 Y-5.38
N4695 X8.219 Y-5.376
N4700 X8.249 Y-5.37
N4705 X8.279 Y-5.361
N4710 X8.308 Y-5.351
N4715 X8.336 Y-5.339
N4720 X8.364 Y-5.325
N4725 X8.39 Y-5.309
N4730 X8.415 Y-5.291
N4735 X8.439 Y-5.272
N4740 X8.462 Y-5.25
N4745 X8.483 Y-5.227
N4750 X8.503 Y-5.203
N4755 X8.521 Y-5.177
N4760 X8.541 Y-5.144
N4765 X8.559 Y-5.108
N4770 X8.565 Y-5.094
N4775 X8.576 Y-5.061
N4780 X8.584 Y-5.031
N4785 X8.59 Y-5.001
N4790 X8.594 Y-4.971
N4795 X8.595 Y-4.94
N4800 Y-4.909
N4805 X8.593 Y-4.878
N4810 X8.588 Y-4.848
N4815 X8.582 Y-4.818
N4820 X8.573 Y-4.788
N4825 X8.563 Y-4.759
N4830 X8.551 Y-4.731
N4835 X8.536 Y-4.704
N4840 X8.52 Y-4.677
N4845 X8.502 Y-4.652
N4850 X8.482 Y-4.627
N4855 X8.442 Y-4.586
N4860 X8.361 Y-4.502
N4865 X8.272 Y-4.397
N4870 X8.213 Y-4.32
N4875 X8.159 Y-4.244
N4880 X8.108 Y-4.166
N4885 X8.061 Y-4.086
N4890 X8.017 Y-4.005
N4895 X7.976 Y-3.921
N4900 X7.938 Y-3.837
N4905 X7.904 Y-3.75
N4910 X7.873 Y-3.663
N4915 X7.846 Y-3.574
N4920 X7.822 Y-3.484
N4925 X7.802 Y-3.394
N4930 X7.785 Y-3.302
N4935 X7.772 Y-3.209
N4940 X7.762 Y-3.116
N4945 X7.757 Y-3.022
N4950 X7.755 Y-2.935
N4955 Y3.703
N4960 X7.586 Y3.809
N4965 X7.299 Y3.98
N4970 X7.11 Y4.088
N4975 X6.85 Y4.23
N4980 X6.704 Y4.307
N4985 X6.534 Y4.394
N4990 X6.339 Y4.49
N4995 X6.115 Y4.596
N5000 X5.856 Y4.713
N5005 X5.557 Y4.84
N5010 X5.4 Y4.904
N5015 X5.229 Y4.971
N5020 X5.046 Y5.04
N5025 X4.851 Y5.111
N5030 X4.654 Y5.179
N5035 X4.457 Y5.244
N5040 X4.259 Y5.306
N5045 X4.061 Y5.365
N5050 X3.862 Y5.421
N5055 X3.662 Y5.475
N5060 X3.462 Y5.525
N5065 X3.261 Y5.573
N5070 X3.06 Y5.618
N5075 X2.858 Y5.659
N5080 X2.656 Y5.698
N5085 X2.453 Y5.734
N5090 X2.25 Y5.768
N5095 X2.046 Y5.798
N5100 X1.843 Y5.825
N5105 X1.639 Y5.85
N5110 X1.434 Y5.872
N5115 X1.23 Y5.89
N5120 X1.025 Y5.906
N5125 X.82 Y5.919
N5130 X.615 Y5.929
N5135 X.41 Y5.937
N5140 X.205 Y5.941
N5145 X0 Y5.942
N5150 X-.205 Y5.941
N5155 X-.41 Y5.937
N5160 X-.615 Y5.929
N5165 X-.82 Y5.919
N5170 X-1.025 Y5.906
N5175 X-1.23 Y5.89
N5180 X-1.434 Y5.872
N5185 X-1.639 Y5.85
N5190 X-1.843 Y5.825
N5195 X-2.046 Y5.798
N5200 X-2.25 Y5.768
N5205 X-2.453 Y5.734
N5210 X-2.656 Y5.698
N5215 X-2.858 Y5.659
N5220 X-3.06 Y5.618
N5225 X-3.261 Y5.573
N5230 X-3.462 Y5.525
N5235 X-3.662 Y5.475
N5240 X-3.862 Y5.421
N5245 X-4.061 Y5.365
N5250 X-4.259 Y5.306
N5255 X-4.457 Y5.244
N5260 X-4.654 Y5.179
N5265 X-4.851 Y5.111
N5270 X-5.046 Y5.04
N5275 X-5.241 Y4.967
N5280 X-5.435 Y4.89
N5285 X-5.628 Y4.811
N5290 X-5.82 Y4.728
N5295 X-6.012 Y4.643
N5300 X-6.202 Y4.555
N5305 X-6.392 Y4.464
N5310 X-6.58 Y4.37
N5315 X-6.767 Y4.274
N5320 X-6.954 Y4.174
N5325 X-7.139 Y4.072
N5330 X-7.323 Y3.966
N5335 X-7.506 Y3.858
N5340 X-7.687 Y3.747
N5345 X-7.755 Y3.704
N5350 Y.334
N5355 G03 X-7.726 Y.264 I.1 J0
N5360 G01 X-7.358 Y-.104
N5365 G00 Z3.
N5370 G90 G54 X-7.613 Y.973
N5375 Z2.8
N5380 G01 Z-.3 F750.
N5385 X-7.981 Y.605 F2250.
N5390 G03 X-8.01 Y.534 I.071 J-.071
N5395 G01 Y-2.978 F3000.
N5400 X-8.014 Y-3.093
N5405 X-8.024 Y-3.211
N5410 X-8.036 Y-3.294
N5415 X-8.051 Y-3.373
N5420 X-8.069 Y-3.452
N5425 X-8.09 Y-3.529
N5430 X-8.114 Y-3.606
N5435 X-8.141 Y-3.681
N5440 X-8.171 Y-3.756
N5445 X-8.205 Y-3.829
N5450 X-8.241 Y-3.9
N5455 X-8.28 Y-3.971
N5460 X-8.321 Y-4.039
N5465 X-8.366 Y-4.106
N5470 X-8.413 Y-4.172
N5475 X-8.463 Y-4.235
N5480 X-8.516 Y-4.297
N5485 X-8.572 Y-4.356
N5490 X-8.62 Y-4.404
N5495 X-8.664 Y-4.449
N5500 X-8.697 Y-4.487
N5505 X-8.714 Y-4.509
N5510 X-8.737 Y-4.543
N5515 X-8.766 Y-4.592
N5520 X-8.79 Y-4.641
N5525 X-8.81 Y-4.692
N5530 X-8.826 Y-4.743
N5535 X-8.838 Y-4.796
N5540 X-8.846 Y-4.85
N5545 X-8.85 Y-4.904
N5550 Y-4.958
N5555 X-8.846 Y-5.012
N5560 X-8.837 Y-5.065
N5565 X-8.825 Y-5.118
N5570 X-8.808 Y-5.17
N5575 X-8.788 Y-5.22
N5580 X-8.763 Y-5.27
N5585 X-8.735 Y-5.317
N5590 X-8.701 Y-5.363
N5595 X-8.663 Y-5.409
N5600 X-8.63 Y-5.443
N5605 X-8.592 Y-5.477
N5610 X-8.57 Y-5.494
N5615 X-8.537 Y-5.518
N5620 X-8.488 Y-5.548
N5625 X-8.439 Y-5.572
N5630 X-8.389 Y-5.593
N5635 X-8.338 Y-5.61
N5640 X-8.285 Y-5.623
N5645 X-8.232 Y-5.632
N5650 X-8.178 Y-5.637
N5655 X-8.124 Y-5.638
N5660 X-8.07 Y-5.634
N5665 X-8.016 Y-5.627
N5670 X-7.963 Y-5.616
N5675 X-7.911 Y-5.6
N5680 X-7.86 Y-5.58
N5685 X-7.81 Y-5.557
N5690 X-7.762 Y-5.529
N5695 X-7.716 Y-5.496
N5700 X-7.658 Y-5.45
N5705 X-7.563 Y-5.369
N5710 X-7.454 Y-5.286
N5715 X-7.375 Y-5.23
N5720 X-7.272 Y-5.164
N5725 X-7.166 Y-5.102
N5730 X-7.058 Y-5.044
N5735 X-6.947 Y-4.991
N5740 X-6.835 Y-4.943
N5745 X-6.72 Y-4.9
N5750 X-6.604 Y-4.861
N5755 X-6.486 Y-4.828
N5760 X-6.367 Y-4.799
N5765 X-6.247 Y-4.776
N5770 X-6.126 Y-4.757
N5775 X-6.004 Y-4.744
N5780 X-5.881 Y-4.736
N5785 X-5.757 Y-4.733
N5790 X-5.634 Y-4.736
N5795 X-5.51 Y-4.744
N5800 X-5.385 Y-4.757
N5805 X-5.247 Y-4.778
N5810 X-5.112 Y-4.806
N5815 X-5.018 Y-4.829
N5820 X-4.901 Y-4.862
N5825 X-4.784 Y-4.901
N5830 X-4.669 Y-4.945
N5835 X-4.557 Y-4.993
N5840 X-4.446 Y-5.046
N5845 X-4.338 Y-5.104
N5850 X-4.233 Y-5.166
N5855 X-4.13 Y-5.233
N5860 X-4.031 Y-5.304
N5865 X-3.934 Y-5.379
N5870 X-3.84 Y-5.458
N5875 X-3.75 Y-5.541
N5880 X-3.663 Y-5.629
N5885 X-3.58 Y-5.72
N5890 X-3.5 Y-5.815
N5895 X-3.425 Y-5.913
N5900 X-3.362 Y-6.003
N5905 X-3.332 Y-6.043
N5910 X-3.308 Y-6.071
N5915 X-3.297 Y-6.082
N5920 X-3.273 Y-6.103
N5925 X-3.251 Y-6.121
N5930 X-3.227 Y-6.137
N5935 X-3.202 Y-6.151
N5940 X-3.176 Y-6.163
N5945 X-3.149 Y-6.174
N5950 X-3.122 Y-6.182
N5955 X-3.094 Y-6.189
N5960 X-3.065 Y-6.194
N5965 X-3.037 Y-6.196
N5970 X-3.008 Y-6.197
N5975 X-2.979 Y-6.196
N5980 X-2.951 Y-6.193
N5985 X-2.922 Y-6.187
N5990 X-2.894 Y-6.18
N5995 X-2.866 Y-6.17
N6000 X-2.826 Y-6.153
N6005 X-2.649 Y-6.072
N6010 X-2.459 Y-5.991
N6015 X-2.33 Y-5.939
N6020 X-2.158 Y-5.874
N6025 X-1.93 Y-5.795
N6030 X-1.795 Y-5.752
N6035 X-1.644 Y-5.706
N6040 X-1.491 Y-5.663
N6045 X-1.337 Y-5.623
N6050 X-1.183 Y-5.586
N6055 X-1.028 Y-5.553
N6060 X-.873 Y-5.522
N6065 X-.718 Y-5.494
N6070 X-.562 Y-5.47
N6075 X-.405 Y-5.448
N6080 X-.248 Y-5.43
N6085 X-.091 Y-5.415
N6090 X.066 Y-5.402
N6095 X.224 Y-5.393
N6100 X.381 Y-5.387
N6105 X.539 Y-5.384
N6110 X.697
N6115 X.855 Y-5.387
N6120 X1.013 Y-5.393
N6125 X1.17 Y-5.403
N6130 X1.328 Y-5.415
N6135 X1.485 Y-5.43
N6140 X1.643 Y-5.449
N6145 X1.799 Y-5.47
N6150 X1.956 Y-5.495
N6155 X2.112 Y-5.523
N6160 X2.268 Y-5.554
N6165 X2.424 Y-5.588
N6170 X2.579 Y-5.625
N6175 X2.733 Y-5.665
N6180 X2.887 Y-5.709
N6185 X3.04 Y-5.755
N6190 X3.193 Y-5.805
N6195 X3.332 Y-5.853
N6200 X3.378 Y-5.867
N6205 X3.411 Y-5.875
N6210 X3.445 Y-5.879
N6215 X3.479 Y-5.881
N6220 X3.513 Y-5.88
N6225 X3.547 Y-5.876
N6230 X3.58 Y-5.869
N6235 X3.613 Y-5.859
N6240 X3.645 Y-5.847
N6245 X3.689 Y-5.826
N6250 X3.821 Y-5.758
N6255 X3.966 Y-5.688
N6260 X4.067 Y-5.644
N6265 X4.2 Y-5.589
N6270 X4.375 Y-5.523
N6275 X4.48 Y-5.487
N6280 X4.584 Y-5.454
N6285 X4.688 Y-5.424
N6290 X4.793 Y-5.396
N6295 X4.898 Y-5.37
N6300 X5.003 Y-5.346
N6305 X5.109 Y-5.325
N6310 X5.215 Y-5.306
N6315 X5.322 Y-5.289
N6320 X5.429 Y-5.275
N6325 X5.536 Y-5.263
N6330 X5.644 Y-5.253
N6335 X5.751 Y-5.245
N6340 X5.859 Y-5.24
N6345 X5.967 Y-5.238
N6350 X6.074 Y-5.237
N6355 X6.182 Y-5.239
N6360 X6.29 Y-5.243
N6365 X6.398 Y-5.25
N6370 X6.506 Y-5.259
N6375 X6.613 Y-5.27
N6380 X6.721 Y-5.284
N6385 X6.828 Y-5.3
N6390 X6.935 Y-5.318
N6395 X7.041 Y-5.338
N6400 X7.148 Y-5.361
N6405 X7.254 Y-5.387
N6410 X7.359 Y-5.414
N6415 X7.464 Y-5.444
N6420 X7.569 Y-5.477
N6425 X7.673 Y-5.512
N6430 X7.776 Y-5.549
N6435 X7.868 Y-5.584
N6440 X7.933 Y-5.607
N6445 X7.99 Y-5.622
N6450 X8.021 Y-5.628
N6455 X8.072 Y-5.635
N6460 X8.12 Y-5.638
N6465 X8.168
N6470 X8.216 Y-5.634
N6475 X8.263 Y-5.627
N6480 X8.31 Y-5.617
N6485 X8.356 Y-5.604
N6490 X8.402 Y-5.588
N6495 X8.446 Y-5.569
N6500 X8.488 Y-5.547
N6505 X8.529 Y-5.522
N6510 X8.569 Y-5.495
N6515 X8.606 Y-5.464
N6520 X8.642 Y-5.431
N6525 X8.676 Y-5.395
N6530 X8.707 Y-5.356
N6535 X8.735 Y-5.316
N6540 X8.765 Y-5.266
N6545 X8.791 Y-5.213
N6550 X8.803 Y-5.184
N6555 X8.82 Y-5.136
N6560 X8.832 Y-5.089
N6565 X8.842 Y-5.042
N6570 X8.848 Y-4.994
N6575 X8.85 Y-4.946
N6580 Y-4.898
N6585 X8.846 Y-4.85
N6590 X8.84 Y-4.803
N6595 X8.83 Y-4.756
N6600 X8.816 Y-4.71
N6605 X8.8 Y-4.665
N6610 X8.781 Y-4.621
N6615 X8.758 Y-4.578
N6620 X8.733 Y-4.536
N6625 X8.704 Y-4.496
N6630 X8.672 Y-4.458
N6635 X8.626 Y-4.41
N6640 X8.55 Y-4.33
N6645 X8.47 Y-4.237
N6650 X8.418 Y-4.169
N6655 X8.37 Y-4.101
N6660 X8.325 Y-4.031
N6665 X8.283 Y-3.96
N6670 X8.243 Y-3.887
N6675 X8.207 Y-3.813
N6680 X8.173 Y-3.738
N6685 X8.143 Y-3.661
N6690 X8.115 Y-3.583
N6695 X8.091 Y-3.504
N6700 X8.07 Y-3.424
N6705 X8.052 Y-3.343
N6710 X8.037 Y-3.261
N6715 X8.025 Y-3.179
N6720 X8.017 Y-3.095
N6725 X8.012 Y-3.012
N6730 X8.01 Y-2.933
N6735 Y3.826
N6740 X8.006 Y3.846
N6745 X7.997 Y3.852
N6750 X7.718 Y4.027
N6755 X7.428 Y4.2
N6760 X7.234 Y4.31
N6765 X6.971 Y4.454
N6770 X6.821 Y4.533
N6775 X6.649 Y4.621
N6780 X6.45 Y4.719
N6785 X6.222 Y4.828
N6790 X5.959 Y4.946
N6795 X5.655 Y5.076
N6800 X5.494 Y5.141
N6805 X5.321 Y5.209
N6810 X5.135 Y5.279
N6815 X4.936 Y5.351
N6820 X4.736 Y5.42
N6825 X4.535 Y5.486
N6830 X4.334 Y5.55
N6835 X4.132 Y5.61
N6840 X3.93 Y5.667
N6845 X3.726 Y5.721
N6850 X3.523 Y5.773
N6855 X3.318 Y5.821
N6860 X3.113 Y5.867
N6865 X2.908 Y5.909
N6870 X2.702 Y5.949
N6875 X2.496 Y5.986
N6880 X2.289 Y6.02
N6885 X2.082 Y6.05
N6890 X1.875 Y6.078
N6895 X1.667 Y6.103
N6900 X1.46 Y6.125
N6905 X1.251 Y6.144
N6910 X1.043 Y6.161
N6915 X.835 Y6.174
N6920 X.626 Y6.184
N6925 X.417 Y6.191
N6930 X.209 Y6.196
N6935 X0 Y6.197
N6940 X-.209 Y6.196
N6945 X-.417 Y6.191
N6950 X-.626 Y6.184
N6955 X-.835 Y6.174
N6960 X-1.043 Y6.161
N6965 X-1.251 Y6.144
N6970 X-1.46 Y6.125
N6975 X-1.667 Y6.103
N6980 X-1.875 Y6.078
N6985 X-2.082 Y6.05
N6990 X-2.289 Y6.02
N6995 X-2.496 Y5.986
N7000 X-2.702 Y5.949
N7005 X-2.908 Y5.909
N7010 X-3.113 Y5.867
N7015 X-3.318 Y5.821
N7020 X-3.523 Y5.773
N7025 X-3.726 Y5.721
N7030 X-3.93 Y5.667
N7035 X-4.132 Y5.61
N7040 X-4.334 Y5.55
N7045 X-4.535 Y5.486
N7050 X-4.736 Y5.42
N7055 X-4.936 Y5.351
N7060 X-5.135 Y5.279
N7065 X-5.333 Y5.204
N7070 X-5.53 Y5.127
N7075 X-5.727 Y5.046
N7080 X-5.922 Y4.962
N7085 X-6.117 Y4.875
N7090 X-6.311 Y4.786
N7095 X-6.504 Y4.693
N7100 X-6.695 Y4.598
N7105 X-6.886 Y4.499
N7110 X-7.075 Y4.398
N7115 X-7.264 Y4.294
N7120 X-7.451 Y4.187
N7125 X-7.637 Y4.076
N7130 X-7.822 Y3.963
N7135 X-7.996 Y3.853
N7140 X-8.009 Y3.84
N7145 X-8.01 Y3.826
N7150 Y.334
N7155 G03 X-7.981 Y.264 I.1 J0
N7160 G01 X-7.613 Y-.104
N7165 G00 Z3.
N7170 Z25.
N7175 G90 G54 X8.798 Y-4.688
N7180 Z3.
N7185 G01 Z-.5 F750.
N7190 X8.795 Y-4.693 F600.
N7195 X8.658 Y-4.937
N7200 X8.515 Y-5.177
N7205 X8.365 Y-5.413
N7210 X8.223 Y-5.623
N7215 X8.215 Y-5.624
N7220 X8.168 Y-5.628
N7225 X8.12
N7230 X8.073 Y-5.625
N7235 X8.023 Y-5.618
N7240 X7.992 Y-5.612
N7245 X7.936 Y-5.597
N7250 X7.871 Y-5.574
N7255 X7.785 Y-5.541
N7260 G03 X7.775 Y-5.538 I-.179 J-.467
N7265 G01 X7.681 Y-5.504
N7270 G03 X7.671 Y-5.5 I-.169 J-.471
N7275 G01 X7.577 Y-5.469
N7280 G03 X7.567 Y-5.466 I-.158 J-.474
N7285 G01 X7.472 Y-5.437
N7290 G03 X7.462 Y-5.433 I-.148 J-.478
N7295 G01 X7.367 Y-5.406
N7300 G03 X7.356 Y-5.403 I-.137 J-.481
N7305 G01 X7.261 Y-5.378
N7310 G03 X7.251 Y-5.376 I-.127 J-.484
N7315 G01 X7.155 Y-5.353
N7320 G03 X7.144 Y-5.351 I-.116 J-.486
N7325 G01 X7.049 Y-5.33
N7330 G03 X7.038 Y-5.328 I-.106 J-.489
N7335 G01 X6.942 Y-5.309
N7340 G03 X6.931 Y-5.307 I-.095 J-.491
N7345 G01 X6.835 Y-5.291
N7350 G03 X6.824 Y-5.289 I-.084 J-.493
N7355 G01 X6.727 Y-5.275
N7360 G03 X6.716 Y-5.273 I-.074 J-.495
N7365 G01 X6.62 Y-5.261
N7370 G03 X6.609 Y-5.26 I-.063 J-.496
N7375 G01 X6.512 Y-5.249
N7380 G03 X6.501 Y-5.248 I-.052 J-.497
N7385 G01 X6.404 Y-5.24
N7390 G03 X6.393 I-.041 J-.498
N7395 G01 X6.296 Y-5.234
N7400 G03 X6.285 Y-5.233 I-.03 J-.499
N7405 G01 X6.188 Y-5.229
N7410 G03 X6.177 I-.02 J-.5
N7415 G01 X6.08 Y-5.227
N7420 G03 X6.069 I-.009 J-.5
N7425 G01 X5.972 Y-5.228
N7430 G03 X5.961 I.002 J-.5
N7435 G01 X5.864 Y-5.23
N7440 G03 X5.853 Y-5.231 I.013 J-.5
N7445 G01 X5.756 Y-5.235
N7450 G03 X5.745 Y-5.236 I.024 J-.499
N7455 G01 X5.648 Y-5.243
N7460 G03 X5.637 I.034 J-.499
N7465 G01 X5.54 Y-5.252
N7470 G03 X5.53 Y-5.253 I.045 J-.498
N7475 G01 X5.433 Y-5.264
N7480 G03 X5.422 Y-5.265 I.056 J-.497
N7485 G01 X5.326 Y-5.278
N7490 G03 X5.315 Y-5.28 I.067 J-.496
N7495 G01 X5.219 Y-5.295
N7500 G03 X5.208 Y-5.297 I.077 J-.494
N7505 G01 X5.113 Y-5.314
N7510 G03 X5.102 Y-5.316 I.088 J-.492
N7515 G01 X5.006 Y-5.335
N7520 G03 X4.996 Y-5.337 I.099 J-.49
N7525 G01 X4.901 Y-5.359
N7530 G03 X4.89 Y-5.361 I.109 J-.488
N7535 G01 X4.795 Y-5.385
N7540 G03 X4.785 Y-5.387 I.12 J-.485
N7545 G01 X4.69 Y-5.413
N7550 G03 X4.68 Y-5.416 I.13 J-.483
N7555 G01 X4.586 Y-5.443
N7560 G03 X4.576 Y-5.446 I.141 J-.48
N7565 G01 X4.482 Y-5.476
N7570 G03 X4.472 Y-5.479 I.151 J-.477
N7575 G01 X4.379 Y-5.511
N7580 G03 X4.365 Y-5.516 I.161 J-.473
N7585 G01 X4.204 Y-5.577
N7590 G03 X4.188 Y-5.583 I.176 J-.468
N7595 G01 X4.069 Y-5.632
N7600 G03 X4.057 Y-5.637 I.191 J-.462
N7605 G01 X3.968 Y-5.677
N7610 G03 X3.956 Y-5.682 I.203 J-.457
N7615 G01 X3.824 Y-5.745
N7620 G03 X3.81 Y-5.752 I.215 J-.451
N7625 G01 X3.685 Y-5.817
N7630 X3.641 Y-5.838
N7635 X3.61 Y-5.85
N7640 X3.578 Y-5.859
N7645 X3.545 Y-5.866
N7650 X3.512 Y-5.87
N7655 X3.479 Y-5.871
N7660 X3.446 Y-5.869
N7665 X3.413 Y-5.865
N7670 X3.38 Y-5.857
N7675 X3.335 Y-5.844
N7680 X3.2 Y-5.797
N7685 G03 X3.191 Y-5.794 I-.164 J-.472
N7690 G01 X3.048 Y-5.747
N7695 G03 X3.038 Y-5.744 I-.154 J-.476
N7700 G01 X2.894 Y-5.7
N7705 G03 X2.885 Y-5.698 I-.145 J-.478
N7710 G01 X2.74 Y-5.657
N7715 G03 X2.731 Y-5.654 I-.136 J-.481
N7720 G01 X2.586 Y-5.617
N7725 G03 X2.576 Y-5.614 I-.126 J-.484
N7730 G01 X2.431 Y-5.579
N7735 G03 X2.421 Y-5.577 I-.116 J-.486
N7740 G01 X2.275 Y-5.545
N7745 G03 X2.265 Y-5.543 I-.107 J-.488
N7750 G01 X2.119 Y-5.514
N7755 G03 X2.109 Y-5.512 I-.097 J-.49
N7760 G01 X1.963 Y-5.486
N7765 G03 X1.953 Y-5.485 I-.088 J-.492
N7770 G01 X1.806 Y-5.461
N7775 G03 X1.796 Y-5.46 I-.078 J-.494
N7780 G01 X1.649 Y-5.44
N7785 G03 X1.639 Y-5.438 I-.068 J-.495
N7790 G01 X1.491 Y-5.421
N7795 G03 X1.481 Y-5.42 I-.059 J-.497
N7800 G01 X1.334 Y-5.405
N7805 G03 X1.324 I-.049 J-.498
N7810 G01 X1.176 Y-5.393
N7815 G03 X1.166 Y-5.392 I-.039 J-.498
N7820 G01 X1.018 Y-5.384
N7825 G03 X1.008 Y-5.383 I-.029 J-.499
N7830 G01 X.86 Y-5.377
N7835 G03 X.85 I-.02 J-.5
N7840 G01 X.702 Y-5.374
N7845 G03 X.692 I-.01 J-.5
N7850 G01 X.544
N7855 G03 X.534 I0 J-.5
N7860 G01 X.386 Y-5.377
N7865 G03 X.376 I.01 J-.5
N7870 G01 X.228 Y-5.383
N7875 G03 X.218 I.019 J-.5
N7880 G01 X.07 Y-5.392
N7885 G03 X.061 Y-5.393 I.029 J-.499
N7890 G01 X-.087 Y-5.404
N7895 G03 X-.097 Y-5.405 I.039 J-.498
N7900 G01 X-.244 Y-5.42
N7905 G03 X-.254 Y-5.421 I.049 J-.498
N7910 G01 X-.401 Y-5.438
N7915 G03 X-.411 Y-5.439 I.058 J-.497
N7920 G01 X-.558 Y-5.459
N7925 G03 X-.568 Y-5.461 I.068 J-.495
N7930 G01 X-.714 Y-5.484
N7935 G03 X-.724 Y-5.485 I.078 J-.494
N7940 G01 X-.87 Y-5.511
N7945 G03 X-.88 Y-5.513 I.087 J-.492
N7950 G01 X-1.026 Y-5.542
N7955 G03 X-1.035 Y-5.544 I.097 J-.491
N7960 G01 X-1.181 Y-5.576
N7965 G03 X-1.19 Y-5.578 I.106 J-.489
N7970 G01 X-1.335 Y-5.612
N7975 G03 X-1.344 Y-5.615 I.116 J-.486
N7980 G01 X-1.489 Y-5.652
N7985 G03 X-1.498 Y-5.655 I.126 J-.484
N7990 G01 X-1.642 Y-5.695
N7995 G03 X-1.651 Y-5.698 I.135 J-.481
N8000 G01 X-1.794 Y-5.741
N8005 G03 X-1.803 Y-5.743 I.144 J-.479
N8010 G01 X-1.927 Y-5.784
N8015 G03 X-1.939 Y-5.787 I.153 J-.476
N8020 G01 X-2.155 Y-5.863
N8025 G03 X-2.167 Y-5.867 I.164 J-.472
N8030 G01 X-2.329 Y-5.928
N8035 G03 X-2.338 Y-5.932 I.177 J-.468
N8040 G01 X-2.458 Y-5.98
N8045 G03 X-2.468 Y-5.984 I.186 J-.464
N8050 G01 X-2.647 Y-6.06
N8055 G03 X-2.658 Y-6.065 I.196 J-.46
N8060 G01 X-2.83 Y-6.144
N8065 X-2.869 Y-6.161
N8070 X-2.897 Y-6.17
N8075 X-2.924 Y-6.177
N8080 X-2.952 Y-6.183
N8085 X-2.98 Y-6.186
N8090 X-3.008 Y-6.187
N8095 X-3.036 Y-6.186
N8100 X-3.064 Y-6.184
N8105 X-3.092 Y-6.179
N8110 X-3.119 Y-6.173
N8115 X-3.146 Y-6.164
N8120 X-3.172 Y-6.154
N8125 X-3.197 Y-6.142
N8130 X-3.221 Y-6.128
N8135 X-3.245 Y-6.113
N8140 X-3.267 Y-6.095
N8145 X-3.29 Y-6.075
N8150 X-3.301 Y-6.064
N8155 X-3.325 Y-6.037
N8160 X-3.354 Y-5.997
N8165 X-3.41 Y-5.916
N8170 G03 X-3.423 Y-5.899 I-.409 J-.287
N8175 G01 X-3.486 Y-5.817
N8180 G03 X-3.499 Y-5.8 I-.397 J-.304
N8185 G01 X-3.565 Y-5.721
N8190 G03 X-3.58 Y-5.705 I-.383 J-.321
N8195 G01 X-3.649 Y-5.63
N8200 G03 X-3.663 Y-5.614 I-.369 J-.337
N8205 G01 X-3.736 Y-5.542
N8210 G03 X-3.751 Y-5.527 I-.354 J-.353
N8215 G01 X-3.826 Y-5.458
N8220 G03 X-3.842 Y-5.444 I-.339 J-.368
N8225 G01 X-3.919 Y-5.378
N8230 G03 X-3.936 Y-5.365 I-.323 J-.382
N8235 G01 X-4.016 Y-5.302
N8240 G03 X-4.033 Y-5.29 I-.307 J-.395
N8245 G01 X-4.116 Y-5.231
N8250 G03 X-4.134 Y-5.219 I-.29 J-.408
N8255 G01 X-4.219 Y-5.163
N8260 G03 X-4.237 Y-5.152 I-.272 J-.419
N8265 G01 X-4.324 Y-5.101
N8270 G03 X-4.343 Y-5.09 I-.254 J-.431
N8275 G01 X-4.432 Y-5.042
N8280 G03 X-4.451 Y-5.033 I-.236 J-.441
N8285 G01 X-4.543 Y-4.989
N8290 G03 X-4.562 Y-4.98 I-.217 J-.451
N8295 G01 X-4.656 Y-4.94
N8300 G03 X-4.675 Y-4.932 I-.198 J-.459
N8305 G01 X-4.771 Y-4.895
N8310 G03 X-4.791 Y-4.888 I-.178 J-.467
N8315 G01 X-4.888 Y-4.856
N8320 G03 X-4.908 Y-4.85 I-.158 J-.474
N8325 G01 X-5.007 Y-4.822
N8330 G03 X-5.025 Y-4.817 I-.137 J-.481
N8335 G01 X-5.1 Y-4.798
N8340 G03 X-5.119 Y-4.794 I-.119 J-.486
N8345 G01 X-5.233 Y-4.771
N8350 G03 X-5.257 Y-4.767 I-.1 J-.49
N8355 G01 X-5.372 Y-4.749
N8360 G03 X-5.395 Y-4.746 I-.076 J-.494
N8365 G01 X-5.498 Y-4.735
N8370 G03 X-5.519 Y-4.733 I-.053 J-.497
N8375 G01 X-5.622 Y-4.727
N8380 G03 X-5.644 Y-4.726 I-.032 J-.499
N8385 G01 X-5.747 Y-4.724
N8390 G03 X-5.768 I-.01 J-.5
N8395 G01 X-5.871 Y-4.726
N8400 G03 X-5.892 Y-4.727 I.011 J-.5
N8405 G01 X-5.994 Y-4.733
N8410 G03 X-6.015 Y-4.735 I.033 J-.499
N8415 G01 X-6.117 Y-4.746
N8420 G03 X-6.138 Y-4.749 I.054 J-.497
N8425 G01 X-6.238 Y-4.764
N8430 G03 X-6.259 Y-4.768 I.075 J-.494
N8435 G01 X-6.359 Y-4.787
N8440 G03 X-6.38 Y-4.792 I.096 J-.491
N8445 G01 X-6.479 Y-4.815
N8450 G03 X-6.499 Y-4.821 I.116 J-.486
N8455 G01 X-6.597 Y-4.849
N8460 G03 X-6.617 Y-4.855 I.137 J-.481
N8465 G01 X-6.713 Y-4.887
N8470 G03 X-6.733 Y-4.894 I.157 J-.475
N8475 G01 X-6.828 Y-4.93
N8480 G03 X-6.848 Y-4.938 I.177 J-.468
N8485 G01 X-6.941 Y-4.978
N8490 G03 X-6.961 Y-4.986 I.197 J-.46
N8495 G01 X-7.053 Y-5.03
N8500 G03 X-7.072 Y-5.04 I.216 J-.451
N8505 G01 X-7.162 Y-5.088
N8510 G03 X-7.18 Y-5.098 I.235 J-.441
N8515 G01 X-7.268 Y-5.15
N8520 G03 X-7.287 Y-5.161 I.253 J-.431
N8525 G01 X-7.373 Y-5.217
N8530 G03 X-7.388 Y-5.228 I.272 J-.42
N8535 G01 X-7.451 Y-5.272
N8540 G03 X-7.467 Y-5.284 I.287 J-.409
N8545 G01 X-7.56 Y-5.354
N8550 G03 X-7.579 Y-5.369 I.303 J-.397
N8555 G01 X-7.665 Y-5.442
N8560 X-7.722 Y-5.488
N8565 X-7.768 Y-5.52
N8570 X-7.815 Y-5.548
N8575 X-7.864 Y-5.571
N8580 X-7.914 Y-5.591
N8585 X-7.966 Y-5.606
N8590 X-8.018 Y-5.617
N8595 X-8.071 Y-5.625
N8600 X-8.135 Y-5.532
N8605 X-8.287 Y-5.299
N8610 X-8.432 Y-5.062
N8615 X-8.57 Y-4.821
N8620 X-8.701 Y-4.576
N8625 X-8.721 Y-4.536
N8630 X-8.706 Y-4.515
N8635 X-8.689 Y-4.494
N8640 X-8.657 Y-4.455
N8645 X-8.613 Y-4.411
N8650 X-8.572 Y-4.37
N8655 G03 X-8.558 Y-4.356 I-.352 J.355
N8660 G01 X-8.516 Y-4.311
N8665 G03 X-8.502 Y-4.295 I-.366 J.341
N8670 G01 X-8.462 Y-4.249
N8675 G03 X-8.449 Y-4.233 I-.379 J.326
N8680 G01 X-8.412 Y-4.186
N8685 G03 X-8.399 Y-4.169 I-.392 J.31
N8690 G01 X-8.364 Y-4.12
N8695 G03 X-8.352 Y-4.104 I-.405 J.294
N8700 G01 X-8.318 Y-4.053
N8705 G03 X-8.308 Y-4.036 I-.416 J.277
N8710 G01 X-8.276 Y-3.984
N8715 G03 X-8.266 Y-3.967 I-.427 J.26
N8720 G01 X-8.237 Y-3.914
N8725 G03 X-8.227 Y-3.896 I-.437 J.243
N8730 G01 X-8.2 Y-3.842
N8735 G03 X-8.191 Y-3.824 I-.447 J.225
N8740 G01 X-8.166 Y-3.769
N8745 G03 X-8.158 Y-3.75 I-.455 J.207
N8750 G01 X-8.136 Y-3.694
N8755 G03 X-8.129 Y-3.675 I-.463 J.188
N8760 G01 X-8.108 Y-3.619
N8765 G03 X-8.102 Y-3.599 I-.47 J.169
N8770 G01 X-8.083 Y-3.542
N8775 G03 X-8.078 Y-3.522 I-.477 J.15
N8780 G01 X-8.062 Y-3.464
N8785 G03 X-8.057 Y-3.444 I-.483 J.131
N8790 G01 X-8.044 Y-3.385
N8795 G03 X-8.039 Y-3.365 I-.487 J.111
N8800 G01 X-8.028 Y-3.305
N8805 G03 X-8.025 Y-3.285 I-.492 J.091
N8810 G01 X-8.016 Y-3.225
N8815 G03 X-8.013 Y-3.2 I-.495 J.071
N8820 G01 X-8.005 Y-3.108
N8825 G03 X-8.003 Y-3.078 I-.498 J.046
N8830 G01 X-8. Y-2.986
N8835 G03 Y-2.97 I-.5 J.015
N8840 G01 Y3.826
N8845 X-7.999 Y3.839
N8850 X-7.991 Y3.845
N8855 X-7.817 Y3.955
N8860 X-7.632 Y4.068
N8865 X-7.446 Y4.178
N8870 X-7.259 Y4.285
N8875 X-7.071 Y4.389
N8880 X-6.881 Y4.491
N8885 X-6.691 Y4.589
N8890 X-6.499 Y4.684
N8895 X-6.307 Y4.777
N8900 X-6.113 Y4.866
N8905 X-5.918 Y4.953
N8910 X-5.723 Y5.037
N8915 X-5.527 Y5.117
N8920 X-5.329 Y5.195
N8925 X-5.131 Y5.27
N8930 X-4.932 Y5.342
N8935 X-4.733 Y5.411
N8940 X-4.532 Y5.477
N8945 X-4.331 Y5.54
N8950 X-4.129 Y5.6
N8955 X-3.927 Y5.657
N8960 X-3.724 Y5.712
N8965 X-3.52 Y5.763
N8970 X-3.316 Y5.812
N8975 X-3.111 Y5.857
N8980 X-2.906 Y5.9
N8985 X-2.7 Y5.939
N8990 X-2.494 Y5.976
N8995 X-2.288 Y6.01
N9000 X-2.081 Y6.041
N9005 X-1.874 Y6.068
N9010 X-1.666 Y6.093
N9015 X-1.459 Y6.115
N9020 X-1.251 Y6.134
N9025 X-1.042 Y6.151
N9030 X-.834 Y6.164
N9035 X-.626 Y6.174
N9040 X-.417 Y6.181
N9045 X-.209 Y6.186
N9050 X0 Y6.187
N9055 X.209 Y6.186
N9060 X.417 Y6.181
N9065 X.626 Y6.174
N9070 X.834 Y6.164
N9075 X1.042 Y6.151
N9080 X1.251 Y6.134
N9085 X1.459 Y6.115
N9090 X1.666 Y6.093
N9095 X1.874 Y6.068
N9100 X2.081 Y6.041
N9105 X2.288 Y6.01
N9110 X2.494 Y5.976
N9115 X2.7 Y5.939
N9120 X2.906 Y5.9
N9125 X3.111 Y5.857
N9130 X3.316 Y5.812
N9135 X3.52 Y5.763
N9140 X3.724 Y5.712
N9145 X3.927 Y5.657
N9150 X4.129 Y5.6
N9155 X4.331 Y5.54
N9160 X4.532 Y5.477
N9165 X4.733 Y5.411
N9170 X4.932 Y5.342
N9175 X5.131 Y5.27
N9180 X5.317 Y5.2
N9185 X5.491 Y5.132
N9190 X5.651 Y5.066
N9195 X5.955 Y4.937
N9200 X6.217 Y4.818
N9205 X6.446 Y4.71
N9210 X6.644 Y4.612
N9215 X6.817 Y4.524
N9220 X6.966 Y4.446
N9225 X7.229 Y4.302
N9230 X7.423 Y4.191
N9235 X7.713 Y4.018
N9240 X7.992 Y3.844
N9245 X7.999 Y3.839
N9250 X8. Y3.826
N9255 Y-2.928
N9260 G03 Y-2.938 I.5 J0
N9265 G01 X8.001 Y-3.002
N9270 G03 X8.002 Y-3.022 I.5 J.01
N9275 G01 X8.006 Y-3.086
N9280 G03 X8.008 Y-3.106 I.499 J.03
N9285 G01 X8.014 Y-3.17
N9290 G03 X8.016 Y-3.19 I.497 J.05
N9295 G01 X8.025 Y-3.253
N9300 G03 X8.029 Y-3.272 I.495 J.07
N9305 G01 X8.04 Y-3.335
N9310 G03 X8.044 Y-3.355 I.492 J.09
N9315 G01 X8.058 Y-3.417
N9320 G03 X8.062 Y-3.436 I.488 J.109
N9325 G01 X8.079 Y-3.497
N9330 G03 X8.084 Y-3.516 I.483 J.128
N9335 G01 X8.103 Y-3.577
N9340 G03 X8.109 Y-3.595 I.478 J.147
N9345 G01 X8.13 Y-3.655
N9350 G03 X8.137 Y-3.674 I.472 J.166
N9355 G01 X8.16 Y-3.732
N9360 G03 X8.168 Y-3.751 I.465 J.185
N9365 G01 X8.194 Y-3.808
N9370 G03 X8.202 Y-3.826 I.457 J.203
N9375 G01 X8.23 Y-3.883
N9380 G03 X8.239 Y-3.901 I.449 J.221
N9385 G01 X8.269 Y-3.956
N9390 G03 X8.279 Y-3.974 I.44 J.238
N9395 G01 X8.311 Y-4.028
N9400 G03 X8.322 Y-4.045 I.43 J.256
N9405 G01 X8.356 Y-4.098
N9410 G03 X8.368 Y-4.115 I.419 J.272
N9415 G01 X8.404 Y-4.167
N9420 G03 X8.416 Y-4.183 I.408 J.289
N9425 G01 X8.455 Y-4.233
N9430 G03 X8.471 Y-4.253 I.396 J.305
N9435 G01 X8.533 Y-4.326
N9440 G03 X8.535 Y-4.328 I.381 J.324
N9445 G01 X8.414 Y-4.557
N9450 X8.278 Y-4.795
N9455 X8.136 Y-5.029
N9460 X7.987 Y-5.259
N9465 X7.832 Y-5.484
N9470 X7.789 Y-5.543
N9475 X7.785 Y-5.541
N9480 G03 X7.775 Y-5.538 I-.179 J-.467
N9485 G01 X7.681 Y-5.504
N9490 G03 X7.671 Y-5.5 I-.169 J-.471
N9495 G01 X7.577 Y-5.469
N9500 G03 X7.567 Y-5.466 I-.158 J-.474
N9505 G01 X7.472 Y-5.437
N9510 G03 X7.462 Y-5.433 I-.148 J-.478
N9515 G01 X7.367 Y-5.406
N9520 G03 X7.356 Y-5.403 I-.137 J-.481
N9525 G01 X7.261 Y-5.378
N9530 G03 X7.251 Y-5.376 I-.127 J-.484
N9535 G01 X7.155 Y-5.353
N9540 G03 X7.144 Y-5.351 I-.116 J-.486
N9545 G01 X7.049 Y-5.33
N9550 G03 X7.038 Y-5.328 I-.106 J-.489
N9555 G01 X6.942 Y-5.309
N9560 G03 X6.931 Y-5.307 I-.095 J-.491
N9565 G01 X6.835 Y-5.291
N9570 G03 X6.824 Y-5.289 I-.084 J-.493
N9575 G01 X6.727 Y-5.275
N9580 G03 X6.716 Y-5.273 I-.074 J-.495
N9585 G01 X6.62 Y-5.261
N9590 G03 X6.609 Y-5.26 I-.063 J-.496
N9595 G01 X6.512 Y-5.249
N9600 G03 X6.501 Y-5.248 I-.052 J-.497
N9605 G01 X6.404 Y-5.24
N9610 G03 X6.393 I-.041 J-.498
N9615 G01 X6.296 Y-5.234
N9620 G03 X6.285 Y-5.233 I-.03 J-.499
N9625 G01 X6.188 Y-5.229
N9630 G03 X6.177 I-.02 J-.5
N9635 G01 X6.08 Y-5.227
N9640 G03 X6.069 I-.009 J-.5
N9645 G01 X5.972 Y-5.228
N9650 G03 X5.961 I.002 J-.5
N9655 G01 X5.864 Y-5.23
N9660 G03 X5.853 Y-5.231 I.013 J-.5
N9665 G01 X5.756 Y-5.235
N9670 G03 X5.745 Y-5.236 I.024 J-.499
N9675 G01 X5.648 Y-5.243
N9680 G03 X5.637 I.034 J-.499
N9685 G01 X5.54 Y-5.252
N9690 G03 X5.53 Y-5.253 I.045 J-.498
N9695 G01 X5.433 Y-5.264
N9700 G03 X5.422 Y-5.265 I.056 J-.497
N9705 G01 X5.326 Y-5.278
N9710 G03 X5.315 Y-5.28 I.067 J-.496
N9715 G01 X5.219 Y-5.295
N9720 G03 X5.208 Y-5.297 I.077 J-.494
N9725 G01 X5.113 Y-5.314
N9730 G03 X5.102 Y-5.316 I.088 J-.492
N9735 G01 X5.006 Y-5.335
N9740 G03 X4.996 Y-5.337 I.099 J-.49
N9745 G01 X4.901 Y-5.359
N9750 G03 X4.89 Y-5.361 I.109 J-.488
N9755 G01 X4.795 Y-5.385
N9760 G03 X4.785 Y-5.387 I.12 J-.485
N9765 G01 X4.69 Y-5.413
N9770 G03 X4.68 Y-5.416 I.13 J-.483
N9775 G01 X4.586 Y-5.443
N9780 G03 X4.576 Y-5.446 I.141 J-.48
N9785 G01 X4.482 Y-5.476
N9790 G03 X4.472 Y-5.479 I.151 J-.477
N9795 G01 X4.379 Y-5.511
N9800 G03 X4.365 Y-5.516 I.161 J-.473
N9805 G01 X4.204 Y-5.577
N9810 G03 X4.188 Y-5.583 I.176 J-.468
N9815 G01 X4.069 Y-5.632
N9820 G03 X4.057 Y-5.637 I.191 J-.462
N9825 G01 X3.968 Y-5.677
N9830 G03 X3.956 Y-5.682 I.203 J-.457
N9835 G01 X3.824 Y-5.745
N9840 G03 X3.81 Y-5.752 I.215 J-.451
N9845 G01 X3.685 Y-5.817
N9850 X3.641 Y-5.838
N9855 X3.61 Y-5.85
N9860 X3.578 Y-5.859
N9865 X3.545 Y-5.866
N9870 X3.512 Y-5.87
N9875 X3.479 Y-5.871
N9880 X3.446 Y-5.869
N9885 X3.413 Y-5.865
N9890 X3.38 Y-5.857
N9895 X3.335 Y-5.844
N9900 X3.2 Y-5.797
N9905 G03 X3.191 Y-5.794 I-.164 J-.472
N9910 G01 X3.048 Y-5.747
N9915 G03 X3.038 Y-5.744 I-.154 J-.476
N9920 G01 X2.894 Y-5.7
N9925 G03 X2.885 Y-5.698 I-.145 J-.478
N9930 G01 X2.74 Y-5.657
N9935 G03 X2.731 Y-5.654 I-.136 J-.481
N9940 G01 X2.586 Y-5.617
N9945 G03 X2.576 Y-5.614 I-.126 J-.484
N9950 G01 X2.431 Y-5.579
N9955 G03 X2.421 Y-5.577 I-.116 J-.486
N9960 G01 X2.275 Y-5.545
N9965 G03 X2.265 Y-5.543 I-.107 J-.488
N9970 G01 X2.119 Y-5.514
N9975 G03 X2.109 Y-5.512 I-.097 J-.49
N9980 G01 X1.963 Y-5.486
N9985 G03 X1.953 Y-5.485 I-.088 J-.492
N9990 G01 X1.806 Y-5.461
N9995 G03 X1.796 Y-5.46 I-.078 J-.494
N5 G01 X1.649 Y-5.44
N10 G03 X1.639 Y-5.438 I-.068 J-.495
N15 G01 X1.491 Y-5.421
N20 G03 X1.481 Y-5.42 I-.059 J-.497
N25 G01 X1.334 Y-5.405
N30 G03 X1.324 I-.049 J-.498
N35 G01 X1.176 Y-5.393
N40 G03 X1.166 Y-5.392 I-.039 J-.498
N45 G01 X1.018 Y-5.384
N50 G03 X1.008 Y-5.383 I-.029 J-.499
N55 G01 X.86 Y-5.377
N60 G03 X.85 I-.02 J-.5
N65 G01 X.702 Y-5.374
N70 G03 X.692 I-.01 J-.5
N75 G01 X.544
N80 G03 X.534 I0 J-.5
N85 G01 X.386 Y-5.377
N90 G03 X.376 I.01 J-.5
N95 G01 X.228 Y-5.383
N100 G03 X.218 I.019 J-.5
N105 G01 X.07 Y-5.392
N110 G03 X.061 Y-5.393 I.029 J-.499
N115 G01 X-.087 Y-5.404
N120 G03 X-.097 Y-5.405 I.039 J-.498
N125 G01 X-.244 Y-5.42
N130 G03 X-.254 Y-5.421 I.049 J-.498
N135 G01 X-.401 Y-5.438
N140 G03 X-.411 Y-5.439 I.058 J-.497
N145 G01 X-.558 Y-5.459
N150 G03 X-.568 Y-5.461 I.068 J-.495
N155 G01 X-.714 Y-5.484
N160 G03 X-.724 Y-5.485 I.078 J-.494
N165 G01 X-.87 Y-5.511
N170 G03 X-.88 Y-5.513 I.087 J-.492
N175 G01 X-1.026 Y-5.542
N180 G03 X-1.035 Y-5.544 I.097 J-.491
N185 G01 X-1.181 Y-5.576
N190 G03 X-1.19 Y-5.578 I.106 J-.489
N195 G01 X-1.335 Y-5.612
N200 G03 X-1.344 Y-5.615 I.116 J-.486
N205 G01 X-1.489 Y-5.652
N210 G03 X-1.498 Y-5.655 I.126 J-.484
N215 G01 X-1.642 Y-5.695
N220 G03 X-1.651 Y-5.698 I.135 J-.481
N225 G01 X-1.794 Y-5.741
N230 G03 X-1.803 Y-5.743 I.144 J-.479
N235 G01 X-1.927 Y-5.784
N240 G03 X-1.939 Y-5.787 I.153 J-.476
N245 G01 X-2.155 Y-5.863
N250 G03 X-2.167 Y-5.867 I.164 J-.472
N255 G01 X-2.329 Y-5.928
N260 G03 X-2.338 Y-5.932 I.177 J-.468
N265 G01 X-2.458 Y-5.98
N270 G03 X-2.468 Y-5.984 I.186 J-.464
N275 G01 X-2.647 Y-6.06
N280 G03 X-2.658 Y-6.065 I.196 J-.46
N285 G01 X-2.83 Y-6.144
N290 X-2.869 Y-6.161
N295 X-2.897 Y-6.17
N300 X-2.924 Y-6.177
N305 X-2.952 Y-6.183
N310 X-2.98 Y-6.186
N315 X-3.008 Y-6.187
N320 X-3.036 Y-6.186
N325 X-3.064 Y-6.184
N330 X-3.092 Y-6.179
N335 X-3.119 Y-6.173
N340 X-3.146 Y-6.164
N345 X-3.172 Y-6.154
N350 X-3.197 Y-6.142
N355 X-3.221 Y-6.128
N360 X-3.245 Y-6.113
N365 X-3.267 Y-6.095
N370 X-3.29 Y-6.075
N375 X-3.301 Y-6.064
N380 X-3.325 Y-6.037
N385 X-3.354 Y-5.997
N390 X-3.41 Y-5.916
N395 G03 X-3.423 Y-5.899 I-.409 J-.287
N400 G01 X-3.486 Y-5.817
N405 G03 X-3.499 Y-5.8 I-.397 J-.304
N410 G01 X-3.565 Y-5.721
N415 G03 X-3.58 Y-5.705 I-.383 J-.321
N420 G01 X-3.649 Y-5.63
N425 G03 X-3.663 Y-5.614 I-.369 J-.337
N430 G01 X-3.736 Y-5.542
N435 G03 X-3.751 Y-5.527 I-.354 J-.353
N440 G01 X-3.826 Y-5.458
N445 G03 X-3.842 Y-5.444 I-.339 J-.368
N450 G01 X-3.919 Y-5.378
N455 G03 X-3.936 Y-5.365 I-.323 J-.382
N460 G01 X-4.016 Y-5.302
N465 G03 X-4.033 Y-5.29 I-.307 J-.395
N470 G01 X-4.116 Y-5.231
N475 G03 X-4.134 Y-5.219 I-.29 J-.408
N480 G01 X-4.219 Y-5.163
N485 G03 X-4.237 Y-5.152 I-.272 J-.419
N490 G01 X-4.324 Y-5.101
N495 G03 X-4.343 Y-5.09 I-.254 J-.431
N500 G01 X-4.432 Y-5.042
N505 G03 X-4.451 Y-5.033 I-.236 J-.441
N510 G01 X-4.543 Y-4.989
N515 G03 X-4.562 Y-4.98 I-.217 J-.451
N520 G01 X-4.656 Y-4.94
N525 G03 X-4.675 Y-4.932 I-.198 J-.459
N530 G01 X-4.771 Y-4.895
N535 G03 X-4.791 Y-4.888 I-.178 J-.467
N540 G01 X-4.888 Y-4.856
N545 G03 X-4.908 Y-4.85 I-.158 J-.474
N550 G01 X-5.007 Y-4.822
N555 G03 X-5.025 Y-4.817 I-.137 J-.481
N560 G01 X-5.1 Y-4.798
N565 G03 X-5.119 Y-4.794 I-.119 J-.486
N570 G01 X-5.233 Y-4.771
N575 G03 X-5.257 Y-4.767 I-.1 J-.49
N580 G01 X-5.372 Y-4.749
N585 G03 X-5.395 Y-4.746 I-.076 J-.494
N590 G01 X-5.498 Y-4.735
N595 G03 X-5.519 Y-4.733 I-.053 J-.497
N600 G01 X-5.622 Y-4.727
N605 G03 X-5.644 Y-4.726 I-.032 J-.499
N610 G01 X-5.747 Y-4.724
N615 G03 X-5.768 I-.01 J-.5
N620 G01 X-5.871 Y-4.726
N625 G03 X-5.892 Y-4.727 I.011 J-.5
N630 G01 X-5.994 Y-4.733
N635 G03 X-6.015 Y-4.735 I.033 J-.499
N640 G01 X-6.117 Y-4.746
N645 G03 X-6.138 Y-4.749 I.054 J-.497
N650 G01 X-6.238 Y-4.764
N655 G03 X-6.259 Y-4.768 I.075 J-.494
N660 G01 X-6.359 Y-4.787
N665 G03 X-6.38 Y-4.792 I.096 J-.491
N670 G01 X-6.479 Y-4.815
N675 G03 X-6.499 Y-4.821 I.116 J-.486
N680 G01 X-6.597 Y-4.849
N685 G03 X-6.617 Y-4.855 I.137 J-.481
N690 G01 X-6.713 Y-4.887
N695 G03 X-6.733 Y-4.894 I.157 J-.475
N700 G01 X-6.828 Y-4.93
N705 G03 X-6.848 Y-4.938 I.177 J-.468
N710 G01 X-6.941 Y-4.978
N715 G03 X-6.961 Y-4.986 I.197 J-.46
N720 G01 X-7.053 Y-5.03
N725 G03 X-7.072 Y-5.04 I.216 J-.451
N730 G01 X-7.162 Y-5.088
N735 G03 X-7.18 Y-5.098 I.235 J-.441
N740 G01 X-7.268 Y-5.15
N745 G03 X-7.287 Y-5.161 I.253 J-.431
N750 G01 X-7.373 Y-5.217
N755 G03 X-7.388 Y-5.228 I.272 J-.42
N760 G01 X-7.451 Y-5.272
N765 G03 X-7.467 Y-5.284 I.287 J-.409
N770 G01 X-7.56 Y-5.354
N775 G03 X-7.579 Y-5.369 I.303 J-.397
N780 G01 X-7.665 Y-5.442
N785 X-7.694 Y-5.466
N790 X-7.756 Y-5.379
N795 X-7.906 Y-5.152
N800 X-8.049 Y-4.922
N805 X-8.186 Y-4.687
N810 X-8.316 Y-4.448
N815 X-8.435 Y-4.215
N820 X-8.412 Y-4.186
N825 G03 X-8.399 Y-4.169 I-.392 J.31
N830 G01 X-8.364 Y-4.12
N835 G03 X-8.352 Y-4.104 I-.405 J.294
N840 G01 X-8.318 Y-4.053
N845 G03 X-8.308 Y-4.036 I-.416 J.277
N850 G01 X-8.276 Y-3.984
N855 G03 X-8.266 Y-3.967 I-.427 J.26
N860 G01 X-8.237 Y-3.914
N865 G03 X-8.227 Y-3.896 I-.437 J.243
N870 G01 X-8.2 Y-3.842
N875 G03 X-8.191 Y-3.824 I-.447 J.225
N880 G01 X-8.166 Y-3.769
N885 G03 X-8.158 Y-3.75 I-.455 J.207
N890 G01 X-8.136 Y-3.694
N895 G03 X-8.129 Y-3.675 I-.463 J.188
N900 G01 X-8.108 Y-3.619
N905 G03 X-8.102 Y-3.599 I-.47 J.169
N910 G01 X-8.083 Y-3.542
N915 G03 X-8.078 Y-3.522 I-.477 J.15
N920 G01 X-8.062 Y-3.464
N925 G03 X-8.057 Y-3.444 I-.483 J.131
N930 G01 X-8.044 Y-3.385
N935 G03 X-8.039 Y-3.365 I-.487 J.111
N940 G01 X-8.028 Y-3.305
N945 G03 X-8.025 Y-3.285 I-.492 J.091
N950 G01 X-8.016 Y-3.225
N955 G03 X-8.013 Y-3.2 I-.495 J.071
N960 G01 X-8.005 Y-3.108
N965 G03 X-8.003 Y-3.078 I-.498 J.046
N970 G01 X-8. Y-2.986
N975 G03 Y-2.97 I-.5 J.015
N980 G01 Y3.826
N985 X-7.999 Y3.839
N990 X-7.991 Y3.845
N995 X-7.817 Y3.955
N1000 X-7.632 Y4.068
N1005 X-7.446 Y4.178
N1010 X-7.259 Y4.285
N1015 X-7.071 Y4.389
N1020 X-6.881 Y4.491
N1025 X-6.691 Y4.589
N1030 X-6.499 Y4.684
N1035 X-6.307 Y4.777
N1040 X-6.113 Y4.866
N1045 X-5.918 Y4.953
N1050 X-5.723 Y5.037
N1055 X-5.527 Y5.117
N1060 X-5.329 Y5.195
N1065 X-5.131 Y5.27
N1070 X-4.932 Y5.342
N1075 X-4.733 Y5.411
N1080 X-4.532 Y5.477
N1085 X-4.331 Y5.54
N1090 X-4.129 Y5.6
N1095 X-3.927 Y5.657
N1100 X-3.724 Y5.712
N1105 X-3.52 Y5.763
N1110 X-3.316 Y5.812
N1115 X-3.111 Y5.857
N1120 X-2.906 Y5.9
N1125 X-2.7 Y5.939
N1130 X-2.494 Y5.976
N1135 X-2.288 Y6.01
N1140 X-2.081 Y6.041
N1145 X-1.874 Y6.068
N1150 X-1.666 Y6.093
N1155 X-1.459 Y6.115
N1160 X-1.251 Y6.134
N1165 X-1.042 Y6.151
N1170 X-.834 Y6.164
N1175 X-.626 Y6.174
N1180 X-.417 Y6.181
N1185 X-.209 Y6.186
N1190 X0 Y6.187
N1195 X.209 Y6.186
N1200 X.417 Y6.181
N1205 X.626 Y6.174
N1210 X.834 Y6.164
N1215 X1.042 Y6.151
N1220 X1.251 Y6.134
N1225 X1.459 Y6.115
N1230 X1.666 Y6.093
N1235 X1.874 Y6.068
N1240 X2.081 Y6.041
N1245 X2.288 Y6.01
N1250 X2.494 Y5.976
N1255 X2.7 Y5.939
N1260 X2.906 Y5.9
N1265 X3.111 Y5.857
N1270 X3.316 Y5.812
N1275 X3.52 Y5.763
N1280 X3.724 Y5.712
N1285 X3.927 Y5.657
N1290 X4.129 Y5.6
N1295 X4.331 Y5.54
N1300 X4.532 Y5.477
N1305 X4.733 Y5.411
N1310 X4.932 Y5.342
N1315 X5.131 Y5.27
N1320 X5.317 Y5.2
N1325 X5.491 Y5.132
N1330 X5.651 Y5.066
N1335 X5.955 Y4.937
N1340 X6.217 Y4.818
N1345 X6.446 Y4.71
N1350 X6.644 Y4.612
N1355 X6.817 Y4.524
N1360 X6.966 Y4.446
N1365 X7.229 Y4.302
N1370 X7.423 Y4.191
N1375 X7.713 Y4.018
N1380 X7.992 Y3.844
N1385 X7.999 Y3.839
N1390 X8. Y3.826
N1395 Y-2.928
N1400 G03 Y-2.938 I.5 J0
N1405 G01 X8.001 Y-3.002
N1410 G03 X8.002 Y-3.022 I.5 J.01
N1415 G01 X8.006 Y-3.086
N1420 G03 X8.008 Y-3.106 I.499 J.03
N1425 G01 X8.014 Y-3.17
N1430 G03 X8.016 Y-3.19 I.497 J.05
N1435 G01 X8.025 Y-3.253
N1440 G03 X8.029 Y-3.272 I.495 J.07
N1445 G01 X8.04 Y-3.335
N1450 G03 X8.044 Y-3.355 I.492 J.09
N1455 G01 X8.058 Y-3.417
N1460 G03 X8.062 Y-3.436 I.488 J.109
N1465 G01 X8.079 Y-3.497
N1470 G03 X8.084 Y-3.516 I.483 J.128
N1475 G01 X8.103 Y-3.577
N1480 G03 X8.109 Y-3.595 I.478 J.147
N1485 G01 X8.13 Y-3.655
N1490 G03 X8.137 Y-3.674 I.472 J.166
N1495 G01 X8.16 Y-3.732
N1500 G03 X8.168 Y-3.751 I.465 J.185
N1505 G01 X8.194 Y-3.808
N1510 G03 X8.202 Y-3.826 I.457 J.203
N1515 G01 X8.23 Y-3.883
N1520 G03 X8.239 Y-3.901 I.449 J.221
N1525 G01 X8.269 Y-3.956
N1530 G03 X8.271 Y-3.96 I.44 J.238
N1535 G01 X8.222 Y-4.063
N1540 X8.098 Y-4.301
N1545 X7.967 Y-4.535
N1550 X7.83 Y-4.764
N1555 X7.685 Y-4.99
N1560 X7.535 Y-5.212
N1565 X7.389 Y-5.413
N1570 X7.367 Y-5.406
N1575 G03 X7.356 Y-5.403 I-.137 J-.481
N1580 G01 X7.261 Y-5.378
N1585 G03 X7.251 Y-5.376 I-.127 J-.484
N1590 G01 X7.155 Y-5.353
N1595 G03 X7.144 Y-5.351 I-.116 J-.486
N1600 G01 X7.049 Y-5.33
N1605 G03 X7.038 Y-5.328 I-.106 J-.489
N1610 G01 X6.942 Y-5.309
N1615 G03 X6.931 Y-5.307 I-.095 J-.491
N1620 G01 X6.835 Y-5.291
N1625 G03 X6.824 Y-5.289 I-.084 J-.493
N1630 G01 X6.727 Y-5.275
N1635 G03 X6.716 Y-5.273 I-.074 J-.495
N1640 G01 X6.62 Y-5.261
N1645 G03 X6.609 Y-5.26 I-.063 J-.496
N1650 G01 X6.512 Y-5.249
N1655 G03 X6.501 Y-5.248 I-.052 J-.497
N1660 G01 X6.404 Y-5.24
N1665 G03 X6.393 I-.041 J-.498
N1670 G01 X6.296 Y-5.234
N1675 G03 X6.285 Y-5.233 I-.03 J-.499
N1680 G01 X6.188 Y-5.229
N1685 G03 X6.177 I-.02 J-.5
N1690 G01 X6.08 Y-5.227
N1695 G03 X6.069 I-.009 J-.5
N1700 G01 X5.972 Y-5.228
N1705 G03 X5.961 I.002 J-.5
N1710 G01 X5.864 Y-5.23
N1715 G03 X5.853 Y-5.231 I.013 J-.5
N1720 G01 X5.756 Y-5.235
N1725 G03 X5.745 Y-5.236 I.024 J-.499
N1730 G01 X5.648 Y-5.243
N1735 G03 X5.637 I.034 J-.499
N1740 G01 X5.54 Y-5.252
N1745 G03 X5.53 Y-5.253 I.045 J-.498
N1750 G01 X5.433 Y-5.264
N1755 G03 X5.422 Y-5.265 I.056 J-.497
N1760 G01 X5.326 Y-5.278
N1765 G03 X5.315 Y-5.28 I.067 J-.496
N1770 G01 X5.219 Y-5.295
N1775 G03 X5.208 Y-5.297 I.077 J-.494
N1780 G01 X5.113 Y-5.314
N1785 G03 X5.102 Y-5.316 I.088 J-.492
N1790 G01 X5.006 Y-5.335
N1795 G03 X4.996 Y-5.337 I.099 J-.49
N1800 G01 X4.901 Y-5.359
N1805 G03 X4.89 Y-5.361 I.109 J-.488
N1810 G01 X4.795 Y-5.385
N1815 G03 X4.785 Y-5.387 I.12 J-.485
N1820 G01 X4.69 Y-5.413
N1825 G03 X4.68 Y-5.416 I.13 J-.483
N1830 G01 X4.586 Y-5.443
N1835 G03 X4.576 Y-5.446 I.141 J-.48
N1840 G01 X4.482 Y-5.476
N1845 G03 X4.472 Y-5.479 I.151 J-.477
N1850 G01 X4.379 Y-5.511
N1855 G03 X4.365 Y-5.516 I.161 J-.473
N1860 G01 X4.204 Y-5.577
N1865 G03 X4.188 Y-5.583 I.176 J-.468
N1870 G01 X4.069 Y-5.632
N1875 G03 X4.057 Y-5.637 I.191 J-.462
N1880 G01 X3.968 Y-5.677
N1885 G03 X3.956 Y-5.682 I.203 J-.457
N1890 G01 X3.824 Y-5.745
N1895 G03 X3.81 Y-5.752 I.215 J-.451
N1900 G01 X3.685 Y-5.817
N1905 X3.641 Y-5.838
N1910 X3.61 Y-5.85
N1915 X3.578 Y-5.859
N1920 X3.545 Y-5.866
N1925 X3.512 Y-5.87
N1930 X3.479 Y-5.871
N1935 X3.446 Y-5.869
N1940 X3.413 Y-5.865
N1945 X3.38 Y-5.857
N1950 X3.335 Y-5.844
N1955 X3.2 Y-5.797
N1960 G03 X3.191 Y-5.794 I-.164 J-.472
N1965 G01 X3.048 Y-5.747
N1970 G03 X3.038 Y-5.744 I-.154 J-.476
N1975 G01 X2.894 Y-5.7
N1980 G03 X2.885 Y-5.698 I-.145 J-.478
N1985 G01 X2.74 Y-5.657
N1990 G03 X2.731 Y-5.654 I-.136 J-.481
N1995 G01 X2.586 Y-5.617
N2000 G03 X2.576 Y-5.614 I-.126 J-.484
N2005 G01 X2.431 Y-5.579
N2010 G03 X2.421 Y-5.577 I-.116 J-.486
N2015 G01 X2.275 Y-5.545
N2020 G03 X2.265 Y-5.543 I-.107 J-.488
N2025 G01 X2.119 Y-5.514
N2030 G03 X2.109 Y-5.512 I-.097 J-.49
N2035 G01 X1.963 Y-5.486
N2040 G03 X1.953 Y-5.485 I-.088 J-.492
N2045 G01 X1.806 Y-5.461
N2050 G03 X1.796 Y-5.46 I-.078 J-.494
N2055 G01 X1.649 Y-5.44
N2060 G03 X1.639 Y-5.438 I-.068 J-.495
N2065 G01 X1.491 Y-5.421
N2070 G03 X1.481 Y-5.42 I-.059 J-.497
N2075 G01 X1.334 Y-5.405
N2080 G03 X1.324 I-.049 J-.498
N2085 G01 X1.176 Y-5.393
N2090 G03 X1.166 Y-5.392 I-.039 J-.498
N2095 G01 X1.018 Y-5.384
N2100 G03 X1.008 Y-5.383 I-.029 J-.499
N2105 G01 X.86 Y-5.377
N2110 G03 X.85 I-.02 J-.5
N2115 G01 X.702 Y-5.374
N2120 G03 X.692 I-.01 J-.5
N2125 G01 X.544
N2130 G03 X.534 I0 J-.5
N2135 G01 X.386 Y-5.377
N2140 G03 X.376 I.01 J-.5
N2145 G01 X.228 Y-5.383
N2150 G03 X.218 I.019 J-.5
N2155 G01 X.07 Y-5.392
N2160 G03 X.061 Y-5.393 I.029 J-.499
N2165 G01 X-.087 Y-5.404
N2170 G03 X-.097 Y-5.405 I.039 J-.498
N2175 G01 X-.244 Y-5.42
N2180 G03 X-.254 Y-5.421 I.049 J-.498
N2185 G01 X-.401 Y-5.438
N2190 G03 X-.411 Y-5.439 I.058 J-.497
N2195 G01 X-.558 Y-5.459
N2200 G03 X-.568 Y-5.461 I.068 J-.495
N2205 G01 X-.714 Y-5.484
N2210 G03 X-.724 Y-5.485 I.078 J-.494
N2215 G01 X-.87 Y-5.511
N2220 G03 X-.88 Y-5.513 I.087 J-.492
N2225 G01 X-1.026 Y-5.542
N2230 G03 X-1.035 Y-5.544 I.097 J-.491
N2235 G01 X-1.181 Y-5.576
N2240 G03 X-1.19 Y-5.578 I.106 J-.489
N2245 G01 X-1.335 Y-5.612
N2250 G03 X-1.344 Y-5.615 I.116 J-.486
N2255 G01 X-1.489 Y-5.652
N2260 G03 X-1.498 Y-5.655 I.126 J-.484
N2265 G01 X-1.642 Y-5.695
N2270 G03 X-1.651 Y-5.698 I.135 J-.481
N2275 G01 X-1.794 Y-5.741
N2280 G03 X-1.803 Y-5.743 I.144 J-.479
N2285 G01 X-1.927 Y-5.784
N2290 G03 X-1.939 Y-5.787 I.153 J-.476
N2295 G01 X-2.155 Y-5.863
N2300 G03 X-2.167 Y-5.867 I.164 J-.472
N2305 G01 X-2.329 Y-5.928
N2310 G03 X-2.338 Y-5.932 I.177 J-.468
N2315 G01 X-2.458 Y-5.98
N2320 G03 X-2.468 Y-5.984 I.186 J-.464
N2325 G01 X-2.647 Y-6.06
N2330 G03 X-2.658 Y-6.065 I.196 J-.46
N2335 G01 X-2.83 Y-6.144
N2340 X-2.869 Y-6.161
N2345 X-2.897 Y-6.17
N2350 X-2.924 Y-6.177
N2355 X-2.952 Y-6.183
N2360 X-2.98 Y-6.186
N2365 X-3.008 Y-6.187
N2370 X-3.036 Y-6.186
N2375 X-3.064 Y-6.184
N2380 X-3.092 Y-6.179
N2385 X-3.119 Y-6.173
N2390 X-3.146 Y-6.164
N2395 X-3.172 Y-6.154
N2400 X-3.197 Y-6.142
N2405 X-3.221 Y-6.128
N2410 X-3.245 Y-6.113
N2415 X-3.267 Y-6.095
N2420 X-3.29 Y-6.075
N2425 X-3.301 Y-6.064
N2430 X-3.325 Y-6.037
N2435 X-3.354 Y-5.997
N2440 X-3.41 Y-5.916
N2445 G03 X-3.423 Y-5.899 I-.409 J-.287
N2450 G01 X-3.486 Y-5.817
N2455 G03 X-3.499 Y-5.8 I-.397 J-.304
N2460 G01 X-3.565 Y-5.721
N2465 G03 X-3.58 Y-5.705 I-.383 J-.321
N2470 G01 X-3.649 Y-5.63
N2475 G03 X-3.663 Y-5.614 I-.369 J-.337
N2480 G01 X-3.736 Y-5.542
N2485 G03 X-3.751 Y-5.527 I-.354 J-.353
N2490 G01 X-3.826 Y-5.458
N2495 G03 X-3.842 Y-5.444 I-.339 J-.368
N2500 G01 X-3.919 Y-5.378
N2505 G03 X-3.936 Y-5.365 I-.323 J-.382
N2510 G01 X-4.016 Y-5.302
N2515 G03 X-4.033 Y-5.29 I-.307 J-.395
N2520 G01 X-4.116 Y-5.231
N2525 G03 X-4.134 Y-5.219 I-.29 J-.408
N2530 G01 X-4.219 Y-5.163
N2535 G03 X-4.237 Y-5.152 I-.272 J-.419
N2540 G01 X-4.324 Y-5.101
N2545 G03 X-4.343 Y-5.09 I-.254 J-.431
N2550 G01 X-4.432 Y-5.042
N2555 G03 X-4.451 Y-5.033 I-.236 J-.441
N2560 G01 X-4.543 Y-4.989
N2565 G03 X-4.562 Y-4.98 I-.217 J-.451
N2570 G01 X-4.656 Y-4.94
N2575 G03 X-4.675 Y-4.932 I-.198 J-.459
N2580 G01 X-4.771 Y-4.895
N2585 G03 X-4.791 Y-4.888 I-.178 J-.467
N2590 G01 X-4.888 Y-4.856
N2595 G03 X-4.908 Y-4.85 I-.158 J-.474
N2600 G01 X-5.007 Y-4.822
N2605 G03 X-5.025 Y-4.817 I-.137 J-.481
N2610 G01 X-5.1 Y-4.798
N2615 G03 X-5.119 Y-4.794 I-.119 J-.486
N2620 G01 X-5.233 Y-4.771
N2625 G03 X-5.257 Y-4.767 I-.1 J-.49
N2630 G01 X-5.372 Y-4.749
N2635 G03 X-5.395 Y-4.746 I-.076 J-.494
N2640 G01 X-5.498 Y-4.735
N2645 G03 X-5.519 Y-4.733 I-.053 J-.497
N2650 G01 X-5.622 Y-4.727
N2655 G03 X-5.644 Y-4.726 I-.032 J-.499
N2660 G01 X-5.747 Y-4.724
N2665 G03 X-5.768 I-.01 J-.5
N2670 G01 X-5.871 Y-4.726
N2675 G03 X-5.892 Y-4.727 I.011 J-.5
N2680 G01 X-5.994 Y-4.733
N2685 G03 X-6.015 Y-4.735 I.033 J-.499
N2690 G01 X-6.117 Y-4.746
N2695 G03 X-6.138 Y-4.749 I.054 J-.497
N2700 G01 X-6.238 Y-4.764
N2705 G03 X-6.259 Y-4.768 I.075 J-.494
N2710 G01 X-6.359 Y-4.787
N2715 G03 X-6.38 Y-4.792 I.096 J-.491
N2720 G01 X-6.479 Y-4.815
N2725 G03 X-6.499 Y-4.821 I.116 J-.486
N2730 G01 X-6.597 Y-4.849
N2735 G03 X-6.617 Y-4.855 I.137 J-.481
N2740 G01 X-6.713 Y-4.887
N2745 G03 X-6.733 Y-4.894 I.157 J-.475
N2750 G01 X-6.828 Y-4.93
N2755 G03 X-6.848 Y-4.938 I.177 J-.468
N2760 G01 X-6.941 Y-4.978
N2765 G03 X-6.961 Y-4.986 I.197 J-.46
N2770 G01 X-7.053 Y-5.03
N2775 G03 X-7.072 Y-5.04 I.216 J-.451
N2780 G01 X-7.162 Y-5.088
N2785 G03 X-7.18 Y-5.098 I.235 J-.441
N2790 G01 X-7.268 Y-5.15
N2795 G03 X-7.287 Y-5.161 I.253 J-.431
N2800 G01 X-7.373 Y-5.217
N2805 G03 X-7.378 Y-5.221 I.272 J-.42
N2810 G01 X-7.456 Y-5.108
N2815 X-7.602 Y-4.885
N2820 X-7.741 Y-4.658
N2825 X-7.873 Y-4.427
N2830 X-7.998 Y-4.193
N2835 X-8.116 Y-3.955
N2840 X-8.184 Y-3.808
N2845 X-8.166 Y-3.769
N2850 G03 X-8.158 Y-3.75 I-.455 J.207
N2855 G01 X-8.136 Y-3.694
N2860 G03 X-8.129 Y-3.675 I-.463 J.188
N2865 G01 X-8.108 Y-3.619
N2870 G03 X-8.102 Y-3.599 I-.47 J.169
N2875 G01 X-8.083 Y-3.542
N2880 G03 X-8.078 Y-3.522 I-.477 J.15
N2885 G01 X-8.062 Y-3.464
N2890 G03 X-8.057 Y-3.444 I-.483 J.131
N2895 G01 X-8.044 Y-3.385
N2900 G03 X-8.039 Y-3.365 I-.487 J.111
N2905 G01 X-8.028 Y-3.305
N2910 G03 X-8.025 Y-3.285 I-.492 J.091
N2915 G01 X-8.016 Y-3.225
N2920 G03 X-8.013 Y-3.2 I-.495 J.071
N2925 G01 X-8.005 Y-3.108
N2930 G03 X-8.003 Y-3.078 I-.498 J.046
N2935 G01 X-8. Y-2.986
N2940 G03 Y-2.97 I-.5 J.015
N2945 G01 Y3.826
N2950 X-7.999 Y3.839
N2955 X-7.991 Y3.845
N2960 X-7.817 Y3.955
N2965 X-7.632 Y4.068
N2970 X-7.446 Y4.178
N2975 X-7.259 Y4.285
N2980 X-7.071 Y4.389
N2985 X-6.881 Y4.491
N2990 X-6.691 Y4.589
N2995 X-6.499 Y4.684
N3000 X-6.307 Y4.777
N3005 X-6.113 Y4.866
N3010 X-5.918 Y4.953
N3015 X-5.723 Y5.037
N3020 X-5.527 Y5.117
N3025 X-5.329 Y5.195
N3030 X-5.131 Y5.27
N3035 X-4.932 Y5.342
N3040 X-4.733 Y5.411
N3045 X-4.532 Y5.477
N3050 X-4.331 Y5.54
N3055 X-4.129 Y5.6
N3060 X-3.927 Y5.657
N3065 X-3.724 Y5.712
N3070 X-3.52 Y5.763
N3075 X-3.316 Y5.812
N3080 X-3.111 Y5.857
N3085 X-2.906 Y5.9
N3090 X-2.7 Y5.939
N3095 X-2.494 Y5.976
N3100 X-2.288 Y6.01
N3105 X-2.081 Y6.041
N3110 X-1.874 Y6.068
N3115 X-1.666 Y6.093
N3120 X-1.459 Y6.115
N3125 X-1.251 Y6.134
N3130 X-1.042 Y6.151
N3135 X-.834 Y6.164
N3140 X-.626 Y6.174
N3145 X-.417 Y6.181
N3150 X-.209 Y6.186
N3155 X0 Y6.187
N3160 X.209 Y6.186
N3165 X.417 Y6.181
N3170 X.626 Y6.174
N3175 X.834 Y6.164
N3180 X1.042 Y6.151
N3185 X1.251 Y6.134
N3190 X1.459 Y6.115
N3195 X1.666 Y6.093
N3200 X1.874 Y6.068
N3205 X2.081 Y6.041
N3210 X2.288 Y6.01
N3215 X2.494 Y5.976
N3220 X2.7 Y5.939
N3225 X2.906 Y5.9
N3230 X3.111 Y5.857
N3235 X3.316 Y5.812
N3240 X3.52 Y5.763
N3245 X3.724 Y5.712
N3250 X3.927 Y5.657
N3255 X4.129 Y5.6
N3260 X4.331 Y5.54
N3265 X4.532 Y5.477
N3270 X4.733 Y5.411
N3275 X4.932 Y5.342
N3280 X5.131 Y5.27
N3285 X5.317 Y5.2
N3290 X5.491 Y5.132
N3295 X5.651 Y5.066
N3300 X5.955 Y4.937
N3305 X6.217 Y4.818
N3310 X6.446 Y4.71
N3315 X6.644 Y4.612
N3320 X6.817 Y4.524
N3325 X6.966 Y4.446
N3330 X7.229 Y4.302
N3335 X7.423 Y4.191
N3340 X7.713 Y4.018
N3345 X7.929 Y3.883
N3350 X8. Y3.731
N3355 Y-2.928
N3360 G03 Y-2.938 I.5 J0
N3365 G01 X8.001 Y-3.002
N3370 G03 X8.002 Y-3.022 I.5 J.01
N3375 G01 X8.006 Y-3.086
N3380 G03 X8.008 Y-3.106 I.499 J.03
N3385 G01 X8.014 Y-3.17
N3390 G03 X8.016 Y-3.19 I.497 J.05
N3395 G01 X8.025 Y-3.253
N3400 G03 X8.029 Y-3.272 I.495 J.07
N3405 G01 X8.04 Y-3.335
N3410 G03 X8.044 Y-3.355 I.492 J.09
N3415 G01 X8.058 Y-3.417
N3420 G03 X8.062 Y-3.436 I.488 J.109
N3425 G01 X8.067 Y-3.451
N3430 X8.055 Y-3.479
N3435 X7.946 Y-3.717
N3440 X7.83 Y-3.952
N3445 X7.706 Y-4.183
N3450 X7.576 Y-4.41
N3455 X7.44 Y-4.634
N3460 X7.296 Y-4.853
N3465 X7.147 Y-5.067
N3470 X6.99 Y-5.278
N3475 X6.962 Y-5.313
N3480 X6.942 Y-5.309
N3485 G03 X6.931 Y-5.307 I-.095 J-.491
N3490 G01 X6.835 Y-5.291
N3495 G03 X6.824 Y-5.289 I-.084 J-.493
N3500 G01 X6.727 Y-5.275
N3505 G03 X6.716 Y-5.273 I-.074 J-.495
N3510 G01 X6.62 Y-5.261
N3515 G03 X6.609 Y-5.26 I-.063 J-.496
N3520 G01 X6.512 Y-5.249
N3525 G03 X6.501 Y-5.248 I-.052 J-.497
N3530 G01 X6.404 Y-5.24
N3535 G03 X6.393 I-.041 J-.498
N3540 G01 X6.296 Y-5.234
N3545 G03 X6.285 Y-5.233 I-.03 J-.499
N3550 G01 X6.188 Y-5.229
N3555 G03 X6.177 I-.02 J-.5
N3560 G01 X6.08 Y-5.227
N3565 G03 X6.069 I-.009 J-.5
N3570 G01 X5.972 Y-5.228
N3575 G03 X5.961 I.002 J-.5
N3580 G01 X5.864 Y-5.23
N3585 G03 X5.853 Y-5.231 I.013 J-.5
N3590 G01 X5.756 Y-5.235
N3595 G03 X5.745 Y-5.236 I.024 J-.499
N3600 G01 X5.648 Y-5.243
N3605 G03 X5.637 I.034 J-.499
N3610 G01 X5.54 Y-5.252
N3615 G03 X5.53 Y-5.253 I.045 J-.498
N3620 G01 X5.433 Y-5.264
N3625 G03 X5.422 Y-5.265 I.056 J-.497
N3630 G01 X5.326 Y-5.278
N3635 G03 X5.315 Y-5.28 I.067 J-.496
N3640 G01 X5.219 Y-5.295
N3645 G03 X5.208 Y-5.297 I.077 J-.494
N3650 G01 X5.113 Y-5.314
N3655 G03 X5.102 Y-5.316 I.088 J-.492
N3660 G01 X5.006 Y-5.335
N3665 G03 X4.996 Y-5.337 I.099 J-.49
N3670 G01 X4.901 Y-5.359
N3675 G03 X4.89 Y-5.361 I.109 J-.488
N3680 G01 X4.795 Y-5.385
N3685 G03 X4.785 Y-5.387 I.12 J-.485
N3690 G01 X4.69 Y-5.413
N3695 G03 X4.68 Y-5.416 I.13 J-.483
N3700 G01 X4.586 Y-5.443
N3705 G03 X4.576 Y-5.446 I.141 J-.48
N3710 G01 X4.482 Y-5.476
N3715 G03 X4.472 Y-5.479 I.151 J-.477
N3720 G01 X4.379 Y-5.511
N3725 G03 X4.365 Y-5.516 I.161 J-.473
N3730 G01 X4.204 Y-5.577
N3735 G03 X4.188 Y-5.583 I.176 J-.468
N3740 G01 X4.069 Y-5.632
N3745 G03 X4.057 Y-5.637 I.191 J-.462
N3750 G01 X3.968 Y-5.677
N3755 G03 X3.956 Y-5.682 I.203 J-.457
N3760 G01 X3.824 Y-5.745
N3765 G03 X3.81 Y-5.752 I.215 J-.451
N3770 G01 X3.685 Y-5.817
N3775 X3.641 Y-5.838
N3780 X3.61 Y-5.85
N3785 X3.578 Y-5.859
N3790 X3.545 Y-5.866
N3795 X3.512 Y-5.87
N3800 X3.479 Y-5.871
N3805 X3.446 Y-5.869
N3810 X3.413 Y-5.865
N3815 X3.38 Y-5.857
N3820 X3.335 Y-5.844
N3825 X3.2 Y-5.797
N3830 G03 X3.191 Y-5.794 I-.164 J-.472
N3835 G01 X3.048 Y-5.747
N3840 G03 X3.038 Y-5.744 I-.154 J-.476
N3845 G01 X2.894 Y-5.7
N3850 G03 X2.885 Y-5.698 I-.145 J-.478
N3855 G01 X2.74 Y-5.657
N3860 G03 X2.731 Y-5.654 I-.136 J-.481
N3865 G01 X2.586 Y-5.617
N3870 G03 X2.576 Y-5.614 I-.126 J-.484
N3875 G01 X2.431 Y-5.579
N3880 G03 X2.421 Y-5.577 I-.116 J-.486
N3885 G01 X2.275 Y-5.545
N3890 G03 X2.265 Y-5.543 I-.107 J-.488
N3895 G01 X2.119 Y-5.514
N3900 G03 X2.109 Y-5.512 I-.097 J-.49
N3905 G01 X1.963 Y-5.486
N3910 G03 X1.953 Y-5.485 I-.088 J-.492
N3915 G01 X1.806 Y-5.461
N3920 G03 X1.796 Y-5.46 I-.078 J-.494
N3925 G01 X1.649 Y-5.44
N3930 G03 X1.639 Y-5.438 I-.068 J-.495
N3935 G01 X1.491 Y-5.421
N3940 G03 X1.481 Y-5.42 I-.059 J-.497
N3945 G01 X1.334 Y-5.405
N3950 G03 X1.324 I-.049 J-.498
N3955 G01 X1.176 Y-5.393
N3960 G03 X1.166 Y-5.392 I-.039 J-.498
N3965 G01 X1.018 Y-5.384
N3970 G03 X1.008 Y-5.383 I-.029 J-.499
N3975 G01 X.86 Y-5.377
N3980 G03 X.85 I-.02 J-.5
N3985 G01 X.702 Y-5.374
N3990 G03 X.692 I-.01 J-.5
N3995 G01 X.544
N4000 G03 X.534 I0 J-.5
N4005 G01 X.386 Y-5.377
N4010 G03 X.376 I.01 J-.5
N4015 G01 X.228 Y-5.383
N4020 G03 X.218 I.019 J-.5
N4025 G01 X.07 Y-5.392
N4030 G03 X.061 Y-5.393 I.029 J-.499
N4035 G01 X-.087 Y-5.404
N4040 G03 X-.097 Y-5.405 I.039 J-.498
N4045 G01 X-.244 Y-5.42
N4050 G03 X-.254 Y-5.421 I.049 J-.498
N4055 G01 X-.401 Y-5.438
N4060 G03 X-.411 Y-5.439 I.058 J-.497
N4065 G01 X-.558 Y-5.459
N4070 G03 X-.568 Y-5.461 I.068 J-.495
N4075 G01 X-.714 Y-5.484
N4080 G03 X-.724 Y-5.485 I.078 J-.494
N4085 G01 X-.87 Y-5.511
N4090 G03 X-.88 Y-5.513 I.087 J-.492
N4095 G01 X-1.026 Y-5.542
N4100 G03 X-1.035 Y-5.544 I.097 J-.491
N4105 G01 X-1.181 Y-5.576
N4110 G03 X-1.19 Y-5.578 I.106 J-.489
N4115 G01 X-1.335 Y-5.612
N4120 G03 X-1.344 Y-5.615 I.116 J-.486
N4125 G01 X-1.489 Y-5.652
N4130 G03 X-1.498 Y-5.655 I.126 J-.484
N4135 G01 X-1.642 Y-5.695
N4140 G03 X-1.651 Y-5.698 I.135 J-.481
N4145 G01 X-1.794 Y-5.741
N4150 G03 X-1.803 Y-5.743 I.144 J-.479
N4155 G01 X-1.927 Y-5.784
N4160 G03 X-1.939 Y-5.787 I.153 J-.476
N4165 G01 X-2.155 Y-5.863
N4170 G03 X-2.167 Y-5.867 I.164 J-.472
N4175 G01 X-2.329 Y-5.928
N4180 G03 X-2.338 Y-5.932 I.177 J-.468
N4185 G01 X-2.458 Y-5.98
N4190 G03 X-2.468 Y-5.984 I.186 J-.464
N4195 G01 X-2.647 Y-6.06
N4200 G03 X-2.658 Y-6.065 I.196 J-.46
N4205 G01 X-2.83 Y-6.144
N4210 X-2.869 Y-6.161
N4215 X-2.897 Y-6.17
N4220 X-2.924 Y-6.177
N4225 X-2.952 Y-6.183
N4230 X-2.98 Y-6.186
N4235 X-3.008 Y-6.187
N4240 X-3.036 Y-6.186
N4245 X-3.064 Y-6.184
N4250 X-3.092 Y-6.179
N4255 X-3.119 Y-6.173
N4260 X-3.146 Y-6.164
N4265 X-3.172 Y-6.154
N4270 X-3.197 Y-6.142
N4275 X-3.221 Y-6.128
N4280 X-3.245 Y-6.113
N4285 X-3.267 Y-6.095
N4290 X-3.29 Y-6.075
N4295 X-3.301 Y-6.064
N4300 X-3.325 Y-6.037
N4305 X-3.354 Y-5.997
N4310 X-3.41 Y-5.916
N4315 G03 X-3.423 Y-5.899 I-.409 J-.287
N4320 G01 X-3.486 Y-5.817
N4325 G03 X-3.499 Y-5.8 I-.397 J-.304
N4330 G01 X-3.565 Y-5.721
N4335 G03 X-3.58 Y-5.705 I-.383 J-.321
N4340 G01 X-3.649 Y-5.63
N4345 G03 X-3.663 Y-5.614 I-.369 J-.337
N4350 G01 X-3.736 Y-5.542
N4355 G03 X-3.751 Y-5.527 I-.354 J-.353
N4360 G01 X-3.826 Y-5.458
N4365 G03 X-3.842 Y-5.444 I-.339 J-.368
N4370 G01 X-3.919 Y-5.378
N4375 G03 X-3.936 Y-5.365 I-.323 J-.382
N4380 G01 X-4.016 Y-5.302
N4385 G03 X-4.033 Y-5.29 I-.307 J-.395
N4390 G01 X-4.116 Y-5.231
N4395 G03 X-4.134 Y-5.219 I-.29 J-.408
N4400 G01 X-4.219 Y-5.163
N4405 G03 X-4.237 Y-5.152 I-.272 J-.419
N4410 G01 X-4.324 Y-5.101
N4415 G03 X-4.343 Y-5.09 I-.254 J-.431
N4420 G01 X-4.432 Y-5.042
N4425 G03 X-4.451 Y-5.033 I-.236 J-.441
N4430 G01 X-4.543 Y-4.989
N4435 G03 X-4.562 Y-4.98 I-.217 J-.451
N4440 G01 X-4.656 Y-4.94
N4445 G03 X-4.675 Y-4.932 I-.198 J-.459
N4450 G01 X-4.771 Y-4.895
N4455 G03 X-4.791 Y-4.888 I-.178 J-.467
N4460 G01 X-4.888 Y-4.856
N4465 G03 X-4.908 Y-4.85 I-.158 J-.474
N4470 G01 X-5.007 Y-4.822
N4475 G03 X-5.025 Y-4.817 I-.137 J-.481
N4480 G01 X-5.1 Y-4.798
N4485 G03 X-5.119 Y-4.794 I-.119 J-.486
N4490 G01 X-5.233 Y-4.771
N4495 G03 X-5.257 Y-4.767 I-.1 J-.49
N4500 G01 X-5.372 Y-4.749
N4505 G03 X-5.395 Y-4.746 I-.076 J-.494
N4510 G01 X-5.498 Y-4.735
N4515 G03 X-5.519 Y-4.733 I-.053 J-.497
N4520 G01 X-5.622 Y-4.727
N4525 G03 X-5.644 Y-4.726 I-.032 J-.499
N4530 G01 X-5.747 Y-4.724
N4535 G03 X-5.768 I-.01 J-.5
N4540 G01 X-5.871 Y-4.726
N4545 G03 X-5.892 Y-4.727 I.011 J-.5
N4550 G01 X-5.994 Y-4.733
N4555 G03 X-6.015 Y-4.735 I.033 J-.499
N4560 G01 X-6.117 Y-4.746
N4565 G03 X-6.138 Y-4.749 I.054 J-.497
N4570 G01 X-6.238 Y-4.764
N4575 G03 X-6.259 Y-4.768 I.075 J-.494
N4580 G01 X-6.359 Y-4.787
N4585 G03 X-6.38 Y-4.792 I.096 J-.491
N4590 G01 X-6.479 Y-4.815
N4595 G03 X-6.499 Y-4.821 I.116 J-.486
N4600 G01 X-6.597 Y-4.849
N4605 G03 X-6.617 Y-4.855 I.137 J-.481
N4610 G01 X-6.713 Y-4.887
N4615 G03 X-6.733 Y-4.894 I.157 J-.475
N4620 G01 X-6.828 Y-4.93
N4625 G03 X-6.848 Y-4.938 I.177 J-.468
N4630 G01 X-6.941 Y-4.978
N4635 G03 X-6.961 Y-4.986 I.197 J-.46
N4640 G01 X-7.03 Y-5.02
N4645 X-7.101 Y-4.919
N4650 X-7.244 Y-4.702
N4655 X-7.381 Y-4.481
N4660 X-7.511 Y-4.256
N4665 X-7.634 Y-4.027
N4670 X-7.75 Y-3.795
N4675 X-7.859 Y-3.559
N4680 X-7.96 Y-3.32
N4685 X-8.012 Y-3.187
N4690 X-8.005 Y-3.108
N4695 G03 X-8.003 Y-3.078 I-.498 J.046
N4700 G01 X-8. Y-2.986
N4705 G03 Y-2.97 I-.5 J.015
N4710 G01 Y3.089
N4715 X-7.935 Y3.251
N4720 X-7.831 Y3.488
N4725 X-7.721 Y3.722
N4730 X-7.603 Y3.953
N4735 X-7.496 Y4.148
N4740 X-7.446 Y4.178
N4745 X-7.259 Y4.285
N4750 X-7.071 Y4.389
N4755 X-6.881 Y4.491
N4760 X-6.691 Y4.589
N4765 X-6.499 Y4.684
N4770 X-6.307 Y4.777
N4775 X-6.113 Y4.866
N4780 X-5.918 Y4.953
N4785 X-5.723 Y5.037
N4790 X-5.527 Y5.117
N4795 X-5.329 Y5.195
N4800 X-5.131 Y5.27
N4805 X-4.932 Y5.342
N4810 X-4.733 Y5.411
N4815 X-4.532 Y5.477
N4820 X-4.331 Y5.54
N4825 X-4.129 Y5.6
N4830 X-3.927 Y5.657
N4835 X-3.724 Y5.712
N4840 X-3.52 Y5.763
N4845 X-3.316 Y5.812
N4850 X-3.111 Y5.857
N4855 X-2.906 Y5.9
N4860 X-2.7 Y5.939
N4865 X-2.494 Y5.976
N4870 X-2.288 Y6.01
N4875 X-2.081 Y6.041
N4880 X-1.874 Y6.068
N4885 X-1.666 Y6.093
N4890 X-1.459 Y6.115
N4895 X-1.251 Y6.134
N4900 X-1.042 Y6.151
N4905 X-.834 Y6.164
N4910 X-.626 Y6.174
N4915 X-.417 Y6.181
N4920 X-.209 Y6.186
N4925 X0 Y6.187
N4930 X.209 Y6.186
N4935 X.417 Y6.181
N4940 X.626 Y6.174
N4945 X.834 Y6.164
N4950 X1.042 Y6.151
N4955 X1.251 Y6.134
N4960 X1.459 Y6.115
N4965 X1.666 Y6.093
N4970 X1.874 Y6.068
N4975 X2.081 Y6.041
N4980 X2.288 Y6.01
N4985 X2.494 Y5.976
N4990 X2.7 Y5.939
N4995 X2.906 Y5.9
N5000 X3.111 Y5.857
N5005 X3.316 Y5.812
N5010 X3.52 Y5.763
N5015 X3.724 Y5.712
N5020 X3.927 Y5.657
N5025 X4.129 Y5.6
N5030 X4.331 Y5.54
N5035 X4.532 Y5.477
N5040 X4.733 Y5.411
N5045 X4.932 Y5.342
N5050 X5.131 Y5.27
N5055 X5.317 Y5.2
N5060 X5.491 Y5.132
N5065 X5.651 Y5.066
N5070 X5.955 Y4.937
N5075 X6.217 Y4.818
N5080 X6.446 Y4.71
N5085 X6.644 Y4.612
N5090 X6.817 Y4.524
N5095 X6.966 Y4.446
N5100 X7.229 Y4.302
N5105 X7.266 Y4.281
N5110 X7.363 Y4.11
N5115 X7.483 Y3.883
N5120 X7.596 Y3.653
N5125 X7.702 Y3.419
N5130 X7.801 Y3.182
N5135 X7.892 Y2.942
N5140 X7.976 Y2.7
N5145 X8. Y2.625
N5150 Y-2.495
N5155 X7.97 Y-2.589
N5160 X7.885 Y-2.831
N5165 X7.794 Y-3.069
N5170 X7.694 Y-3.305
N5175 X7.588 Y-3.538
N5180 X7.475 Y-3.767
N5185 X7.354 Y-3.993
N5190 X7.227 Y-4.215
N5195 X7.093 Y-4.433
N5200 X6.953 Y-4.646
N5205 X6.806 Y-4.855
N5210 X6.653 Y-5.06
N5215 X6.503 Y-5.249
N5220 G03 X6.501 Y-5.248 I-.043 J-.498
N5225 G01 X6.404 Y-5.24
N5230 G03 X6.393 I-.041 J-.498
N5235 G01 X6.296 Y-5.234
N5240 G03 X6.285 Y-5.233 I-.03 J-.499
N5245 G01 X6.188 Y-5.229
N5250 G03 X6.177 I-.02 J-.5
N5255 G01 X6.08 Y-5.227
N5260 G03 X6.069 I-.009 J-.5
N5265 G01 X5.972 Y-5.228
N5270 G03 X5.961 I.002 J-.5
N5275 G01 X5.864 Y-5.23
N5280 G03 X5.853 Y-5.231 I.013 J-.5
N5285 G01 X5.756 Y-5.235
N5290 G03 X5.745 Y-5.236 I.024 J-.499
N5295 G01 X5.648 Y-5.243
N5300 G03 X5.637 I.034 J-.499
N5305 G01 X5.54 Y-5.252
N5310 G03 X5.53 Y-5.253 I.045 J-.498
N5315 G01 X5.433 Y-5.264
N5320 G03 X5.422 Y-5.265 I.056 J-.497
N5325 G01 X5.326 Y-5.278
N5330 G03 X5.315 Y-5.28 I.067 J-.496
N5335 G01 X5.219 Y-5.295
N5340 G03 X5.208 Y-5.297 I.077 J-.494
N5345 G01 X5.113 Y-5.314
N5350 G03 X5.102 Y-5.316 I.088 J-.492
N5355 G01 X5.006 Y-5.335
N5360 G03 X4.996 Y-5.337 I.099 J-.49
N5365 G01 X4.901 Y-5.359
N5370 G03 X4.89 Y-5.361 I.109 J-.488
N5375 G01 X4.795 Y-5.385
N5380 G03 X4.785 Y-5.387 I.12 J-.485
N5385 G01 X4.69 Y-5.413
N5390 G03 X4.68 Y-5.416 I.13 J-.483
N5395 G01 X4.586 Y-5.443
N5400 G03 X4.576 Y-5.446 I.141 J-.48
N5405 G01 X4.482 Y-5.476
N5410 G03 X4.472 Y-5.479 I.151 J-.477
N5415 G01 X4.379 Y-5.511
N5420 G03 X4.365 Y-5.516 I.161 J-.473
N5425 G01 X4.204 Y-5.577
N5430 G03 X4.188 Y-5.583 I.176 J-.468
N5435 G01 X4.069 Y-5.632
N5440 G03 X4.057 Y-5.637 I.191 J-.462
N5445 G01 X3.968 Y-5.677
N5450 G03 X3.956 Y-5.682 I.203 J-.457
N5455 G01 X3.824 Y-5.745
N5460 G03 X3.81 Y-5.752 I.215 J-.451
N5465 G01 X3.685 Y-5.817
N5470 X3.641 Y-5.838
N5475 X3.61 Y-5.85
N5480 X3.578 Y-5.859
N5485 X3.545 Y-5.866
N5490 X3.512 Y-5.87
N5495 X3.479 Y-5.871
N5500 X3.446 Y-5.869
N5505 X3.413 Y-5.865
N5510 X3.38 Y-5.857
N5515 X3.335 Y-5.844
N5520 X3.2 Y-5.797
N5525 G03 X3.191 Y-5.794 I-.164 J-.472
N5530 G01 X3.048 Y-5.747
N5535 G03 X3.038 Y-5.744 I-.154 J-.476
N5540 G01 X2.894 Y-5.7
N5545 G03 X2.885 Y-5.698 I-.145 J-.478
N5550 G01 X2.74 Y-5.657
N5555 G03 X2.731 Y-5.654 I-.136 J-.481
N5560 G01 X2.586 Y-5.617
N5565 G03 X2.576 Y-5.614 I-.126 J-.484
N5570 G01 X2.431 Y-5.579
N5575 G03 X2.421 Y-5.577 I-.116 J-.486
N5580 G01 X2.275 Y-5.545
N5585 G03 X2.265 Y-5.543 I-.107 J-.488
N5590 G01 X2.119 Y-5.514
N5595 G03 X2.109 Y-5.512 I-.097 J-.49
N5600 G01 X1.963 Y-5.486
N5605 G03 X1.953 Y-5.485 I-.088 J-.492
N5610 G01 X1.806 Y-5.461
N5615 G03 X1.796 Y-5.46 I-.078 J-.494
N5620 G01 X1.649 Y-5.44
N5625 G03 X1.639 Y-5.438 I-.068 J-.495
N5630 G01 X1.491 Y-5.421
N5635 G03 X1.481 Y-5.42 I-.059 J-.497
N5640 G01 X1.334 Y-5.405
N5645 G03 X1.324 I-.049 J-.498
N5650 G01 X1.176 Y-5.393
N5655 G03 X1.166 Y-5.392 I-.039 J-.498
N5660 G01 X1.018 Y-5.384
N5665 G03 X1.008 Y-5.383 I-.029 J-.499
N5670 G01 X.86 Y-5.377
N5675 G03 X.85 I-.02 J-.5
N5680 G01 X.702 Y-5.374
N5685 G03 X.692 I-.01 J-.5
N5690 G01 X.544
N5695 G03 X.534 I0 J-.5
N5700 G01 X.386 Y-5.377
N5705 G03 X.376 I.01 J-.5
N5710 G01 X.228 Y-5.383
N5715 G03 X.218 I.019 J-.5
N5720 G01 X.07 Y-5.392
N5725 G03 X.061 Y-5.393 I.029 J-.499
N5730 G01 X-.087 Y-5.404
N5735 G03 X-.097 Y-5.405 I.039 J-.498
N5740 G01 X-.244 Y-5.42
N5745 G03 X-.254 Y-5.421 I.049 J-.498
N5750 G01 X-.401 Y-5.438
N5755 G03 X-.411 Y-5.439 I.058 J-.497
N5760 G01 X-.558 Y-5.459
N5765 G03 X-.568 Y-5.461 I.068 J-.495
N5770 G01 X-.714 Y-5.484
N5775 G03 X-.724 Y-5.485 I.078 J-.494
N5780 G01 X-.87 Y-5.511
N5785 G03 X-.88 Y-5.513 I.087 J-.492
N5790 G01 X-1.026 Y-5.542
N5795 G03 X-1.035 Y-5.544 I.097 J-.491
N5800 G01 X-1.181 Y-5.576
N5805 G03 X-1.19 Y-5.578 I.106 J-.489
N5810 G01 X-1.335 Y-5.612
N5815 G03 X-1.344 Y-5.615 I.116 J-.486
N5820 G01 X-1.489 Y-5.652
N5825 G03 X-1.498 Y-5.655 I.126 J-.484
N5830 G01 X-1.642 Y-5.695
N5835 G03 X-1.651 Y-5.698 I.135 J-.481
N5840 G01 X-1.794 Y-5.741
N5845 G03 X-1.803 Y-5.743 I.144 J-.479
N5850 G01 X-1.927 Y-5.784
N5855 G03 X-1.939 Y-5.787 I.153 J-.476
N5860 G01 X-2.155 Y-5.863
N5865 G03 X-2.167 Y-5.867 I.164 J-.472
N5870 G01 X-2.329 Y-5.928
N5875 G03 X-2.338 Y-5.932 I.177 J-.468
N5880 G01 X-2.458 Y-5.98
N5885 G03 X-2.468 Y-5.984 I.186 J-.464
N5890 G01 X-2.647 Y-6.06
N5895 G03 X-2.658 Y-6.065 I.196 J-.46
N5900 G01 X-2.83 Y-6.144
N5905 X-2.869 Y-6.161
N5910 X-2.897 Y-6.17
N5915 X-2.924 Y-6.177
N5920 X-2.952 Y-6.183
N5925 X-2.98 Y-6.186
N5930 X-3.008 Y-6.187
N5935 X-3.036 Y-6.186
N5940 X-3.064 Y-6.184
N5945 X-3.092 Y-6.179
N5950 X-3.119 Y-6.173
N5955 X-3.146 Y-6.164
N5960 X-3.172 Y-6.154
N5965 X-3.197 Y-6.142
N5970 X-3.221 Y-6.128
N5975 X-3.245 Y-6.113
N5980 X-3.267 Y-6.095
N5985 X-3.29 Y-6.075
N5990 X-3.301 Y-6.064
N5995 X-3.325 Y-6.037
N6000 X-3.354 Y-5.997
N6005 X-3.41 Y-5.916
N6010 G03 X-3.423 Y-5.899 I-.409 J-.287
N6015 G01 X-3.486 Y-5.817
N6020 G03 X-3.499 Y-5.8 I-.397 J-.304
N6025 G01 X-3.565 Y-5.721
N6030 G03 X-3.58 Y-5.705 I-.383 J-.321
N6035 G01 X-3.649 Y-5.63
N6040 G03 X-3.663 Y-5.614 I-.369 J-.337
N6045 G01 X-3.736 Y-5.542
N6050 G03 X-3.751 Y-5.527 I-.354 J-.353
N6055 G01 X-3.826 Y-5.458
N6060 G03 X-3.842 Y-5.444 I-.339 J-.368
N6065 G01 X-3.919 Y-5.378
N6070 G03 X-3.936 Y-5.365 I-.323 J-.382
N6075 G01 X-4.016 Y-5.302
N6080 G03 X-4.033 Y-5.29 I-.307 J-.395
N6085 G01 X-4.116 Y-5.231
N6090 G03 X-4.134 Y-5.219 I-.29 J-.408
N6095 G01 X-4.219 Y-5.163
N6100 G03 X-4.237 Y-5.152 I-.272 J-.419
N6105 G01 X-4.324 Y-5.101
N6110 G03 X-4.343 Y-5.09 I-.254 J-.431
N6115 G01 X-4.432 Y-5.042
N6120 G03 X-4.451 Y-5.033 I-.236 J-.441
N6125 G01 X-4.543 Y-4.989
N6130 G03 X-4.562 Y-4.98 I-.217 J-.451
N6135 G01 X-4.656 Y-4.94
N6140 G03 X-4.675 Y-4.932 I-.198 J-.459
N6145 G01 X-4.771 Y-4.895
N6150 G03 X-4.791 Y-4.888 I-.178 J-.467
N6155 G01 X-4.888 Y-4.856
N6160 G03 X-4.908 Y-4.85 I-.158 J-.474
N6165 G01 X-5.007 Y-4.822
N6170 G03 X-5.025 Y-4.817 I-.137 J-.481
N6175 G01 X-5.1 Y-4.798
N6180 G03 X-5.119 Y-4.794 I-.119 J-.486
N6185 G01 X-5.233 Y-4.771
N6190 G03 X-5.257 Y-4.767 I-.1 J-.49
N6195 G01 X-5.372 Y-4.749
N6200 G03 X-5.395 Y-4.746 I-.076 J-.494
N6205 G01 X-5.498 Y-4.735
N6210 G03 X-5.519 Y-4.733 I-.053 J-.497
N6215 G01 X-5.622 Y-4.727
N6220 G03 X-5.644 Y-4.726 I-.032 J-.499
N6225 G01 X-5.747 Y-4.724
N6230 G03 X-5.768 I-.01 J-.5
N6235 G01 X-5.871 Y-4.726
N6240 G03 X-5.892 Y-4.727 I.011 J-.5
N6245 G01 X-5.994 Y-4.733
N6250 G03 X-6.015 Y-4.735 I.033 J-.499
N6255 G01 X-6.117 Y-4.746
N6260 G03 X-6.138 Y-4.749 I.054 J-.497
N6265 G01 X-6.238 Y-4.764
N6270 G03 X-6.259 Y-4.768 I.075 J-.494
N6275 G01 X-6.359 Y-4.787
N6280 G03 X-6.38 Y-4.792 I.096 J-.491
N6285 G01 X-6.479 Y-4.815
N6290 G03 X-6.499 Y-4.821 I.116 J-.486
N6295 G01 X-6.597 Y-4.849
N6300 G03 X-6.617 Y-4.855 I.137 J-.481
N6305 G01 X-6.649 Y-4.865
N6310 X-6.707 Y-4.785
N6315 X-6.85 Y-4.576
N6320 X-6.986 Y-4.361
N6325 X-7.115 Y-4.143
N6330 X-7.237 Y-3.921
N6335 X-7.353 Y-3.696
N6340 X-7.462 Y-3.466
N6345 X-7.563 Y-3.234
N6350 X-7.657 Y-2.999
N6355 X-7.744 Y-2.761
N6360 X-7.824 Y-2.52
N6365 X-7.896 Y-2.277
N6370 X-7.96 Y-2.032
N6375 X-8. Y-1.861
N6380 Y1.736
N6385 X-7.942 Y1.976
N6390 X-7.876 Y2.22
N6395 X-7.801 Y2.461
N6400 X-7.72 Y2.701
N6405 X-7.631 Y2.937
N6410 X-7.534 Y3.171
N6415 X-7.431 Y3.401
N6420 X-7.321 Y3.629
N6425 X-7.203 Y3.852
N6430 X-7.079 Y4.072
N6435 X-6.948 Y4.288
N6440 X-6.81 Y4.5
N6445 X-6.781 Y4.542
N6450 X-6.691 Y4.589
N6455 X-6.499 Y4.684
N6460 X-6.307 Y4.777
N6465 X-6.113 Y4.866
N6470 X-5.918 Y4.953
N6475 X-5.723 Y5.037
N6480 X-5.527 Y5.117
N6485 X-5.329 Y5.195
N6490 X-5.131 Y5.27
N6495 X-4.932 Y5.342
N6500 X-4.733 Y5.411
N6505 X-4.532 Y5.477
N6510 X-4.331 Y5.54
N6515 X-4.129 Y5.6
N6520 X-3.927 Y5.657
N6525 X-3.724 Y5.712
N6530 X-3.52 Y5.763
N6535 X-3.316 Y5.812
N6540 X-3.111 Y5.857
N6545 X-2.906 Y5.9
N6550 X-2.7 Y5.939
N6555 X-2.494 Y5.976
N6560 X-2.288 Y6.01
N6565 X-2.081 Y6.041
N6570 X-1.874 Y6.068
N6575 X-1.666 Y6.093
N6580 X-1.459 Y6.115
N6585 X-1.251 Y6.134
N6590 X-1.042 Y6.151
N6595 X-.834 Y6.164
N6600 X-.626 Y6.174
N6605 X-.417 Y6.181
N6610 X-.209 Y6.186
N6615 X0 Y6.187
N6620 X.209 Y6.186
N6625 X.417 Y6.181
N6630 X.626 Y6.174
N6635 X.834 Y6.164
N6640 X1.042 Y6.151
N6645 X1.251 Y6.134
N6650 X1.459 Y6.115
N6655 X1.666 Y6.093
N6660 X1.874 Y6.068
N6665 X2.081 Y6.041
N6670 X2.288 Y6.01
N6675 X2.494 Y5.976
N6680 X2.7 Y5.939
N6685 X2.906 Y5.9
N6690 X3.111 Y5.857
N6695 X3.316 Y5.812
N6700 X3.52 Y5.763
N6705 X3.724 Y5.712
N6710 X3.927 Y5.657
N6715 X4.129 Y5.6
N6720 X4.331 Y5.54
N6725 X4.532 Y5.477
N6730 X4.733 Y5.411
N6735 X4.932 Y5.342
N6740 X5.131 Y5.27
N6745 X5.317 Y5.2
N6750 X5.491 Y5.132
N6755 X5.651 Y5.066
N6760 X5.955 Y4.937
N6765 X6.217 Y4.818
N6770 X6.446 Y4.71
N6775 X6.551 Y4.658
N6780 X6.626 Y4.551
N6785 X6.763 Y4.341
N6790 X6.894 Y4.127
N6795 X7.017 Y3.909
N6800 X7.134 Y3.688
N6805 X7.244 Y3.463
N6810 X7.346 Y3.234
N6815 X7.442 Y3.003
N6820 X7.53 Y2.769
N6825 X7.611 Y2.532
N6830 X7.684 Y2.293
N6835 X7.75 Y2.051
N6840 X7.808 Y1.808
N6845 X7.859 Y1.563
N6850 X7.902 Y1.317
N6855 X7.937 Y1.069
N6860 X7.965 Y.821
N6865 X7.984 Y.571
N6870 X7.996 Y.322
N6875 X8. Y.096
N6880 Y.044
N6885 X7.997 Y-.178
N6890 X7.985 Y-.428
N6895 X7.966 Y-.677
N6900 X7.939 Y-.925
N6905 X7.904 Y-1.172
N6910 X7.862 Y-1.418
N6915 X7.812 Y-1.663
N6920 X7.754 Y-1.906
N6925 X7.689 Y-2.147
N6930 X7.616 Y-2.386
N6935 X7.536 Y-2.622
N6940 X7.448 Y-2.856
N6945 X7.353 Y-3.086
N6950 X7.251 Y-3.314
N6955 X7.142 Y-3.538
N6960 X7.026 Y-3.759
N6965 X6.904 Y-3.976
N6970 X6.774 Y-4.189
N6975 X6.638 Y-4.398
N6980 X6.495 Y-4.603
N6985 X6.346 Y-4.803
N6990 X6.191 Y-4.998
N6995 X6.03 Y-5.188
N7000 X5.995 Y-5.228
N7005 X5.972
N7010 G03 X5.961 I.002 J-.5
N7015 G01 X5.864 Y-5.23
N7020 G03 X5.853 Y-5.231 I.013 J-.5
N7025 G01 X5.756 Y-5.235
N7030 G03 X5.745 Y-5.236 I.024 J-.499
N7035 G01 X5.648 Y-5.243
N7040 G03 X5.637 I.034 J-.499
N7045 G01 X5.54 Y-5.252
N7050 G03 X5.53 Y-5.253 I.045 J-.498
N7055 G01 X5.433 Y-5.264
N7060 G03 X5.422 Y-5.265 I.056 J-.497
N7065 G01 X5.326 Y-5.278
N7070 G03 X5.315 Y-5.28 I.067 J-.496
N7075 G01 X5.219 Y-5.295
N7080 G03 X5.208 Y-5.297 I.077 J-.494
N7085 G01 X5.113 Y-5.314
N7090 G03 X5.102 Y-5.316 I.088 J-.492
N7095 G01 X5.006 Y-5.335
N7100 G03 X4.996 Y-5.337 I.099 J-.49
N7105 G01 X4.901 Y-5.359
N7110 G03 X4.89 Y-5.361 I.109 J-.488
N7115 G01 X4.795 Y-5.385
N7120 G03 X4.785 Y-5.387 I.12 J-.485
N7125 G01 X4.69 Y-5.413
N7130 G03 X4.68 Y-5.416 I.13 J-.483
N7135 G01 X4.586 Y-5.443
N7140 G03 X4.576 Y-5.446 I.141 J-.48
N7145 G01 X4.482 Y-5.476
N7150 G03 X4.472 Y-5.479 I.151 J-.477
N7155 G01 X4.379 Y-5.511
N7160 G03 X4.365 Y-5.516 I.161 J-.473
N7165 G01 X4.204 Y-5.577
N7170 G03 X4.188 Y-5.583 I.176 J-.468
N7175 G01 X4.069 Y-5.632
N7180 G03 X4.057 Y-5.637 I.191 J-.462
N7185 G01 X3.968 Y-5.677
N7190 G03 X3.956 Y-5.682 I.203 J-.457
N7195 G01 X3.824 Y-5.745
N7200 G03 X3.81 Y-5.752 I.215 J-.451
N7205 G01 X3.685 Y-5.817
N7210 X3.641 Y-5.838
N7215 X3.61 Y-5.85
N7220 X3.578 Y-5.859
N7225 X3.545 Y-5.866
N7230 X3.512 Y-5.87
N7235 X3.479 Y-5.871
N7240 X3.446 Y-5.869
N7245 X3.413 Y-5.865
N7250 X3.38 Y-5.857
N7255 X3.335 Y-5.844
N7260 X3.2 Y-5.797
N7265 G03 X3.191 Y-5.794 I-.164 J-.472
N7270 G01 X3.048 Y-5.747
N7275 G03 X3.038 Y-5.744 I-.154 J-.476
N7280 G01 X2.894 Y-5.7
N7285 G03 X2.885 Y-5.698 I-.145 J-.478
N7290 G01 X2.74 Y-5.657
N7295 G03 X2.731 Y-5.654 I-.136 J-.481
N7300 G01 X2.586 Y-5.617
N7305 G03 X2.576 Y-5.614 I-.126 J-.484
N7310 G01 X2.431 Y-5.579
N7315 G03 X2.421 Y-5.577 I-.116 J-.486
N7320 G01 X2.275 Y-5.545
N7325 G03 X2.265 Y-5.543 I-.107 J-.488
N7330 G01 X2.119 Y-5.514
N7335 G03 X2.109 Y-5.512 I-.097 J-.49
N7340 G01 X1.963 Y-5.486
N7345 G03 X1.953 Y-5.485 I-.088 J-.492
N7350 G01 X1.806 Y-5.461
N7355 G03 X1.796 Y-5.46 I-.078 J-.494
N7360 G01 X1.649 Y-5.44
N7365 G03 X1.639 Y-5.438 I-.068 J-.495
N7370 G01 X1.491 Y-5.421
N7375 G03 X1.481 Y-5.42 I-.059 J-.497
N7380 G01 X1.334 Y-5.405
N7385 G03 X1.324 I-.049 J-.498
N7390 G01 X1.176 Y-5.393
N7395 G03 X1.166 Y-5.392 I-.039 J-.498
N7400 G01 X1.018 Y-5.384
N7405 G03 X1.008 Y-5.383 I-.029 J-.499
N7410 G01 X.86 Y-5.377
N7415 G03 X.85 I-.02 J-.5
N7420 G01 X.702 Y-5.374
N7425 G03 X.692 I-.01 J-.5
N7430 G01 X.544
N7435 G03 X.534 I0 J-.5
N7440 G01 X.386 Y-5.377
N7445 G03 X.376 I.01 J-.5
N7450 G01 X.228 Y-5.383
N7455 G03 X.218 I.019 J-.5
N7460 G01 X.07 Y-5.392
N7465 G03 X.061 Y-5.393 I.029 J-.499
N7470 G01 X-.087 Y-5.404
N7475 G03 X-.097 Y-5.405 I.039 J-.498
N7480 G01 X-.244 Y-5.42
N7485 G03 X-.254 Y-5.421 I.049 J-.498
N7490 G01 X-.401 Y-5.438
N7495 G03 X-.411 Y-5.439 I.058 J-.497
N7500 G01 X-.558 Y-5.459
N7505 G03 X-.568 Y-5.461 I.068 J-.495
N7510 G01 X-.714 Y-5.484
N7515 G03 X-.724 Y-5.485 I.078 J-.494
N7520 G01 X-.87 Y-5.511
N7525 G03 X-.88 Y-5.513 I.087 J-.492
N7530 G01 X-1.026 Y-5.542
N7535 G03 X-1.035 Y-5.544 I.097 J-.491
N7540 G01 X-1.181 Y-5.576
N7545 G03 X-1.19 Y-5.578 I.106 J-.489
N7550 G01 X-1.335 Y-5.612
N7555 G03 X-1.344 Y-5.615 I.116 J-.486
N7560 G01 X-1.489 Y-5.652
N7565 G03 X-1.498 Y-5.655 I.126 J-.484
N7570 G01 X-1.642 Y-5.695
N7575 G03 X-1.651 Y-5.698 I.135 J-.481
N7580 G01 X-1.794 Y-5.741
N7585 G03 X-1.803 Y-5.743 I.144 J-.479
N7590 G01 X-1.927 Y-5.784
N7595 G03 X-1.939 Y-5.787 I.153 J-.476
N7600 G01 X-2.155 Y-5.863
N7605 G03 X-2.167 Y-5.867 I.164 J-.472
N7610 G01 X-2.329 Y-5.928
N7615 G03 X-2.338 Y-5.932 I.177 J-.468
N7620 G01 X-2.458 Y-5.98
N7625 G03 X-2.468 Y-5.984 I.186 J-.464
N7630 G01 X-2.647 Y-6.06
N7635 G03 X-2.658 Y-6.065 I.196 J-.46
N7640 G01 X-2.83 Y-6.144
N7645 X-2.869 Y-6.161
N7650 X-2.897 Y-6.17
N7655 X-2.924 Y-6.177
N7660 X-2.952 Y-6.183
N7665 X-2.98 Y-6.186
N7670 X-3.008 Y-6.187
N7675 X-3.036 Y-6.186
N7680 X-3.064 Y-6.184
N7685 X-3.092 Y-6.179
N7690 X-3.119 Y-6.173
N7695 X-3.146 Y-6.164
N7700 X-3.172 Y-6.154
N7705 X-3.197 Y-6.142
N7710 X-3.221 Y-6.128
N7715 X-3.245 Y-6.113
N7720 X-3.267 Y-6.095
N7725 X-3.29 Y-6.075
N7730 X-3.301 Y-6.064
N7735 X-3.325 Y-6.037
N7740 X-3.354 Y-5.997
N7745 X-3.41 Y-5.916
N7750 G03 X-3.423 Y-5.899 I-.409 J-.287
N7755 G01 X-3.486 Y-5.817
N7760 G03 X-3.499 Y-5.8 I-.397 J-.304
N7765 G01 X-3.565 Y-5.721
N7770 G03 X-3.58 Y-5.705 I-.383 J-.321
N7775 G01 X-3.649 Y-5.63
N7780 G03 X-3.663 Y-5.614 I-.369 J-.337
N7785 G01 X-3.736 Y-5.542
N7790 G03 X-3.751 Y-5.527 I-.354 J-.353
N7795 G01 X-3.826 Y-5.458
N7800 G03 X-3.842 Y-5.444 I-.339 J-.368
N7805 G01 X-3.919 Y-5.378
N7810 G03 X-3.936 Y-5.365 I-.323 J-.382
N7815 G01 X-4.016 Y-5.302
N7820 G03 X-4.033 Y-5.29 I-.307 J-.395
N7825 G01 X-4.116 Y-5.231
N7830 G03 X-4.134 Y-5.219 I-.29 J-.408
N7835 G01 X-4.219 Y-5.163
N7840 G03 X-4.237 Y-5.152 I-.272 J-.419
N7845 G01 X-4.324 Y-5.101
N7850 G03 X-4.343 Y-5.09 I-.254 J-.431
N7855 G01 X-4.432 Y-5.042
N7860 G03 X-4.451 Y-5.033 I-.236 J-.441
N7865 G01 X-4.543 Y-4.989
N7870 G03 X-4.562 Y-4.98 I-.217 J-.451
N7875 G01 X-4.656 Y-4.94
N7880 G03 X-4.675 Y-4.932 I-.198 J-.459
N7885 G01 X-4.771 Y-4.895
N7890 G03 X-4.791 Y-4.888 I-.178 J-.467
N7895 G01 X-4.888 Y-4.856
N7900 G03 X-4.908 Y-4.85 I-.158 J-.474
N7905 G01 X-5.007 Y-4.822
N7910 G03 X-5.025 Y-4.817 I-.137 J-.481
N7915 G01 X-5.1 Y-4.798
N7920 G03 X-5.119 Y-4.794 I-.119 J-.486
N7925 G01 X-5.233 Y-4.771
N7930 G03 X-5.257 Y-4.767 I-.1 J-.49
N7935 G01 X-5.372 Y-4.749
N7940 G03 X-5.395 Y-4.746 I-.076 J-.494
N7945 G01 X-5.498 Y-4.735
N7950 G03 X-5.519 Y-4.733 I-.053 J-.497
N7955 G01 X-5.622 Y-4.727
N7960 G03 X-5.644 Y-4.726 I-.032 J-.499
N7965 G01 X-5.747 Y-4.724
N7970 G03 X-5.768 I-.01 J-.5
N7975 G01 X-5.871 Y-4.726
N7980 G03 X-5.892 Y-4.727 I.011 J-.5
N7985 G01 X-5.994 Y-4.733
N7990 G03 X-6.015 Y-4.735 I.033 J-.499
N7995 G01 X-6.117 Y-4.746
N8000 G03 X-6.138 Y-4.749 I.054 J-.497
N8005 G01 X-6.228 Y-4.763
N8010 X-6.292 Y-4.679
N8015 X-6.434 Y-4.477
N8020 X-6.571 Y-4.27
N8025 X-6.7 Y-4.06
N8030 X-6.823 Y-3.845
N8035 X-6.94 Y-3.627
N8040 X-7.049 Y-3.406
N8045 X-7.151 Y-3.181
N8050 X-7.246 Y-2.952
N8055 X-7.334 Y-2.722
N8060 X-7.414 Y-2.488
N8065 X-7.487 Y-2.252
N8070 X-7.553 Y-2.014
N8075 X-7.61 Y-1.774
N8080 X-7.661 Y-1.532
N8085 X-7.703 Y-1.289
N8090 X-7.738 Y-1.045
N8095 X-7.765 Y-.799
N8100 X-7.785 Y-.553
N8105 X-7.796 Y-.307
N8110 X-7.8 Y-.06
N8115 X-7.796 Y.187
N8120 X-7.784 Y.433
N8125 X-7.765 Y.679
N8130 X-7.737 Y.924
N8135 X-7.702 Y1.168
N8140 X-7.659 Y1.411
N8145 X-7.609 Y1.652
N8150 X-7.551 Y1.891
N8155 X-7.485 Y2.129
N8160 X-7.412 Y2.364
N8165 X-7.332 Y2.597
N8170 X-7.244 Y2.827
N8175 X-7.149 Y3.054
N8180 X-7.047 Y3.278
N8185 X-6.938 Y3.499
N8190 X-6.822 Y3.716
N8195 X-6.699 Y3.929
N8200 X-6.569 Y4.139
N8205 X-6.433 Y4.344
N8210 X-6.291 Y4.544
N8215 X-6.142 Y4.74
N8220 X-5.998 Y4.918
N8225 X-5.918 Y4.953
N8230 X-5.723 Y5.037
N8235 X-5.527 Y5.117
N8240 X-5.329 Y5.195
N8245 X-5.131 Y5.27
N8250 X-4.932 Y5.342
N8255 X-4.733 Y5.411
N8260 X-4.532 Y5.477
N8265 X-4.331 Y5.54
N8270 X-4.129 Y5.6
N8275 X-3.927 Y5.657
N8280 X-3.724 Y5.712
N8285 X-3.52 Y5.763
N8290 X-3.316 Y5.812
N8295 X-3.111 Y5.857
N8300 X-2.906 Y5.9
N8305 X-2.7 Y5.939
N8310 X-2.494 Y5.976
N8315 X-2.288 Y6.01
N8320 X-2.081 Y6.041
N8325 X-1.874 Y6.068
N8330 X-1.666 Y6.093
N8335 X-1.459 Y6.115
N8340 X-1.251 Y6.134
N8345 X-1.042 Y6.151
N8350 X-.834 Y6.164
N8355 X-.626 Y6.174
N8360 X-.417 Y6.181
N8365 X-.209 Y6.186
N8370 X0 Y6.187
N8375 X.209 Y6.186
N8380 X.417 Y6.181
N8385 X.626 Y6.174
N8390 X.834 Y6.164
N8395 X1.042 Y6.151
N8400 X1.251 Y6.134
N8405 X1.459 Y6.115
N8410 X1.666 Y6.093
N8415 X1.874 Y6.068
N8420 X2.081 Y6.041
N8425 X2.288 Y6.01
N8430 X2.494 Y5.976
N8435 X2.7 Y5.939
N8440 X2.906 Y5.9
N8445 X3.111 Y5.857
N8450 X3.316 Y5.812
N8455 X3.52 Y5.763
N8460 X3.724 Y5.712
N8465 X3.927 Y5.657
N8470 X4.129 Y5.6
N8475 X4.331 Y5.54
N8480 X4.532 Y5.477
N8485 X4.733 Y5.411
N8490 X4.932 Y5.342
N8495 X5.131 Y5.27
N8500 X5.317 Y5.2
N8505 X5.491 Y5.132
N8510 X5.651 Y5.066
N8515 X5.769 Y5.016
N8520 X5.836 Y4.938
N8525 X5.989 Y4.748
N8530 X6.136 Y4.553
N8535 X6.277 Y4.354
N8540 X6.411 Y4.15
N8545 X6.538 Y3.942
N8550 X6.659 Y3.73
N8555 X6.773 Y3.515
N8560 X6.88 Y3.295
N8565 X6.98 Y3.073
N8570 X7.073 Y2.847
N8575 X7.158 Y2.619
N8580 X7.237 Y2.388
N8585 X7.307 Y2.155
N8590 X7.371 Y1.92
N8595 X7.426 Y1.682
N8600 X7.474 Y1.444
N8605 X7.515 Y1.203
N8610 X7.547 Y.962
N8615 X7.572 Y.72
N8620 X7.589 Y.477
N8625 X7.599 Y.234
N8630 X7.6 Y-.01
N8635 X7.594 Y-.253
N8640 X7.58 Y-.496
N8645 X7.558 Y-.738
N8650 X7.528 Y-.98
N8655 X7.491 Y-1.22
N8660 X7.446 Y-1.459
N8665 X7.394 Y-1.697
N8670 X7.333 Y-1.932
N8675 X7.266 Y-2.166
N8680 X7.191 Y-2.397
N8685 X7.108 Y-2.626
N8690 X7.018 Y-2.852
N8695 X6.921 Y-3.074
N8700 X6.817 Y-3.294
N8705 X6.706 Y-3.51
N8710 X6.589 Y-3.722
N8715 X6.464 Y-3.931
N8720 X6.333 Y-4.135
N8725 X6.195 Y-4.335
N8730 X6.051 Y-4.531
N8735 X5.901 Y-4.721
N8740 X5.745 Y-4.907
N8745 X5.583 Y-5.088
N8750 X5.415 Y-5.263
N8755 X5.41 Y-5.267
N8760 X5.326 Y-5.278
N8765 G03 X5.315 Y-5.28 I.067 J-.496
N8770 G01 X5.219 Y-5.295
N8775 G03 X5.208 Y-5.297 I.077 J-.494
N8780 G01 X5.113 Y-5.314
N8785 G03 X5.102 Y-5.316 I.088 J-.492
N8790 G01 X5.006 Y-5.335
N8795 G03 X4.996 Y-5.337 I.099 J-.49
N8800 G01 X4.901 Y-5.359
N8805 G03 X4.89 Y-5.361 I.109 J-.488
N8810 G01 X4.795 Y-5.385
N8815 G03 X4.785 Y-5.387 I.12 J-.485
N8820 G01 X4.69 Y-5.413
N8825 G03 X4.68 Y-5.416 I.13 J-.483
N8830 G01 X4.586 Y-5.443
N8835 G03 X4.576 Y-5.446 I.141 J-.48
N8840 G01 X4.482 Y-5.476
N8845 G03 X4.472 Y-5.479 I.151 J-.477
N8850 G01 X4.379 Y-5.511
N8855 G03 X4.365 Y-5.516 I.161 J-.473
N8860 G01 X4.204 Y-5.577
N8865 G03 X4.188 Y-5.583 I.176 J-.468
N8870 G01 X4.069 Y-5.632
N8875 G03 X4.057 Y-5.637 I.191 J-.462
N8880 G01 X3.968 Y-5.677
N8885 G03 X3.956 Y-5.682 I.203 J-.457
N8890 G01 X3.824 Y-5.745
N8895 G03 X3.81 Y-5.752 I.215 J-.451
N8900 G01 X3.685 Y-5.817
N8905 X3.641 Y-5.838
N8910 X3.61 Y-5.85
N8915 X3.578 Y-5.859
N8920 X3.545 Y-5.866
N8925 X3.512 Y-5.87
N8930 X3.479 Y-5.871
N8935 X3.446 Y-5.869
N8940 X3.413 Y-5.865
N8945 X3.38 Y-5.857
N8950 X3.335 Y-5.844
N8955 X3.2 Y-5.797
N8960 G03 X3.191 Y-5.794 I-.164 J-.472
N8965 G01 X3.048 Y-5.747
N8970 G03 X3.038 Y-5.744 I-.154 J-.476
N8975 G01 X2.894 Y-5.7
N8980 G03 X2.885 Y-5.698 I-.145 J-.478
N8985 G01 X2.74 Y-5.657
N8990 G03 X2.731 Y-5.654 I-.136 J-.481
N8995 G01 X2.586 Y-5.617
N9000 G03 X2.576 Y-5.614 I-.126 J-.484
N9005 G01 X2.431 Y-5.579
N9010 G03 X2.421 Y-5.577 I-.116 J-.486
N9015 G01 X2.275 Y-5.545
N9020 G03 X2.265 Y-5.543 I-.107 J-.488
N9025 G01 X2.119 Y-5.514
N9030 G03 X2.109 Y-5.512 I-.097 J-.49
N9035 G01 X1.963 Y-5.486
N9040 G03 X1.953 Y-5.485 I-.088 J-.492
N9045 G01 X1.806 Y-5.461
N9050 G03 X1.796 Y-5.46 I-.078 J-.494
N9055 G01 X1.649 Y-5.44
N9060 G03 X1.639 Y-5.438 I-.068 J-.495
N9065 G01 X1.491 Y-5.421
N9070 G03 X1.481 Y-5.42 I-.059 J-.497
N9075 G01 X1.334 Y-5.405
N9080 G03 X1.324 I-.049 J-.498
N9085 G01 X1.176 Y-5.393
N9090 G03 X1.166 Y-5.392 I-.039 J-.498
N9095 G01 X1.018 Y-5.384
N9100 G03 X1.008 Y-5.383 I-.029 J-.499
N9105 G01 X.86 Y-5.377
N9110 G03 X.85 I-.02 J-.5
N9115 G01 X.702 Y-5.374
N9120 G03 X.692 I-.01 J-.5
N9125 G01 X.544
N9130 G03 X.534 I0 J-.5
N9135 G01 X.386 Y-5.377
N9140 G03 X.376 I.01 J-.5
N9145 G01 X.228 Y-5.383
N9150 G03 X.218 I.019 J-.5
N9155 G01 X.07 Y-5.392
N9160 G03 X.061 Y-5.393 I.029 J-.499
N9165 G01 X-.087 Y-5.404
N9170 G03 X-.097 Y-5.405 I.039 J-.498
N9175 G01 X-.244 Y-5.42
N9180 G03 X-.254 Y-5.421 I.049 J-.498
N9185 G01 X-.401 Y-5.438
N9190 G03 X-.411 Y-5.439 I.058 J-.497
N9195 G01 X-.558 Y-5.459
N9200 G03 X-.568 Y-5.461 I.068 J-.495
N9205 G01 X-.714 Y-5.484
N9210 G03 X-.724 Y-5.485 I.078 J-.494
N9215 G01 X-.87 Y-5.511
N9220 G03 X-.88 Y-5.513 I.087 J-.492
N9225 G01 X-1.026 Y-5.542
N9230 G03 X-1.035 Y-5.544 I.097 J-.491
N9235 G01 X-1.181 Y-5.576
N9240 G03 X-1.19 Y-5.578 I.106 J-.489
N9245 G01 X-1.335 Y-5.612
N9250 G03 X-1.344 Y-5.615 I.116 J-.486
N9255 G01 X-1.489 Y-5.652
N9260 G03 X-1.498 Y-5.655 I.126 J-.484
N9265 G01 X-1.642 Y-5.695
N9270 G03 X-1.651 Y-5.698 I.135 J-.481
N9275 G01 X-1.794 Y-5.741
N9280 G03 X-1.803 Y-5.743 I.144 J-.479
N9285 G01 X-1.927 Y-5.784
N9290 G03 X-1.939 Y-5.787 I.153 J-.476
N9295 G01 X-2.155 Y-5.863
N9300 G03 X-2.167 Y-5.867 I.164 J-.472
N9305 G01 X-2.329 Y-5.928
N9310 G03 X-2.338 Y-5.932 I.177 J-.468
N9315 G01 X-2.458 Y-5.98
N9320 G03 X-2.468 Y-5.984 I.186 J-.464
N9325 G01 X-2.647 Y-6.06
N9330 G03 X-2.658 Y-6.065 I.196 J-.46
N9335 G01 X-2.83 Y-6.144
N9340 X-2.869 Y-6.161
N9345 X-2.897 Y-6.17
N9350 X-2.924 Y-6.177
N9355 X-2.952 Y-6.183
N9360 X-2.98 Y-6.186
N9365 X-3.008 Y-6.187
N9370 X-3.036 Y-6.186
N9375 X-3.064 Y-6.184
N9380 X-3.092 Y-6.179
N9385 X-3.119 Y-6.173
N9390 X-3.146 Y-6.164
N9395 X-3.172 Y-6.154
N9400 X-3.197 Y-6.142
N9405 X-3.221 Y-6.128
N9410 X-3.245 Y-6.113
N9415 X-3.267 Y-6.095
N9420 X-3.29 Y-6.075
N9425 X-3.301 Y-6.064
N9430 X-3.325 Y-6.037
N9435 X-3.354 Y-5.997
N9440 X-3.41 Y-5.916
N9445 G03 X-3.423 Y-5.899 I-.409 J-.287
N9450 G01 X-3.486 Y-5.817
N9455 G03 X-3.499 Y-5.8 I-.397 J-.304
N9460 G01 X-3.565 Y-5.721
N9465 G03 X-3.58 Y-5.705 I-.383 J-.321
N9470 G01 X-3.649 Y-5.63
N9475 G03 X-3.663 Y-5.614 I-.369 J-.337
N9480 G01 X-3.736 Y-5.542
N9485 G03 X-3.751 Y-5.527 I-.354 J-.353
N9490 G01 X-3.826 Y-5.458
N9495 G03 X-3.842 Y-5.444 I-.339 J-.368
N9500 G01 X-3.919 Y-5.378
N9505 G03 X-3.936 Y-5.365 I-.323 J-.382
N9510 G01 X-4.016 Y-5.302
N9515 G03 X-4.033 Y-5.29 I-.307 J-.395
N9520 G01 X-4.116 Y-5.231
N9525 G03 X-4.134 Y-5.219 I-.29 J-.408
N9530 G01 X-4.219 Y-5.163
N9535 G03 X-4.237 Y-5.152 I-.272 J-.419
N9540 G01 X-4.324 Y-5.101
N9545 G03 X-4.343 Y-5.09 I-.254 J-.431
N9550 G01 X-4.432 Y-5.042
N9555 G03 X-4.451 Y-5.033 I-.236 J-.441
N9560 G01 X-4.543 Y-4.989
N9565 G03 X-4.562 Y-4.98 I-.217 J-.451
N9570 G01 X-4.656 Y-4.94
N9575 G03 X-4.675 Y-4.932 I-.198 J-.459
N9580 G01 X-4.771 Y-4.895
N9585 G03 X-4.791 Y-4.888 I-.178 J-.467
N9590 G01 X-4.888 Y-4.856
N9595 G03 X-4.908 Y-4.85 I-.158 J-.474
N9600 G01 X-5.007 Y-4.822
N9605 G03 X-5.025 Y-4.817 I-.137 J-.481
N9610 G01 X-5.1 Y-4.798
N9615 G03 X-5.119 Y-4.794 I-.119 J-.486
N9620 G01 X-5.233 Y-4.771
N9625 G03 X-5.257 Y-4.767 I-.1 J-.49
N9630 G01 X-5.372 Y-4.749
N9635 G03 X-5.395 Y-4.746 I-.076 J-.494
N9640 G01 X-5.498 Y-4.735
N9645 G03 X-5.519 Y-4.733 I-.053 J-.497
N9650 G01 X-5.622 Y-4.727
N9655 G03 X-5.644 Y-4.726 I-.032 J-.499
N9660 G01 X-5.747 Y-4.724
N9665 G03 X-5.752 Y-4.723 I-.01 J-.5
N9670 G01 X-5.872 Y-4.572
N9675 X-6.015 Y-4.378
N9680 X-6.152 Y-4.18
N9685 X-6.282 Y-3.978
N9690 X-6.406 Y-3.771
N9695 X-6.523 Y-3.561
N9700 X-6.633 Y-3.347
N9705 X-6.736 Y-3.129
N9710 X-6.832 Y-2.909
N9715 X-6.921 Y-2.685
N9720 X-7.002 Y-2.459
N9725 X-7.076 Y-2.23
N9730 X-7.143 Y-1.999
N9735 X-7.202 Y-1.766
N9740 X-7.253 Y-1.531
N9745 X-7.297 Y-1.295
N9750 X-7.333 Y-1.058
N9755 X-7.361 Y-.819
N9760 X-7.382 Y-.58
N9765 X-7.395 Y-.34
N9770 X-7.4 Y-.1
N9775 X-7.397 Y.14
N9780 X-7.387 Y.38
N9785 X-7.369 Y.619
N9790 X-7.342 Y.858
N9795 X-7.309 Y1.096
N9800 X-7.267 Y1.332
N9805 X-7.218 Y1.567
N9810 X-7.162 Y1.8
N9815 X-7.097 Y2.031
N9820 X-7.026 Y2.26
N9825 X-6.947 Y2.486
N9830 X-6.86 Y2.71
N9835 X-6.767 Y2.93
N9840 X-6.666 Y3.148
N9845 X-6.558 Y3.362
N9850 X-6.444 Y3.572
N9855 X-6.322 Y3.779
N9860 X-6.194 Y3.981
N9865 X-6.06 Y4.179
N9870 X-5.919 Y4.373
N9875 X-5.772 Y4.562
N9880 X-5.619 Y4.746
N9885 X-5.46 Y4.925
N9890 X-5.295 Y5.099
N9895 X-5.125 Y5.267
N9900 X-5.116 Y5.275
N9905 X-4.932 Y5.342
N9910 X-4.733 Y5.411
N9915 X-4.532 Y5.477
N9920 X-4.331 Y5.54
N9925 X-4.129 Y5.6
N9930 X-3.927 Y5.657
N9935 X-3.724 Y5.712
N9940 X-3.52 Y5.763
N9945 X-3.316 Y5.812
N9950 X-3.111 Y5.857
N9955 X-2.906 Y5.9
N9960 X-2.7 Y5.939
N9965 X-2.494 Y5.976
N9970 X-2.288 Y6.01
N9975 X-2.081 Y6.041
N9980 X-1.874 Y6.068
N9985 X-1.666 Y6.093
N9990 X-1.459 Y6.115
N9995 X-1.251 Y6.134
N5 X-1.042 Y6.151
N10 X-.834 Y6.164
N15 X-.626 Y6.174
N20 X-.417 Y6.181
N25 X-.209 Y6.186
N30 X0 Y6.187
N35 X.209 Y6.186
N40 X.417 Y6.181
N45 X.626 Y6.174
N50 X.834 Y6.164
N55 X1.042 Y6.151
N60 X1.251 Y6.134
N65 X1.459 Y6.115
N70 X1.666 Y6.093
N75 X1.874 Y6.068
N80 X2.081 Y6.041
N85 X2.288 Y6.01
N90 X2.494 Y5.976
N95 X2.7 Y5.939
N100 X2.906 Y5.9
N105 X3.111 Y5.857
N110 X3.316 Y5.812
N115 X3.52 Y5.763
N120 X3.724 Y5.712
N125 X3.927 Y5.657
N130 X4.129 Y5.6
N135 X4.331 Y5.54
N140 X4.532 Y5.477
N145 X4.733 Y5.411
N150 X4.889 Y5.357
N155 X5.013 Y5.24
N160 X5.181 Y5.071
N165 X5.343 Y4.897
N170 X5.499 Y4.718
N175 X5.649 Y4.534
N180 X5.793 Y4.345
N185 X5.93 Y4.152
N190 X6.061 Y3.954
N195 X6.186 Y3.752
N200 X6.304 Y3.546
N205 X6.415 Y3.336
N210 X6.519 Y3.123
N215 X6.616 Y2.907
N220 X6.706 Y2.687
N225 X6.789 Y2.465
N230 X6.864 Y2.24
N235 X6.932 Y2.013
N240 X6.992 Y1.784
N245 X7.045 Y1.552
N250 X7.09 Y1.32
N255 X7.128 Y1.086
N260 X7.157 Y.851
N265 X7.179 Y.615
N270 X7.194 Y.379
N275 X7.2 Y.142
N280 X7.199 Y-.095
N285 X7.19 Y-.331
N290 X7.173 Y-.567
N295 X7.148 Y-.803
N300 X7.116 Y-1.037
N305 X7.076 Y-1.27
N310 X7.028 Y-1.502
N315 X6.973 Y-1.732
N320 X6.91 Y-1.96
