%
O00001
(This Post Processor is distributed on an "AS IS" BASIS, )
(WITHOUT WARRANTIES OR CONDITIONS OF ANY KIND, either express or implied. )
N5 G21 G17 G40 G80 G90
N10 T01 M06 (1mm)
N15 G54 G90 G94 Z50
N20 S23000 M03
N25 G00 G90 X-7.358 Y.973
N30 G43 H01 Z3. M08
N35 G01 Z-.2 F750.
N40 X-7.726 Y.605 F2250.
N45 G03 X-7.755 Y.534 I.071 J-.071
N50 G01 Y-1.807 F3000.
N55 X-7.745 Y-1.808
N60 X-7.633 Y-1.824
N65 X-7.517 Y-1.845
N70 X-7.402 Y-1.871
N75 X-7.289 Y-1.9
N80 X-7.178 Y-1.934
N85 X-7.068 Y-1.971
N90 X-6.961 Y-2.013
N95 X-6.855 Y-2.058
N100 X-6.751 Y-2.106
N105 X-6.65 Y-2.159
N110 X-6.55 Y-2.215
N115 X-6.453 Y-2.274
N120 X-6.359 Y-2.337
N125 X-6.267 Y-2.403
N130 X-6.177 Y-2.472
N135 X-6.09 Y-2.544
N140 X-6.006 Y-2.619
N145 X-5.924 Y-2.697
N150 X-5.846 Y-2.778
N155 X-5.77 Y-2.862
N160 X-5.697 Y-2.948
N165 X-5.627 Y-3.038
N170 X-5.561 Y-3.129
N175 X-5.498 Y-3.224
N180 X-5.438 Y-3.32
N185 X-5.381 Y-3.419
N190 X-5.328 Y-3.52
N195 X-5.279 Y-3.624
N200 X-5.233 Y-3.729
N205 X-5.191 Y-3.836
N210 X-5.153 Y-3.945
N215 X-5.121 Y-4.047
N220 X-5.078 Y-4.213
N225 X-5.05 Y-4.346
N230 X-5.032 Y-4.451
N235 X-5.017 Y-4.566
N240 X-4.953 Y-4.582
N245 X-4.826 Y-4.619
N250 X-4.698 Y-4.661
N255 X-4.573 Y-4.708
N260 X-4.451 Y-4.761
N265 X-4.331 Y-4.819
N270 X-4.213 Y-4.882
N275 X-4.099 Y-4.949
N280 X-3.987 Y-5.022
N285 X-3.878 Y-5.099
N290 X-3.773 Y-5.181
N295 X-3.671 Y-5.267
N300 X-3.573 Y-5.358
N305 X-3.479 Y-5.453
N310 X-3.388 Y-5.552
N315 X-3.301 Y-5.655
N320 X-3.219 Y-5.762
N325 X-3.154 Y-5.854
N330 X-3.133 Y-5.884
N335 X-3.121 Y-5.897
N340 X-3.111 Y-5.907
N345 X-3.102 Y-5.913
N350 X-3.093 Y-5.919
N355 X-3.084 Y-5.924
N360 X-3.074 Y-5.929
N365 X-3.064 Y-5.933
N370 X-3.054 Y-5.936
N375 X-3.043 Y-5.939
N380 X-3.032 Y-5.941
N385 X-3.021 Y-5.942
N390 X-3.01
N395 X-3. Y-5.941
N400 X-2.989 Y-5.94
N405 X-2.979 Y-5.938
N410 X-2.968 Y-5.935
N415 X-2.957 Y-5.932
N420 X-2.93 Y-5.92
N425 X-2.752 Y-5.839
N430 X-2.556 Y-5.755
N435 X-2.422 Y-5.702
N440 X-2.245 Y-5.635
N445 X-2.011 Y-5.553
N450 X-1.871 Y-5.508
N455 X-1.715 Y-5.461
N460 X-1.557 Y-5.417
N465 X-1.399 Y-5.376
N470 X-1.24 Y-5.338
N475 X-1.08 Y-5.303
N480 X-.92 Y-5.271
N485 X-.76 Y-5.243
N490 X-.599 Y-5.218
N495 X-.437 Y-5.195
N500 X-.276 Y-5.176
N505 X-.113 Y-5.161
N510 X.049 Y-5.148
N515 X.211 Y-5.138
N520 X.374 Y-5.132
N525 X.537 Y-5.129
N530 X.699
N535 X.862 Y-5.132
N540 X1.025 Y-5.139
N545 X1.188 Y-5.148
N550 X1.35 Y-5.161
N555 X1.513 Y-5.177
N560 X1.675 Y-5.196
N565 X1.837 Y-5.218
N570 X1.998 Y-5.244
N575 X2.16 Y-5.272
N580 X2.32 Y-5.304
N585 X2.481 Y-5.339
N590 X2.641 Y-5.378
N595 X2.8 Y-5.419
N600 X2.958 Y-5.464
N605 X3.116 Y-5.512
N610 X3.274 Y-5.563
N615 X3.412 Y-5.611
N620 X3.443 Y-5.62
N625 X3.456 Y-5.623
N630 X3.469 Y-5.625
N635 X3.481 Y-5.626
N640 X3.494 Y-5.625
N645 X3.507 Y-5.624
N650 X3.519 Y-5.621
N655 X3.532 Y-5.618
N660 X3.544 Y-5.613
N665 X3.575 Y-5.598
N670 X3.708 Y-5.529
N675 X3.86 Y-5.457
N680 X3.967 Y-5.409
N685 X4.106 Y-5.352
N690 X4.289 Y-5.283
N695 X4.401 Y-5.245
N700 X4.509 Y-5.21
N705 X4.619 Y-5.178
N710 X4.729 Y-5.149
N715 X4.839 Y-5.121
N720 X4.95 Y-5.097
N725 X5.062 Y-5.074
N730 X5.173 Y-5.054
N735 X5.285 Y-5.037
N740 X5.398 Y-5.022
N745 X5.51 Y-5.009
N750 X5.623 Y-4.999
N755 X5.736 Y-4.991
N760 X5.849 Y-4.986
N765 X5.963 Y-4.983
N770 X6.076 Y-4.982
N775 X6.189 Y-4.984
N780 X6.197
N785 X6.196 Y-4.963
N790 Y-4.881
N795 X6.2 Y-4.799
N800 X6.207 Y-4.718
N805 X6.218 Y-4.637
N810 X6.232 Y-4.556
N815 X6.249 Y-4.477
N820 X6.27 Y-4.398
N825 X6.293 Y-4.32
N830 X6.321 Y-4.243
N835 X6.351 Y-4.167
N840 X6.385 Y-4.092
N845 X6.421 Y-4.019
N850 X6.463 Y-3.943
N855 X6.527 Y-3.842
N860 X6.598 Y-3.744
N865 X6.652 Y-3.676
N870 X6.707 Y-3.614
N875 X6.764 Y-3.554
N880 X6.823 Y-3.497
N885 X6.885 Y-3.443
N890 X6.948 Y-3.391
N895 X7.014 Y-3.343
N900 X7.082 Y-3.297
N905 X7.151 Y-3.254
N910 X7.222 Y-3.214
N915 X7.295 Y-3.177
N920 X7.369 Y-3.143
N925 X7.444 Y-3.112
N930 X7.521 Y-3.084
N935 X7.599 Y-3.06
N940 X7.679 Y-3.039
N945 X7.75 Y-3.023
N950 X7.757 Y-3.022
N955 Y-3.014
N960 X7.755 Y-2.935
N965 Y3.287
N970 X7.727 Y3.276
N975 X7.612 Y3.239
N980 X7.496 Y3.207
N985 X7.379 Y3.182
N990 X7.261 Y3.163
N995 X7.142 Y3.151
N1000 X7.022 Y3.145
N1005 X6.903
N1010 X6.783 Y3.152
N1015 X6.664 Y3.165
N1020 X6.545 Y3.185
N1025 X6.427 Y3.211
N1030 X6.312 Y3.242
N1035 X6.219 Y3.273
N1040 X6.094 Y3.321
N1045 X5.969 Y3.379
N1050 X5.859 Y3.437
N1055 X5.754 Y3.501
N1060 X5.653 Y3.57
N1065 X5.557 Y3.643
N1070 X5.465 Y3.722
N1075 X5.378 Y3.805
N1080 X5.295 Y3.892
N1085 X5.218 Y3.984
N1090 X5.145 Y4.079
N1095 X5.078 Y4.178
N1100 X5.016 Y4.281
N1105 X4.96 Y4.386
N1110 X4.909 Y4.495
N1115 X4.864 Y4.606
N1120 X4.825 Y4.72
N1125 X4.792 Y4.837
N1130 X4.766 Y4.953
N1135 X4.749 Y5.049
N1140 X4.737 Y5.15
N1145 X4.654 Y5.179
N1150 X4.457 Y5.244
N1155 X4.259 Y5.306
N1160 X4.061 Y5.365
N1165 X3.862 Y5.421
N1170 X3.662 Y5.475
N1175 X3.462 Y5.525
N1180 X3.261 Y5.573
N1185 X3.06 Y5.618
N1190 X2.858 Y5.659
N1195 X2.656 Y5.698
N1200 X2.453 Y5.734
N1205 X2.25 Y5.768
N1210 X2.046 Y5.798
N1215 X1.843 Y5.825
N1220 X1.639 Y5.85
N1225 X1.434 Y5.872
N1230 X1.23 Y5.89
N1235 X1.025 Y5.906
N1240 X.82 Y5.919
N1245 X.615 Y5.929
N1250 X.41 Y5.937
N1255 X.205 Y5.941
N1260 X0 Y5.942
N1265 X-.205 Y5.941
N1270 X-.41 Y5.937
N1275 X-.615 Y5.929
N1280 X-.82 Y5.919
N1285 X-1.025 Y5.906
N1290 X-1.23 Y5.89
N1295 X-1.434 Y5.872
N1300 X-1.639 Y5.85
N1305 X-1.843 Y5.825
N1310 X-2.046 Y5.798
N1315 X-2.25 Y5.768
N1320 X-2.453 Y5.734
N1325 X-2.656 Y5.698
N1330 X-2.858 Y5.659
N1335 X-3.06 Y5.618
N1340 X-3.261 Y5.573
N1345 X-3.462 Y5.525
N1350 X-3.662 Y5.475
N1355 X-3.862 Y5.421
N1360 X-4.061 Y5.365
N1365 X-4.259 Y5.306
N1370 X-4.457 Y5.244
N1375 X-4.654 Y5.179
N1380 X-4.737 Y5.15
N1385 X-4.745 Y5.075
N1390 X-4.766 Y4.955
N1395 X-4.792 Y4.837
N1400 X-4.825 Y4.72
N1405 X-4.864 Y4.606
N1410 X-4.909 Y4.495
N1415 X-4.96 Y4.386
N1420 X-5.016 Y4.281
N1425 X-5.078 Y4.178
N1430 X-5.145 Y4.079
N1435 X-5.218 Y3.984
N1440 X-5.295 Y3.892
N1445 X-5.378 Y3.805
N1450 X-5.465 Y3.722
N1455 X-5.557 Y3.643
N1460 X-5.651 Y3.571
N1465 X-5.732 Y3.516
N1470 X-5.846 Y3.445
N1475 X-5.967 Y3.38
N1480 X-6.08 Y3.328
N1485 X-6.194 Y3.282
N1490 X-6.31 Y3.243
N1495 X-6.427 Y3.211
N1500 X-6.545 Y3.185
N1505 X-6.664 Y3.165
N1510 X-6.783 Y3.152
N1515 X-6.903 Y3.145
N1520 X-7.022
N1525 X-7.142 Y3.151
N1530 X-7.261 Y3.163
N1535 X-7.379 Y3.182
N1540 X-7.496 Y3.207
N1545 X-7.612 Y3.239
N1550 X-7.727 Y3.276
N1555 X-7.755 Y3.287
N1560 Y.334
N1565 G03 X-7.726 Y.264 I.1 J0
N1570 G01 X-7.358 Y-.104
N1575 G00 Z3.
N1580 G90 G54 X-7.358 Y.973
N1585 Z2.8
N1590 G01 Z-.4 F750.
N1595 X-7.726 Y.605 F2250.
N1600 G03 X-7.755 Y.534 I.071 J-.071
N1605 G01 Y-1.807 F3000.
N1610 X-7.745 Y-1.808
N1615 X-7.633 Y-1.824
N1620 X-7.517 Y-1.845
N1625 X-7.402 Y-1.871
N1630 X-7.289 Y-1.9
N1635 X-7.178 Y-1.934
N1640 X-7.068 Y-1.971
N1645 X-6.961 Y-2.013
N1650 X-6.855 Y-2.058
N1655 X-6.751 Y-2.106
N1660 X-6.65 Y-2.159
N1665 X-6.55 Y-2.215
N1670 X-6.453 Y-2.274
N1675 X-6.359 Y-2.337
N1680 X-6.267 Y-2.403
N1685 X-6.177 Y-2.472
N1690 X-6.09 Y-2.544
N1695 X-6.006 Y-2.619
N1700 X-5.924 Y-2.697
N1705 X-5.846 Y-2.778
N1710 X-5.77 Y-2.862
N1715 X-5.697 Y-2.948
N1720 X-5.627 Y-3.038
N1725 X-5.561 Y-3.129
N1730 X-5.498 Y-3.224
N1735 X-5.438 Y-3.32
N1740 X-5.381 Y-3.419
N1745 X-5.328 Y-3.52
N1750 X-5.279 Y-3.624
N1755 X-5.233 Y-3.729
N1760 X-5.191 Y-3.836
N1765 X-5.153 Y-3.945
N1770 X-5.121 Y-4.047
N1775 X-5.078 Y-4.213
N1780 X-5.05 Y-4.346
N1785 X-5.032 Y-4.451
N1790 X-5.017 Y-4.566
N1795 X-4.953 Y-4.582
N1800 X-4.826 Y-4.619
N1805 X-4.698 Y-4.661
N1810 X-4.573 Y-4.708
N1815 X-4.451 Y-4.761
N1820 X-4.331 Y-4.819
N1825 X-4.213 Y-4.882
N1830 X-4.099 Y-4.949
N1835 X-3.987 Y-5.022
N1840 X-3.878 Y-5.099
N1845 X-3.773 Y-5.181
N1850 X-3.671 Y-5.267
N1855 X-3.573 Y-5.358
N1860 X-3.479 Y-5.453
N1865 X-3.388 Y-5.552
N1870 X-3.301 Y-5.655
N1875 X-3.219 Y-5.762
N1880 X-3.154 Y-5.854
N1885 X-3.133 Y-5.884
N1890 X-3.121 Y-5.897
N1895 X-3.111 Y-5.907
N1900 X-3.102 Y-5.913
N1905 X-3.093 Y-5.919
N1910 X-3.084 Y-5.924
N1915 X-3.074 Y-5.929
N1920 X-3.064 Y-5.933
N1925 X-3.054 Y-5.936
N1930 X-3.043 Y-5.939
N1935 X-3.032 Y-5.941
N1940 X-3.021 Y-5.942
N1945 X-3.01
N1950 X-3. Y-5.941
N1955 X-2.989 Y-5.94
N1960 X-2.979 Y-5.938
N1965 X-2.968 Y-5.935
N1970 X-2.957 Y-5.932
N1975 X-2.93 Y-5.92
N1980 X-2.752 Y-5.839
N1985 X-2.556 Y-5.755
N1990 X-2.422 Y-5.702
N1995 X-2.245 Y-5.635
N2000 X-2.011 Y-5.553
N2005 X-1.871 Y-5.508
N2010 X-1.715 Y-5.461
N2015 X-1.557 Y-5.417
N2020 X-1.399 Y-5.376
N2025 X-1.24 Y-5.338
N2030 X-1.08 Y-5.303
N2035 X-.92 Y-5.271
N2040 X-.76 Y-5.243
N2045 X-.599 Y-5.218
N2050 X-.437 Y-5.195
N2055 X-.276 Y-5.176
N2060 X-.113 Y-5.161
N2065 X.049 Y-5.148
N2070 X.211 Y-5.138
N2075 X.374 Y-5.132
N2080 X.537 Y-5.129
N2085 X.699
N2090 X.862 Y-5.132
N2095 X1.025 Y-5.139
N2100 X1.188 Y-5.148
N2105 X1.35 Y-5.161
N2110 X1.513 Y-5.177
N2115 X1.675 Y-5.196
N2120 X1.837 Y-5.218
N2125 X1.998 Y-5.244
N2130 X2.16 Y-5.272
N2135 X2.32 Y-5.304
N2140 X2.481 Y-5.339
N2145 X2.641 Y-5.378
N2150 X2.8 Y-5.419
N2155 X2.958 Y-5.464
N2160 X3.116 Y-5.512
N2165 X3.274 Y-5.563
N2170 X3.412 Y-5.611
N2175 X3.443 Y-5.62
N2180 X3.456 Y-5.623
N2185 X3.469 Y-5.625
N2190 X3.481 Y-5.626
N2195 X3.494 Y-5.625
N2200 X3.507 Y-5.624
N2205 X3.519 Y-5.621
N2210 X3.532 Y-5.618
N2215 X3.544 Y-5.613
N2220 X3.575 Y-5.598
N2225 X3.708 Y-5.529
N2230 X3.86 Y-5.457
N2235 X3.967 Y-5.409
N2240 X4.106 Y-5.352
N2245 X4.289 Y-5.283
N2250 X4.401 Y-5.245
N2255 X4.509 Y-5.21
N2260 X4.619 Y-5.178
N2265 X4.729 Y-5.149
N2270 X4.839 Y-5.121
N2275 X4.95 Y-5.097
N2280 X5.062 Y-5.074
N2285 X5.173 Y-5.054
N2290 X5.285 Y-5.037
N2295 X5.398 Y-5.022
N2300 X5.51 Y-5.009
N2305 X5.623 Y-4.999
N2310 X5.736 Y-4.991
N2315 X5.849 Y-4.986
N2320 X5.963 Y-4.983
N2325 X6.076 Y-4.982
N2330 X6.189 Y-4.984
N2335 X6.197
N2340 X6.196 Y-4.963
N2345 Y-4.881
N2350 X6.2 Y-4.799
N2355 X6.207 Y-4.718
N2360 X6.218 Y-4.637
N2365 X6.232 Y-4.556
N2370 X6.249 Y-4.477
N2375 X6.27 Y-4.398
N2380 X6.293 Y-4.32
N2385 X6.321 Y-4.243
N2390 X6.351 Y-4.167
N2395 X6.385 Y-4.092
N2400 X6.421 Y-4.019
N2405 X6.463 Y-3.943
N2410 X6.527 Y-3.842
N2415 X6.598 Y-3.744
N2420 X6.652 Y-3.676
N2425 X6.707 Y-3.614
N2430 X6.764 Y-3.554
N2435 X6.823 Y-3.497
N2440 X6.885 Y-3.443
N2445 X6.948 Y-3.391
N2450 X7.014 Y-3.343
N2455 X7.082 Y-3.297
N2460 X7.151 Y-3.254
N2465 X7.222 Y-3.214
N2470 X7.295 Y-3.177
N2475 X7.369 Y-3.143
N2480 X7.444 Y-3.112
N2485 X7.521 Y-3.084
N2490 X7.599 Y-3.06
N2495 X7.679 Y-3.039
N2500 X7.75 Y-3.023
N2505 X7.757 Y-3.022
N2510 Y-3.014
N2515 X7.755 Y-2.935
N2520 Y3.287
N2525 X7.727 Y3.276
N2530 X7.612 Y3.239
N2535 X7.496 Y3.207
N2540 X7.379 Y3.182
N2545 X7.261 Y3.163
N2550 X7.142 Y3.151
N2555 X7.022 Y3.145
N2560 X6.903
N2565 X6.783 Y3.152
N2570 X6.664 Y3.165
N2575 X6.545 Y3.185
N2580 X6.427 Y3.211
N2585 X6.312 Y3.242
N2590 X6.219 Y3.273
N2595 X6.094 Y3.321
N2600 X5.969 Y3.379
N2605 X5.859 Y3.437
N2610 X5.754 Y3.501
N2615 X5.653 Y3.57
N2620 X5.557 Y3.643
N2625 X5.465 Y3.722
N2630 X5.378 Y3.805
N2635 X5.295 Y3.892
N2640 X5.218 Y3.984
N2645 X5.145 Y4.079
N2650 X5.078 Y4.178
N2655 X5.016 Y4.281
N2660 X4.96 Y4.386
N2665 X4.909 Y4.495
N2670 X4.864 Y4.606
N2675 X4.825 Y4.72
N2680 X4.792 Y4.837
N2685 X4.766 Y4.953
N2690 X4.749 Y5.049
N2695 X4.737 Y5.15
N2700 X4.654 Y5.179
N2705 X4.457 Y5.244
N2710 X4.259 Y5.306
N2715 X4.061 Y5.365
N2720 X3.862 Y5.421
N2725 X3.662 Y5.475
N2730 X3.462 Y5.525
N2735 X3.261 Y5.573
N2740 X3.06 Y5.618
N2745 X2.858 Y5.659
N2750 X2.656 Y5.698
N2755 X2.453 Y5.734
N2760 X2.25 Y5.768
N2765 X2.046 Y5.798
N2770 X1.843 Y5.825
N2775 X1.639 Y5.85
N2780 X1.434 Y5.872
N2785 X1.23 Y5.89
N2790 X1.025 Y5.906
N2795 X.82 Y5.919
N2800 X.615 Y5.929
N2805 X.41 Y5.937
N2810 X.205 Y5.941
N2815 X0 Y5.942
N2820 X-.205 Y5.941
N2825 X-.41 Y5.937
N2830 X-.615 Y5.929
N2835 X-.82 Y5.919
N2840 X-1.025 Y5.906
N2845 X-1.23 Y5.89
N2850 X-1.434 Y5.872
N2855 X-1.639 Y5.85
N2860 X-1.843 Y5.825
N2865 X-2.046 Y5.798
N2870 X-2.25 Y5.768
N2875 X-2.453 Y5.734
N2880 X-2.656 Y5.698
N2885 X-2.858 Y5.659
N2890 X-3.06 Y5.618
N2895 X-3.261 Y5.573
N2900 X-3.462 Y5.525
N2905 X-3.662 Y5.475
N2910 X-3.862 Y5.421
N2915 X-4.061 Y5.365
N2920 X-4.259 Y5.306
N2925 X-4.457 Y5.244
N2930 X-4.654 Y5.179
N2935 X-4.737 Y5.15
N2940 X-4.745 Y5.075
N2945 X-4.766 Y4.955
N2950 X-4.792 Y4.837
N2955 X-4.825 Y4.72
N2960 X-4.864 Y4.606
N2965 X-4.909 Y4.495
N2970 X-4.96 Y4.386
N2975 X-5.016 Y4.281
N2980 X-5.078 Y4.178
N2985 X-5.145 Y4.079
N2990 X-5.218 Y3.984
N2995 X-5.295 Y3.892
N3000 X-5.378 Y3.805
N3005 X-5.465 Y3.722
N3010 X-5.557 Y3.643
N3015 X-5.651 Y3.571
N3020 X-5.732 Y3.516
N3025 X-5.846 Y3.445
N3030 X-5.967 Y3.38
N3035 X-6.08 Y3.328
N3040 X-6.194 Y3.282
N3045 X-6.31 Y3.243
N3050 X-6.427 Y3.211
N3055 X-6.545 Y3.185
N3060 X-6.664 Y3.165
N3065 X-6.783 Y3.152
N3070 X-6.903 Y3.145
N3075 X-7.022
N3080 X-7.142 Y3.151
N3085 X-7.261 Y3.163
N3090 X-7.379 Y3.182
N3095 X-7.496 Y3.207
N3100 X-7.612 Y3.239
N3105 X-7.727 Y3.276
N3110 X-7.755 Y3.287
N3115 Y.334
N3120 G03 X-7.726 Y.264 I.1 J0
N3125 G01 X-7.358 Y-.104
N3130 G00 Z3.
N3135 G90 G54 X-7.358 Y.973
N3140 Z2.6
N3145 G01 Z-.6 F750.
N3150 X-7.726 Y.605 F2250.
N3155 G03 X-7.755 Y.534 I.071 J-.071
N3160 G01 Y-1.807 F3000.
N3165 X-7.745 Y-1.808
N3170 X-7.633 Y-1.824
N3175 X-7.517 Y-1.845
N3180 X-7.402 Y-1.871
N3185 X-7.289 Y-1.9
N3190 X-7.178 Y-1.934
N3195 X-7.068 Y-1.971
N3200 X-6.961 Y-2.013
N3205 X-6.855 Y-2.058
N3210 X-6.751 Y-2.106
N3215 X-6.65 Y-2.159
N3220 X-6.55 Y-2.215
N3225 X-6.453 Y-2.274
N3230 X-6.359 Y-2.337
N3235 X-6.267 Y-2.403
N3240 X-6.177 Y-2.472
N3245 X-6.09 Y-2.544
N3250 X-6.006 Y-2.619
N3255 X-5.924 Y-2.697
N3260 X-5.846 Y-2.778
N3265 X-5.77 Y-2.862
N3270 X-5.697 Y-2.948
N3275 X-5.627 Y-3.038
N3280 X-5.561 Y-3.129
N3285 X-5.498 Y-3.224
N3290 X-5.438 Y-3.32
N3295 X-5.381 Y-3.419
N3300 X-5.328 Y-3.52
N3305 X-5.279 Y-3.624
N3310 X-5.233 Y-3.729
N3315 X-5.191 Y-3.836
N3320 X-5.153 Y-3.945
N3325 X-5.121 Y-4.047
N3330 X-5.078 Y-4.213
N3335 X-5.05 Y-4.346
N3340 X-5.032 Y-4.451
N3345 X-5.017 Y-4.566
N3350 X-4.953 Y-4.582
N3355 X-4.826 Y-4.619
N3360 X-4.698 Y-4.661
N3365 X-4.573 Y-4.708
N3370 X-4.451 Y-4.761
N3375 X-4.331 Y-4.819
N3380 X-4.213 Y-4.882
N3385 X-4.099 Y-4.949
N3390 X-3.987 Y-5.022
N3395 X-3.878 Y-5.099
N3400 X-3.773 Y-5.181
N3405 X-3.671 Y-5.267
N3410 X-3.573 Y-5.358
N3415 X-3.479 Y-5.453
N3420 X-3.388 Y-5.552
N3425 X-3.301 Y-5.655
N3430 X-3.219 Y-5.762
N3435 X-3.154 Y-5.854
N3440 X-3.133 Y-5.884
N3445 X-3.121 Y-5.897
N3450 X-3.111 Y-5.907
N3455 X-3.102 Y-5.913
N3460 X-3.093 Y-5.919
N3465 X-3.084 Y-5.924
N3470 X-3.074 Y-5.929
N3475 X-3.064 Y-5.933
N3480 X-3.054 Y-5.936
N3485 X-3.043 Y-5.939
N3490 X-3.032 Y-5.941
N3495 X-3.021 Y-5.942
N3500 X-3.01
N3505 X-3. Y-5.941
N3510 X-2.989 Y-5.94
N3515 X-2.979 Y-5.938
N3520 X-2.968 Y-5.935
N3525 X-2.957 Y-5.932
N3530 X-2.93 Y-5.92
N3535 X-2.752 Y-5.839
N3540 X-2.556 Y-5.755
N3545 X-2.422 Y-5.702
N3550 X-2.245 Y-5.635
N3555 X-2.011 Y-5.553
N3560 X-1.871 Y-5.508
N3565 X-1.715 Y-5.461
N3570 X-1.557 Y-5.417
N3575 X-1.399 Y-5.376
N3580 X-1.24 Y-5.338
N3585 X-1.08 Y-5.303
N3590 X-.92 Y-5.271
N3595 X-.76 Y-5.243
N3600 X-.599 Y-5.218
N3605 X-.437 Y-5.195
N3610 X-.276 Y-5.176
N3615 X-.113 Y-5.161
N3620 X.049 Y-5.148
N3625 X.211 Y-5.138
N3630 X.374 Y-5.132
N3635 X.537 Y-5.129
N3640 X.699
N3645 X.862 Y-5.132
N3650 X1.025 Y-5.139
N3655 X1.188 Y-5.148
N3660 X1.35 Y-5.161
N3665 X1.513 Y-5.177
N3670 X1.675 Y-5.196
N3675 X1.837 Y-5.218
N3680 X1.998 Y-5.244
N3685 X2.16 Y-5.272
N3690 X2.32 Y-5.304
N3695 X2.481 Y-5.339
N3700 X2.641 Y-5.378
N3705 X2.8 Y-5.419
N3710 X2.958 Y-5.464
N3715 X3.116 Y-5.512
N3720 X3.274 Y-5.563
N3725 X3.412 Y-5.611
N3730 X3.443 Y-5.62
N3735 X3.456 Y-5.623
N3740 X3.469 Y-5.625
N3745 X3.481 Y-5.626
N3750 X3.494 Y-5.625
N3755 X3.507 Y-5.624
N3760 X3.519 Y-5.621
N3765 X3.532 Y-5.618
N3770 X3.544 Y-5.613
N3775 X3.575 Y-5.598
N3780 X3.708 Y-5.529
N3785 X3.86 Y-5.457
N3790 X3.967 Y-5.409
N3795 X4.106 Y-5.352
N3800 X4.289 Y-5.283
N3805 X4.401 Y-5.245
N3810 X4.509 Y-5.21
N3815 X4.619 Y-5.178
N3820 X4.729 Y-5.149
N3825 X4.839 Y-5.121
N3830 X4.95 Y-5.097
N3835 X5.062 Y-5.074
N3840 X5.173 Y-5.054
N3845 X5.285 Y-5.037
N3850 X5.398 Y-5.022
N3855 X5.51 Y-5.009
N3860 X5.623 Y-4.999
N3865 X5.736 Y-4.991
N3870 X5.849 Y-4.986
N3875 X5.963 Y-4.983
N3880 X6.076 Y-4.982
N3885 X6.189 Y-4.984
N3890 X6.197
N3895 X6.196 Y-4.963
N3900 Y-4.881
N3905 X6.2 Y-4.799
N3910 X6.207 Y-4.718
N3915 X6.218 Y-4.637
N3920 X6.232 Y-4.556
N3925 X6.249 Y-4.477
N3930 X6.27 Y-4.398
N3935 X6.293 Y-4.32
N3940 X6.321 Y-4.243
N3945 X6.351 Y-4.167
N3950 X6.385 Y-4.092
N3955 X6.421 Y-4.019
N3960 X6.463 Y-3.943
N3965 X6.527 Y-3.842
N3970 X6.598 Y-3.744
N3975 X6.652 Y-3.676
N3980 X6.707 Y-3.614
N3985 X6.764 Y-3.554
N3990 X6.823 Y-3.497
N3995 X6.885 Y-3.443
N4000 X6.948 Y-3.391
N4005 X7.014 Y-3.343
N4010 X7.082 Y-3.297
N4015 X7.151 Y-3.254
N4020 X7.222 Y-3.214
N4025 X7.295 Y-3.177
N4030 X7.369 Y-3.143
N4035 X7.444 Y-3.112
N4040 X7.521 Y-3.084
N4045 X7.599 Y-3.06
N4050 X7.679 Y-3.039
N4055 X7.75 Y-3.023
N4060 X7.757 Y-3.022
N4065 Y-3.014
N4070 X7.755 Y-2.935
N4075 Y3.287
N4080 X7.727 Y3.276
N4085 X7.612 Y3.239
N4090 X7.496 Y3.207
N4095 X7.379 Y3.182
N4100 X7.261 Y3.163
N4105 X7.142 Y3.151
N4110 X7.022 Y3.145
N4115 X6.903
N4120 X6.783 Y3.152
N4125 X6.664 Y3.165
N4130 X6.545 Y3.185
N4135 X6.427 Y3.211
N4140 X6.312 Y3.242
N4145 X6.219 Y3.273
N4150 X6.094 Y3.321
N4155 X5.969 Y3.379
N4160 X5.859 Y3.437
N4165 X5.754 Y3.501
N4170 X5.653 Y3.57
N4175 X5.557 Y3.643
N4180 X5.465 Y3.722
N4185 X5.378 Y3.805
N4190 X5.295 Y3.892
N4195 X5.218 Y3.984
N4200 X5.145 Y4.079
N4205 X5.078 Y4.178
N4210 X5.016 Y4.281
N4215 X4.96 Y4.386
N4220 X4.909 Y4.495
N4225 X4.864 Y4.606
N4230 X4.825 Y4.72
N4235 X4.792 Y4.837
N4240 X4.766 Y4.953
N4245 X4.749 Y5.049
N4250 X4.737 Y5.15
N4255 X4.654 Y5.179
N4260 X4.457 Y5.244
N4265 X4.259 Y5.306
N4270 X4.061 Y5.365
N4275 X3.862 Y5.421
N4280 X3.662 Y5.475
N4285 X3.462 Y5.525
N4290 X3.261 Y5.573
N4295 X3.06 Y5.618
N4300 X2.858 Y5.659
N4305 X2.656 Y5.698
N4310 X2.453 Y5.734
N4315 X2.25 Y5.768
N4320 X2.046 Y5.798
N4325 X1.843 Y5.825
N4330 X1.639 Y5.85
N4335 X1.434 Y5.872
N4340 X1.23 Y5.89
N4345 X1.025 Y5.906
N4350 X.82 Y5.919
N4355 X.615 Y5.929
N4360 X.41 Y5.937
N4365 X.205 Y5.941
N4370 X0 Y5.942
N4375 X-.205 Y5.941
N4380 X-.41 Y5.937
N4385 X-.615 Y5.929
N4390 X-.82 Y5.919
N4395 X-1.025 Y5.906
N4400 X-1.23 Y5.89
N4405 X-1.434 Y5.872
N4410 X-1.639 Y5.85
N4415 X-1.843 Y5.825
N4420 X-2.046 Y5.798
N4425 X-2.25 Y5.768
N4430 X-2.453 Y5.734
N4435 X-2.656 Y5.698
N4440 X-2.858 Y5.659
N4445 X-3.06 Y5.618
N4450 X-3.261 Y5.573
N4455 X-3.462 Y5.525
N4460 X-3.662 Y5.475
N4465 X-3.862 Y5.421
N4470 X-4.061 Y5.365
N4475 X-4.259 Y5.306
N4480 X-4.457 Y5.244
N4485 X-4.654 Y5.179
N4490 X-4.737 Y5.15
N4495 X-4.745 Y5.075
N4500 X-4.766 Y4.955
N4505 X-4.792 Y4.837
N4510 X-4.825 Y4.72
N4515 X-4.864 Y4.606
N4520 X-4.909 Y4.495
N4525 X-4.96 Y4.386
N4530 X-5.016 Y4.281
N4535 X-5.078 Y4.178
N4540 X-5.145 Y4.079
N4545 X-5.218 Y3.984
N4550 X-5.295 Y3.892
N4555 X-5.378 Y3.805
N4560 X-5.465 Y3.722
N4565 X-5.557 Y3.643
N4570 X-5.651 Y3.571
N4575 X-5.732 Y3.516
N4580 X-5.846 Y3.445
N4585 X-5.967 Y3.38
N4590 X-6.08 Y3.328
N4595 X-6.194 Y3.282
N4600 X-6.31 Y3.243
N4605 X-6.427 Y3.211
N4610 X-6.545 Y3.185
N4615 X-6.664 Y3.165
N4620 X-6.783 Y3.152
N4625 X-6.903 Y3.145
N4630 X-7.022
N4635 X-7.142 Y3.151
N4640 X-7.261 Y3.163
N4645 X-7.379 Y3.182
N4650 X-7.496 Y3.207
N4655 X-7.612 Y3.239
N4660 X-7.727 Y3.276
N4665 X-7.755 Y3.287
N4670 Y.334
N4675 G03 X-7.726 Y.264 I.1 J0
N4680 G01 X-7.358 Y-.104
N4685 G00 Z3.
N4690 G90 G54 X-7.358 Y.973
N4695 Z2.4
N4700 G01 Z-.8 F750.
N4705 X-7.726 Y.605 F2250.
N4710 G03 X-7.755 Y.534 I.071 J-.071
N4715 G01 Y-1.807 F3000.
N4720 X-7.745 Y-1.808
N4725 X-7.633 Y-1.824
N4730 X-7.517 Y-1.845
N4735 X-7.402 Y-1.871
N4740 X-7.289 Y-1.9
N4745 X-7.178 Y-1.934
N4750 X-7.068 Y-1.971
N4755 X-6.961 Y-2.013
N4760 X-6.855 Y-2.058
N4765 X-6.751 Y-2.106
N4770 X-6.65 Y-2.159
N4775 X-6.55 Y-2.215
N4780 X-6.453 Y-2.274
N4785 X-6.359 Y-2.337
N4790 X-6.267 Y-2.403
N4795 X-6.177 Y-2.472
N4800 X-6.09 Y-2.544
N4805 X-6.006 Y-2.619
N4810 X-5.924 Y-2.697
N4815 X-5.846 Y-2.778
N4820 X-5.77 Y-2.862
N4825 X-5.697 Y-2.948
N4830 X-5.627 Y-3.038
N4835 X-5.561 Y-3.129
N4840 X-5.498 Y-3.224
N4845 X-5.438 Y-3.32
N4850 X-5.381 Y-3.419
N4855 X-5.328 Y-3.52
N4860 X-5.279 Y-3.624
N4865 X-5.233 Y-3.729
N4870 X-5.191 Y-3.836
N4875 X-5.153 Y-3.945
N4880 X-5.121 Y-4.047
N4885 X-5.078 Y-4.213
N4890 X-5.05 Y-4.346
N4895 X-5.032 Y-4.451
N4900 X-5.017 Y-4.566
N4905 X-4.953 Y-4.582
N4910 X-4.826 Y-4.619
N4915 X-4.698 Y-4.661
N4920 X-4.573 Y-4.708
N4925 X-4.451 Y-4.761
N4930 X-4.331 Y-4.819
N4935 X-4.213 Y-4.882
N4940 X-4.099 Y-4.949
N4945 X-3.987 Y-5.022
N4950 X-3.878 Y-5.099
N4955 X-3.773 Y-5.181
N4960 X-3.671 Y-5.267
N4965 X-3.573 Y-5.358
N4970 X-3.479 Y-5.453
N4975 X-3.388 Y-5.552
N4980 X-3.301 Y-5.655
N4985 X-3.219 Y-5.762
N4990 X-3.154 Y-5.854
N4995 X-3.133 Y-5.884
N5000 X-3.121 Y-5.897
N5005 X-3.111 Y-5.907
N5010 X-3.102 Y-5.913
N5015 X-3.093 Y-5.919
N5020 X-3.084 Y-5.924
N5025 X-3.074 Y-5.929
N5030 X-3.064 Y-5.933
N5035 X-3.054 Y-5.936
N5040 X-3.043 Y-5.939
N5045 X-3.032 Y-5.941
N5050 X-3.021 Y-5.942
N5055 X-3.01
N5060 X-3. Y-5.941
N5065 X-2.989 Y-5.94
N5070 X-2.979 Y-5.938
N5075 X-2.968 Y-5.935
N5080 X-2.957 Y-5.932
N5085 X-2.93 Y-5.92
N5090 X-2.752 Y-5.839
N5095 X-2.556 Y-5.755
N5100 X-2.422 Y-5.702
N5105 X-2.245 Y-5.635
N5110 X-2.011 Y-5.553
N5115 X-1.871 Y-5.508
N5120 X-1.715 Y-5.461
N5125 X-1.557 Y-5.417
N5130 X-1.399 Y-5.376
N5135 X-1.24 Y-5.338
N5140 X-1.08 Y-5.303
N5145 X-.92 Y-5.271
N5150 X-.76 Y-5.243
N5155 X-.599 Y-5.218
N5160 X-.437 Y-5.195
N5165 X-.276 Y-5.176
N5170 X-.113 Y-5.161
N5175 X.049 Y-5.148
N5180 X.211 Y-5.138
N5185 X.374 Y-5.132
N5190 X.537 Y-5.129
N5195 X.699
N5200 X.862 Y-5.132
N5205 X1.025 Y-5.139
N5210 X1.188 Y-5.148
N5215 X1.35 Y-5.161
N5220 X1.513 Y-5.177
N5225 X1.675 Y-5.196
N5230 X1.837 Y-5.218
N5235 X1.998 Y-5.244
N5240 X2.16 Y-5.272
N5245 X2.32 Y-5.304
N5250 X2.481 Y-5.339
N5255 X2.641 Y-5.378
N5260 X2.8 Y-5.419
N5265 X2.958 Y-5.464
N5270 X3.116 Y-5.512
N5275 X3.274 Y-5.563
N5280 X3.412 Y-5.611
N5285 X3.443 Y-5.62
N5290 X3.456 Y-5.623
N5295 X3.469 Y-5.625
N5300 X3.481 Y-5.626
N5305 X3.494 Y-5.625
N5310 X3.507 Y-5.624
N5315 X3.519 Y-5.621
N5320 X3.532 Y-5.618
N5325 X3.544 Y-5.613
N5330 X3.575 Y-5.598
N5335 X3.708 Y-5.529
N5340 X3.86 Y-5.457
N5345 X3.967 Y-5.409
N5350 X4.106 Y-5.352
N5355 X4.289 Y-5.283
N5360 X4.401 Y-5.245
N5365 X4.509 Y-5.21
N5370 X4.619 Y-5.178
N5375 X4.729 Y-5.149
N5380 X4.839 Y-5.121
N5385 X4.95 Y-5.097
N5390 X5.062 Y-5.074
N5395 X5.173 Y-5.054
N5400 X5.285 Y-5.037
N5405 X5.398 Y-5.022
N5410 X5.51 Y-5.009
N5415 X5.623 Y-4.999
N5420 X5.736 Y-4.991
N5425 X5.849 Y-4.986
N5430 X5.963 Y-4.983
N5435 X6.076 Y-4.982
N5440 X6.189 Y-4.984
N5445 X6.197
N5450 X6.196 Y-4.963
N5455 Y-4.881
N5460 X6.2 Y-4.799
N5465 X6.207 Y-4.718
N5470 X6.218 Y-4.637
N5475 X6.232 Y-4.556
N5480 X6.249 Y-4.477
N5485 X6.27 Y-4.398
N5490 X6.293 Y-4.32
N5495 X6.321 Y-4.243
N5500 X6.351 Y-4.167
N5505 X6.385 Y-4.092
N5510 X6.421 Y-4.019
N5515 X6.463 Y-3.943
N5520 X6.527 Y-3.842
N5525 X6.598 Y-3.744
N5530 X6.652 Y-3.676
N5535 X6.707 Y-3.614
N5540 X6.764 Y-3.554
N5545 X6.823 Y-3.497
N5550 X6.885 Y-3.443
N5555 X6.948 Y-3.391
N5560 X7.014 Y-3.343
N5565 X7.082 Y-3.297
N5570 X7.151 Y-3.254
N5575 X7.222 Y-3.214
N5580 X7.295 Y-3.177
N5585 X7.369 Y-3.143
N5590 X7.444 Y-3.112
N5595 X7.521 Y-3.084
N5600 X7.599 Y-3.06
N5605 X7.679 Y-3.039
N5610 X7.75 Y-3.023
N5615 X7.757 Y-3.022
N5620 Y-3.014
N5625 X7.755 Y-2.935
N5630 Y3.287
N5635 X7.727 Y3.276
N5640 X7.612 Y3.239
N5645 X7.496 Y3.207
N5650 X7.379 Y3.182
N5655 X7.261 Y3.163
N5660 X7.142 Y3.151
N5665 X7.022 Y3.145
N5670 X6.903
N5675 X6.783 Y3.152
N5680 X6.664 Y3.165
N5685 X6.545 Y3.185
N5690 X6.427 Y3.211
N5695 X6.312 Y3.242
N5700 X6.219 Y3.273
N5705 X6.094 Y3.321
N5710 X5.969 Y3.379
N5715 X5.859 Y3.437
N5720 X5.754 Y3.501
N5725 X5.653 Y3.57
N5730 X5.557 Y3.643
N5735 X5.465 Y3.722
N5740 X5.378 Y3.805
N5745 X5.295 Y3.892
N5750 X5.218 Y3.984
N5755 X5.145 Y4.079
N5760 X5.078 Y4.178
N5765 X5.016 Y4.281
N5770 X4.96 Y4.386
N5775 X4.909 Y4.495
N5780 X4.864 Y4.606
N5785 X4.825 Y4.72
N5790 X4.792 Y4.837
N5795 X4.766 Y4.953
N5800 X4.749 Y5.049
N5805 X4.737 Y5.15
N5810 X4.654 Y5.179
N5815 X4.457 Y5.244
N5820 X4.259 Y5.306
N5825 X4.061 Y5.365
N5830 X3.862 Y5.421
N5835 X3.662 Y5.475
N5840 X3.462 Y5.525
N5845 X3.261 Y5.573
N5850 X3.06 Y5.618
N5855 X2.858 Y5.659
N5860 X2.656 Y5.698
N5865 X2.453 Y5.734
N5870 X2.25 Y5.768
N5875 X2.046 Y5.798
N5880 X1.843 Y5.825
N5885 X1.639 Y5.85
N5890 X1.434 Y5.872
N5895 X1.23 Y5.89
N5900 X1.025 Y5.906
N5905 X.82 Y5.919
N5910 X.615 Y5.929
N5915 X.41 Y5.937
N5920 X.205 Y5.941
N5925 X0 Y5.942
N5930 X-.205 Y5.941
N5935 X-.41 Y5.937
N5940 X-.615 Y5.929
N5945 X-.82 Y5.919
N5950 X-1.025 Y5.906
N5955 X-1.23 Y5.89
N5960 X-1.434 Y5.872
N5965 X-1.639 Y5.85
N5970 X-1.843 Y5.825
N5975 X-2.046 Y5.798
N5980 X-2.25 Y5.768
N5985 X-2.453 Y5.734
N5990 X-2.656 Y5.698
N5995 X-2.858 Y5.659
N6000 X-3.06 Y5.618
N6005 X-3.261 Y5.573
N6010 X-3.462 Y5.525
N6015 X-3.662 Y5.475
N6020 X-3.862 Y5.421
N6025 X-4.061 Y5.365
N6030 X-4.259 Y5.306
N6035 X-4.457 Y5.244
N6040 X-4.654 Y5.179
N6045 X-4.737 Y5.15
N6050 X-4.745 Y5.075
N6055 X-4.766 Y4.955
N6060 X-4.792 Y4.837
N6065 X-4.825 Y4.72
N6070 X-4.864 Y4.606
N6075 X-4.909 Y4.495
N6080 X-4.96 Y4.386
N6085 X-5.016 Y4.281
N6090 X-5.078 Y4.178
N6095 X-5.145 Y4.079
N6100 X-5.218 Y3.984
N6105 X-5.295 Y3.892
N6110 X-5.378 Y3.805
N6115 X-5.465 Y3.722
N6120 X-5.557 Y3.643
N6125 X-5.651 Y3.571
N6130 X-5.732 Y3.516
N6135 X-5.846 Y3.445
N6140 X-5.967 Y3.38
N6145 X-6.08 Y3.328
N6150 X-6.194 Y3.282
N6155 X-6.31 Y3.243
N6160 X-6.427 Y3.211
N6165 X-6.545 Y3.185
N6170 X-6.664 Y3.165
N6175 X-6.783 Y3.152
N6180 X-6.903 Y3.145
N6185 X-7.022
N6190 X-7.142 Y3.151
N6195 X-7.261 Y3.163
N6200 X-7.379 Y3.182
N6205 X-7.496 Y3.207
N6210 X-7.612 Y3.239
N6215 X-7.727 Y3.276
N6220 X-7.755 Y3.287
N6225 Y.334
N6230 G03 X-7.726 Y.264 I.1 J0
N6235 G01 X-7.358 Y-.104
N6240 G00 Z3.
N6245 G90 G54 X-7.613 Y.973
N6250 G01 Z-.2 F750.
N6255 X-7.981 Y.605 F2250.
N6260 G03 X-8.01 Y.534 I.071 J-.071
N6265 G01 Y-2.022 F3000.
N6270 X-8.005 Y-2.04
N6275 X-8.002 Y-2.041
N6280 X-7.982 Y-2.043
N6285 X-7.89 Y-2.049
N6290 X-7.781 Y-2.061
N6295 X-7.674 Y-2.076
N6300 X-7.567 Y-2.095
N6305 X-7.462 Y-2.119
N6310 X-7.358 Y-2.146
N6315 X-7.256 Y-2.177
N6320 X-7.155 Y-2.211
N6325 X-7.056 Y-2.249
N6330 X-6.959 Y-2.29
N6335 X-6.864 Y-2.335
N6340 X-6.771 Y-2.383
N6345 X-6.679 Y-2.435
N6350 X-6.59 Y-2.489
N6355 X-6.503 Y-2.547
N6360 X-6.419 Y-2.607
N6365 X-6.336 Y-2.671
N6370 X-6.256 Y-2.737
N6375 X-6.179 Y-2.806
N6380 X-6.104 Y-2.878
N6385 X-6.032 Y-2.953
N6390 X-5.962 Y-3.03
N6395 X-5.895 Y-3.109
N6400 X-5.831 Y-3.191
N6405 X-5.77 Y-3.275
N6410 X-5.712 Y-3.362
N6415 X-5.657 Y-3.451
N6420 X-5.605 Y-3.542
N6425 X-5.556 Y-3.634
N6430 X-5.511 Y-3.729
N6435 X-5.469 Y-3.826
N6440 X-5.43 Y-3.925
N6445 X-5.395 Y-4.025
N6450 X-5.367 Y-4.117
N6455 X-5.326 Y-4.272
N6460 X-5.3 Y-4.394
N6465 X-5.284 Y-4.489
N6470 X-5.266 Y-4.627
N6475 X-5.256 Y-4.755
N6480 X-5.251 Y-4.777
N6485 X-5.248
N6490 X-5.232 Y-4.781
N6495 X-5.112 Y-4.806
N6500 X-5.018 Y-4.829
N6505 X-4.901 Y-4.862
N6510 X-4.784 Y-4.901
N6515 X-4.669 Y-4.945
N6520 X-4.557 Y-4.993
N6525 X-4.446 Y-5.046
N6530 X-4.338 Y-5.104
N6535 X-4.233 Y-5.166
N6540 X-4.13 Y-5.233
N6545 X-4.031 Y-5.304
N6550 X-3.934 Y-5.379
N6555 X-3.84 Y-5.458
N6560 X-3.75 Y-5.541
N6565 X-3.663 Y-5.629
N6570 X-3.58 Y-5.72
N6575 X-3.5 Y-5.815
N6580 X-3.425 Y-5.913
N6585 X-3.362 Y-6.003
N6590 X-3.332 Y-6.043
N6595 X-3.308 Y-6.071
N6600 X-3.297 Y-6.082
N6605 X-3.273 Y-6.103
N6610 X-3.251 Y-6.121
N6615 X-3.227 Y-6.137
N6620 X-3.202 Y-6.151
N6625 X-3.176 Y-6.163
N6630 X-3.149 Y-6.174
N6635 X-3.122 Y-6.182
N6640 X-3.094 Y-6.189
N6645 X-3.065 Y-6.194
N6650 X-3.037 Y-6.196
N6655 X-3.008 Y-6.197
N6660 X-2.979 Y-6.196
N6665 X-2.951 Y-6.193
N6670 X-2.922 Y-6.187
N6675 X-2.894 Y-6.18
N6680 X-2.866 Y-6.17
N6685 X-2.826 Y-6.153
N6690 X-2.649 Y-6.072
N6695 X-2.459 Y-5.991
N6700 X-2.33 Y-5.939
N6705 X-2.158 Y-5.874
N6710 X-1.93 Y-5.795
N6715 X-1.795 Y-5.752
N6720 X-1.644 Y-5.706
N6725 X-1.491 Y-5.663
N6730 X-1.337 Y-5.623
N6735 X-1.183 Y-5.586
N6740 X-1.028 Y-5.553
N6745 X-.873 Y-5.522
N6750 X-.718 Y-5.494
N6755 X-.562 Y-5.47
N6760 X-.405 Y-5.448
N6765 X-.248 Y-5.43
N6770 X-.091 Y-5.415
N6775 X.066 Y-5.402
N6780 X.224 Y-5.393
N6785 X.381 Y-5.387
N6790 X.539 Y-5.384
N6795 X.697
N6800 X.855 Y-5.387
N6805 X1.013 Y-5.393
N6810 X1.17 Y-5.403
N6815 X1.328 Y-5.415
N6820 X1.485 Y-5.43
N6825 X1.643 Y-5.449
N6830 X1.799 Y-5.47
N6835 X1.956 Y-5.495
N6840 X2.112 Y-5.523
N6845 X2.268 Y-5.554
N6850 X2.424 Y-5.588
N6855 X2.579 Y-5.625
N6860 X2.733 Y-5.665
N6865 X2.887 Y-5.709
N6870 X3.04 Y-5.755
N6875 X3.193 Y-5.805
N6880 X3.332 Y-5.853
N6885 X3.378 Y-5.867
N6890 X3.411 Y-5.875
N6895 X3.445 Y-5.879
N6900 X3.479 Y-5.881
N6905 X3.513 Y-5.88
N6910 X3.547 Y-5.876
N6915 X3.58 Y-5.869
N6920 X3.613 Y-5.859
N6925 X3.645 Y-5.847
N6930 X3.689 Y-5.826
N6935 X3.821 Y-5.758
N6940 X3.966 Y-5.688
N6945 X4.067 Y-5.644
N6950 X4.2 Y-5.589
N6955 X4.375 Y-5.523
N6960 X4.48 Y-5.487
N6965 X4.584 Y-5.454
N6970 X4.688 Y-5.424
N6975 X4.793 Y-5.396
N6980 X4.898 Y-5.37
N6985 X5.003 Y-5.346
N6990 X5.109 Y-5.325
N6995 X5.215 Y-5.306
N7000 X5.322 Y-5.289
N7005 X5.429 Y-5.275
N7010 X5.536 Y-5.263
N7015 X5.644 Y-5.253
N7020 X5.751 Y-5.245
N7025 X5.859 Y-5.24
N7030 X5.967 Y-5.238
N7035 X6.074 Y-5.237
N7040 X6.182 Y-5.239
N7045 X6.29 Y-5.243
N7050 X6.398 Y-5.25
N7055 X6.452 Y-5.254
N7060 X6.48 Y-5.245
N7065 X6.478 Y-5.227
N7070 X6.469 Y-5.173
N7075 X6.46 Y-5.101
N7080 X6.454 Y-5.03
N7085 X6.451 Y-4.958
N7090 Y-4.887
N7095 X6.455 Y-4.816
N7100 X6.461 Y-4.745
N7105 X6.47 Y-4.675
N7110 X6.482 Y-4.605
N7115 X6.497 Y-4.536
N7120 X6.515 Y-4.467
N7125 X6.536 Y-4.399
N7130 X6.559 Y-4.333
N7135 X6.586 Y-4.267
N7140 X6.615 Y-4.202
N7145 X6.647 Y-4.138
N7150 X6.683 Y-4.073
N7155 X6.739 Y-3.984
N7160 X6.801 Y-3.899
N7165 X6.847 Y-3.84
N7170 X6.895 Y-3.786
N7175 X6.945 Y-3.734
N7180 X6.996 Y-3.685
N7185 X7.05 Y-3.638
N7190 X7.105 Y-3.593
N7195 X7.162 Y-3.551
N7200 X7.22 Y-3.511
N7205 X7.281 Y-3.473
N7210 X7.342 Y-3.439
N7215 X7.406 Y-3.407
N7220 X7.47 Y-3.377
N7225 X7.536 Y-3.35
N7230 X7.602 Y-3.326
N7235 X7.67 Y-3.305
N7240 X7.739 Y-3.287
N7245 X7.812 Y-3.27
N7250 X7.915 Y-3.253
N7255 X8.005 Y-3.244
N7260 X8.032 Y-3.232
N7265 X8.03 Y-3.211
N7270 X8.025 Y-3.179
N7275 X8.017 Y-3.095
N7280 X8.012 Y-3.012
N7285 X8.01 Y-2.933
N7290 Y3.694
N7295 X7.935 Y3.65
N7300 X7.839 Y3.6
N7305 X7.741 Y3.555
N7310 X7.641 Y3.516
N7315 X7.539 Y3.483
N7320 X7.436 Y3.455
N7325 X7.332 Y3.433
N7330 X7.228 Y3.416
N7335 X7.122 Y3.405
N7340 X7.016 Y3.4
N7345 X6.91
N7350 X6.804 Y3.406
N7355 X6.698 Y3.418
N7360 X6.593 Y3.435
N7365 X6.488 Y3.458
N7370 X6.386 Y3.487
N7375 X6.305 Y3.513
N7380 X6.193 Y3.556
N7385 X6.082 Y3.607
N7390 X5.985 Y3.659
N7395 X5.892 Y3.716
N7400 X5.803 Y3.777
N7405 X5.717 Y3.842
N7410 X5.636 Y3.911
N7415 X5.558 Y3.985
N7420 X5.485 Y4.063
N7425 X5.417 Y4.144
N7430 X5.352 Y4.228
N7435 X5.293 Y4.316
N7440 X5.238 Y4.407
N7445 X5.188 Y4.5
N7450 X5.143 Y4.597
N7455 X5.103 Y4.695
N7460 X5.069 Y4.796
N7465 X5.039 Y4.899
N7470 X5.016 Y5.003
N7475 X5.001 Y5.087
N7480 X4.987 Y5.206
N7485 X4.98 Y5.306
N7490 X4.974 Y5.336
N7495 X4.951 Y5.346
N7500 X4.936 Y5.351
N7505 X4.736 Y5.42
N7510 X4.535 Y5.486
N7515 X4.334 Y5.55
N7520 X4.132 Y5.61
N7525 X3.93 Y5.667
N7530 X3.726 Y5.721
N7535 X3.523 Y5.773
N7540 X3.318 Y5.821
N7545 X3.113 Y5.867
N7550 X2.908 Y5.909
N7555 X2.702 Y5.949
N7560 X2.496 Y5.986
N7565 X2.289 Y6.02
N7570 X2.082 Y6.05
N7575 X1.875 Y6.078
N7580 X1.667 Y6.103
N7585 X1.46 Y6.125
N7590 X1.251 Y6.144
N7595 X1.043 Y6.161
N7600 X.835 Y6.174
N7605 X.626 Y6.184
N7610 X.417 Y6.191
N7615 X.209 Y6.196
N7620 X0 Y6.197
N7625 X-.209 Y6.196
N7630 X-.417 Y6.191
N7635 X-.626 Y6.184
N7640 X-.835 Y6.174
N7645 X-1.043 Y6.161
N7650 X-1.251 Y6.144
N7655 X-1.46 Y6.125
N7660 X-1.667 Y6.103
N7665 X-1.875 Y6.078
N7670 X-2.082 Y6.05
N7675 X-2.289 Y6.02
N7680 X-2.496 Y5.986
N7685 X-2.702 Y5.949
N7690 X-2.908 Y5.909
N7695 X-3.113 Y5.867
N7700 X-3.318 Y5.821
N7705 X-3.523 Y5.773
N7710 X-3.726 Y5.721
N7715 X-3.93 Y5.667
N7720 X-4.132 Y5.61
N7725 X-4.334 Y5.55
N7730 X-4.535 Y5.486
N7735 X-4.736 Y5.42
N7740 X-4.936 Y5.351
N7745 X-4.951 Y5.346
N7750 X-4.978 Y5.33
N7755 X-4.98 Y5.307
N7760 X-4.986 Y5.219
N7765 X-4.998 Y5.111
N7770 X-5.016 Y5.004
N7775 X-5.039 Y4.899
N7780 X-5.069 Y4.796
N7785 X-5.103 Y4.695
N7790 X-5.143 Y4.597
N7795 X-5.188 Y4.5
N7800 X-5.238 Y4.407
N7805 X-5.293 Y4.316
N7810 X-5.352 Y4.228
N7815 X-5.417 Y4.144
N7820 X-5.485 Y4.063
N7825 X-5.558 Y3.985
N7830 X-5.636 Y3.911
N7835 X-5.717 Y3.842
N7840 X-5.801 Y3.778
N7845 X-5.871 Y3.729
N7850 X-5.973 Y3.666
N7855 X-6.081 Y3.608
N7860 X-6.181 Y3.562
N7865 X-6.282 Y3.522
N7870 X-6.384 Y3.487
N7875 X-6.488 Y3.458
N7880 X-6.593 Y3.435
N7885 X-6.698 Y3.418
N7890 X-6.804 Y3.406
N7895 X-6.91 Y3.4
N7900 X-7.016
N7905 X-7.122 Y3.405
N7910 X-7.228 Y3.416
N7915 X-7.332 Y3.433
N7920 X-7.436 Y3.455
N7925 X-7.539 Y3.483
N7930 X-7.641 Y3.516
N7935 X-7.741 Y3.555
N7940 X-7.837 Y3.599
N7945 X-7.913 Y3.638
N7950 X-8.01 Y3.694
N7955 Y.334
N7960 G03 X-7.981 Y.264 I.1 J0
N7965 G01 X-7.613 Y-.104
N7970 G00 Z3.
N7975 G90 G54 X-7.613 Y.973
N7980 Z2.8
N7985 G01 Z-.4 F750.
N7990 X-7.981 Y.605 F2250.
N7995 G03 X-8.01 Y.534 I.071 J-.071
N8000 G01 Y-2.022 F3000.
N8005 X-8.005 Y-2.04
N8010 X-8.002 Y-2.041
N8015 X-7.982 Y-2.043
N8020 X-7.89 Y-2.049
N8025 X-7.781 Y-2.061
N8030 X-7.674 Y-2.076
N8035 X-7.567 Y-2.095
N8040 X-7.462 Y-2.119
N8045 X-7.358 Y-2.146
N8050 X-7.256 Y-2.177
N8055 X-7.155 Y-2.211
N8060 X-7.056 Y-2.249
N8065 X-6.959 Y-2.29
N8070 X-6.864 Y-2.335
N8075 X-6.771 Y-2.383
N8080 X-6.679 Y-2.435
N8085 X-6.59 Y-2.489
N8090 X-6.503 Y-2.547
N8095 X-6.419 Y-2.607
N8100 X-6.336 Y-2.671
N8105 X-6.256 Y-2.737
N8110 X-6.179 Y-2.806
N8115 X-6.104 Y-2.878
N8120 X-6.032 Y-2.953
N8125 X-5.962 Y-3.03
N8130 X-5.895 Y-3.109
N8135 X-5.831 Y-3.191
N8140 X-5.77 Y-3.275
N8145 X-5.712 Y-3.362
N8150 X-5.657 Y-3.451
N8155 X-5.605 Y-3.542
N8160 X-5.556 Y-3.634
N8165 X-5.511 Y-3.729
N8170 X-5.469 Y-3.826
N8175 X-5.43 Y-3.925
N8180 X-5.395 Y-4.025
N8185 X-5.367 Y-4.117
N8190 X-5.326 Y-4.272
N8195 X-5.3 Y-4.394
N8200 X-5.284 Y-4.489
N8205 X-5.266 Y-4.627
N8210 X-5.256 Y-4.755
N8215 X-5.251 Y-4.777
N8220 X-5.248
N8225 X-5.232 Y-4.781
N8230 X-5.112 Y-4.806
N8235 X-5.018 Y-4.829
N8240 X-4.901 Y-4.862
N8245 X-4.784 Y-4.901
N8250 X-4.669 Y-4.945
N8255 X-4.557 Y-4.993
N8260 X-4.446 Y-5.046
N8265 X-4.338 Y-5.104
N8270 X-4.233 Y-5.166
N8275 X-4.13 Y-5.233
N8280 X-4.031 Y-5.304
N8285 X-3.934 Y-5.379
N8290 X-3.84 Y-5.458
N8295 X-3.75 Y-5.541
N8300 X-3.663 Y-5.629
N8305 X-3.58 Y-5.72
N8310 X-3.5 Y-5.815
N8315 X-3.425 Y-5.913
N8320 X-3.362 Y-6.003
N8325 X-3.332 Y-6.043
N8330 X-3.308 Y-6.071
N8335 X-3.297 Y-6.082
N8340 X-3.273 Y-6.103
N8345 X-3.251 Y-6.121
N8350 X-3.227 Y-6.137
N8355 X-3.202 Y-6.151
N8360 X-3.176 Y-6.163
N8365 X-3.149 Y-6.174
N8370 X-3.122 Y-6.182
N8375 X-3.094 Y-6.189
N8380 X-3.065 Y-6.194
N8385 X-3.037 Y-6.196
N8390 X-3.008 Y-6.197
N8395 X-2.979 Y-6.196
N8400 X-2.951 Y-6.193
N8405 X-2.922 Y-6.187
N8410 X-2.894 Y-6.18
N8415 X-2.866 Y-6.17
N8420 X-2.826 Y-6.153
N8425 X-2.649 Y-6.072
N8430 X-2.459 Y-5.991
N8435 X-2.33 Y-5.939
N8440 X-2.158 Y-5.874
N8445 X-1.93 Y-5.795
N8450 X-1.795 Y-5.752
N8455 X-1.644 Y-5.706
N8460 X-1.491 Y-5.663
N8465 X-1.337 Y-5.623
N8470 X-1.183 Y-5.586
N8475 X-1.028 Y-5.553
N8480 X-.873 Y-5.522
N8485 X-.718 Y-5.494
N8490 X-.562 Y-5.47
N8495 X-.405 Y-5.448
N8500 X-.248 Y-5.43
N8505 X-.091 Y-5.415
N8510 X.066 Y-5.402
N8515 X.224 Y-5.393
N8520 X.381 Y-5.387
N8525 X.539 Y-5.384
N8530 X.697
N8535 X.855 Y-5.387
N8540 X1.013 Y-5.393
N8545 X1.17 Y-5.403
N8550 X1.328 Y-5.415
N8555 X1.485 Y-5.43
N8560 X1.643 Y-5.449
N8565 X1.799 Y-5.47
N8570 X1.956 Y-5.495
N8575 X2.112 Y-5.523
N8580 X2.268 Y-5.554
N8585 X2.424 Y-5.588
N8590 X2.579 Y-5.625
N8595 X2.733 Y-5.665
N8600 X2.887 Y-5.709
N8605 X3.04 Y-5.755
N8610 X3.193 Y-5.805
N8615 X3.332 Y-5.853
N8620 X3.378 Y-5.867
N8625 X3.411 Y-5.875
N8630 X3.445 Y-5.879
N8635 X3.479 Y-5.881
N8640 X3.513 Y-5.88
N8645 X3.547 Y-5.876
N8650 X3.58 Y-5.869
N8655 X3.613 Y-5.859
N8660 X3.645 Y-5.847
N8665 X3.689 Y-5.826
N8670 X3.821 Y-5.758
N8675 X3.966 Y-5.688
N8680 X4.067 Y-5.644
N8685 X4.2 Y-5.589
N8690 X4.375 Y-5.523
N8695 X4.48 Y-5.487
N8700 X4.584 Y-5.454
N8705 X4.688 Y-5.424
N8710 X4.793 Y-5.396
N8715 X4.898 Y-5.37
N8720 X5.003 Y-5.346
N8725 X5.109 Y-5.325
N8730 X5.215 Y-5.306
N8735 X5.322 Y-5.289
N8740 X5.429 Y-5.275
N8745 X5.536 Y-5.263
N8750 X5.644 Y-5.253
N8755 X5.751 Y-5.245
N8760 X5.859 Y-5.24
N8765 X5.967 Y-5.238
N8770 X6.074 Y-5.237
N8775 X6.182 Y-5.239
N8780 X6.29 Y-5.243
N8785 X6.398 Y-5.25
N8790 X6.452 Y-5.254
N8795 X6.48 Y-5.245
N8800 X6.478 Y-5.227
N8805 X6.469 Y-5.173
N8810 X6.46 Y-5.101
N8815 X6.454 Y-5.03
N8820 X6.451 Y-4.958
N8825 Y-4.887
N8830 X6.455 Y-4.816
N8835 X6.461 Y-4.745
N8840 X6.47 Y-4.675
N8845 X6.482 Y-4.605
N8850 X6.497 Y-4.536
N8855 X6.515 Y-4.467
N8860 X6.536 Y-4.399
N8865 X6.559 Y-4.333
N8870 X6.586 Y-4.267
N8875 X6.615 Y-4.202
N8880 X6.647 Y-4.138
N8885 X6.683 Y-4.073
N8890 X6.739 Y-3.984
N8895 X6.801 Y-3.899
N8900 X6.847 Y-3.84
N8905 X6.895 Y-3.786
N8910 X6.945 Y-3.734
N8915 X6.996 Y-3.685
N8920 X7.05 Y-3.638
N8925 X7.105 Y-3.593
N8930 X7.162 Y-3.551
N8935 X7.22 Y-3.511
N8940 X7.281 Y-3.473
N8945 X7.342 Y-3.439
N8950 X7.406 Y-3.407
N8955 X7.47 Y-3.377
N8960 X7.536 Y-3.35
N8965 X7.602 Y-3.326
N8970 X7.67 Y-3.305
N8975 X7.739 Y-3.287
N8980 X7.812 Y-3.27
N8985 X7.915 Y-3.253
N8990 X8.005 Y-3.244
N8995 X8.032 Y-3.232
N9000 X8.03 Y-3.211
N9005 X8.025 Y-3.179
N9010 X8.017 Y-3.095
N9015 X8.012 Y-3.012
N9020 X8.01 Y-2.933
N9025 Y3.694
N9030 X7.935 Y3.65
N9035 X7.839 Y3.6
N9040 X7.741 Y3.555
N9045 X7.641 Y3.516
N9050 X7.539 Y3.483
N9055 X7.436 Y3.455
N9060 X7.332 Y3.433
N9065 X7.228 Y3.416
N9070 X7.122 Y3.405
N9075 X7.016 Y3.4
N9080 X6.91
N9085 X6.804 Y3.406
N9090 X6.698 Y3.418
N9095 X6.593 Y3.435
N9100 X6.488 Y3.458
N9105 X6.386 Y3.487
N9110 X6.305 Y3.513
N9115 X6.193 Y3.556
N9120 X6.082 Y3.607
N9125 X5.985 Y3.659
N9130 X5.892 Y3.716
N9135 X5.803 Y3.777
N9140 X5.717 Y3.842
N9145 X5.636 Y3.911
N9150 X5.558 Y3.985
N9155 X5.485 Y4.063
N9160 X5.417 Y4.144
N9165 X5.352 Y4.228
N9170 X5.293 Y4.316
N9175 X5.238 Y4.407
N9180 X5.188 Y4.5
N9185 X5.143 Y4.597
N9190 X5.103 Y4.695
N9195 X5.069 Y4.796
N9200 X5.039 Y4.899
N9205 X5.016 Y5.003
N9210 X5.001 Y5.087
N9215 X4.987 Y5.206
N9220 X4.98 Y5.306
N9225 X4.974 Y5.336
N9230 X4.951 Y5.346
N9235 X4.936 Y5.351
N9240 X4.736 Y5.42
N9245 X4.535 Y5.486
N9250 X4.334 Y5.55
N9255 X4.132 Y5.61
N9260 X3.93 Y5.667
N9265 X3.726 Y5.721
N9270 X3.523 Y5.773
N9275 X3.318 Y5.821
N9280 X3.113 Y5.867
N9285 X2.908 Y5.909
N9290 X2.702 Y5.949
N9295 X2.496 Y5.986
N9300 X2.289 Y6.02
N9305 X2.082 Y6.05
N9310 X1.875 Y6.078
N9315 X1.667 Y6.103
N9320 X1.46 Y6.125
N9325 X1.251 Y6.144
N9330 X1.043 Y6.161
N9335 X.835 Y6.174
N9340 X.626 Y6.184
N9345 X.417 Y6.191
N9350 X.209 Y6.196
N9355 X0 Y6.197
N9360 X-.209 Y6.196
N9365 X-.417 Y6.191
N9370 X-.626 Y6.184
N9375 X-.835 Y6.174
N9380 X-1.043 Y6.161
N9385 X-1.251 Y6.144
N9390 X-1.46 Y6.125
N9395 X-1.667 Y6.103
N9400 X-1.875 Y6.078
N9405 X-2.082 Y6.05
N9410 X-2.289 Y6.02
N9415 X-2.496 Y5.986
N9420 X-2.702 Y5.949
N9425 X-2.908 Y5.909
N9430 X-3.113 Y5.867
N9435 X-3.318 Y5.821
N9440 X-3.523 Y5.773
N9445 X-3.726 Y5.721
N9450 X-3.93 Y5.667
N9455 X-4.132 Y5.61
N9460 X-4.334 Y5.55
N9465 X-4.535 Y5.486
N9470 X-4.736 Y5.42
N9475 X-4.936 Y5.351
N9480 X-4.951 Y5.346
N9485 X-4.978 Y5.33
N9490 X-4.98 Y5.307
N9495 X-4.986 Y5.219
N9500 X-4.998 Y5.111
N9505 X-5.016 Y5.004
N9510 X-5.039 Y4.899
N9515 X-5.069 Y4.796
N9520 X-5.103 Y4.695
N9525 X-5.143 Y4.597
N9530 X-5.188 Y4.5
N9535 X-5.238 Y4.407
N9540 X-5.293 Y4.316
N9545 X-5.352 Y4.228
N9550 X-5.417 Y4.144
N9555 X-5.485 Y4.063
N9560 X-5.558 Y3.985
N9565 X-5.636 Y3.911
N9570 X-5.717 Y3.842
N9575 X-5.801 Y3.778
N9580 X-5.871 Y3.729
N9585 X-5.973 Y3.666
N9590 X-6.081 Y3.608
N9595 X-6.181 Y3.562
N9600 X-6.282 Y3.522
N9605 X-6.384 Y3.487
N9610 X-6.488 Y3.458
N9615 X-6.593 Y3.435
N9620 X-6.698 Y3.418
N9625 X-6.804 Y3.406
N9630 X-6.91 Y3.4
N9635 X-7.016
N9640 X-7.122 Y3.405
N9645 X-7.228 Y3.416
N9650 X-7.332 Y3.433
N9655 X-7.436 Y3.455
N9660 X-7.539 Y3.483
N9665 X-7.641 Y3.516
N9670 X-7.741 Y3.555
N9675 X-7.837 Y3.599
N9680 X-7.913 Y3.638
N9685 X-8.01 Y3.694
N9690 Y.334
N9695 G03 X-7.981 Y.264 I.1 J0
N9700 G01 X-7.613 Y-.104
N9705 G00 Z3.
N9710 G90 G54 X-7.613 Y.973
N9715 Z2.6
N9720 G01 Z-.6 F750.
N9725 X-7.981 Y.605 F2250.
N9730 G03 X-8.01 Y.534 I.071 J-.071
N9735 G01 Y-2.022 F3000.
N9740 X-8.005 Y-2.04
N9745 X-8.002 Y-2.041
N9750 X-7.982 Y-2.043
N9755 X-7.89 Y-2.049
N9760 X-7.781 Y-2.061
N9765 X-7.674 Y-2.076
N9770 X-7.567 Y-2.095
N9775 X-7.462 Y-2.119
N9780 X-7.358 Y-2.146
N9785 X-7.256 Y-2.177
N9790 X-7.155 Y-2.211
N9795 X-7.056 Y-2.249
N9800 X-6.959 Y-2.29
N9805 X-6.864 Y-2.335
N9810 X-6.771 Y-2.383
N9815 X-6.679 Y-2.435
N9820 X-6.59 Y-2.489
N9825 X-6.503 Y-2.547
N9830 X-6.419 Y-2.607
N9835 X-6.336 Y-2.671
N9840 X-6.256 Y-2.737
N9845 X-6.179 Y-2.806
N9850 X-6.104 Y-2.878
N9855 X-6.032 Y-2.953
N9860 X-5.962 Y-3.03
N9865 X-5.895 Y-3.109
N9870 X-5.831 Y-3.191
N9875 X-5.77 Y-3.275
N9880 X-5.712 Y-3.362
N9885 X-5.657 Y-3.451
N9890 X-5.605 Y-3.542
N9895 X-5.556 Y-3.634
N9900 X-5.511 Y-3.729
N9905 X-5.469 Y-3.826
N9910 X-5.43 Y-3.925
N9915 X-5.395 Y-4.025
N9920 X-5.367 Y-4.117
N9925 X-5.326 Y-4.272
N9930 X-5.3 Y-4.394
N9935 X-5.284 Y-4.489
N9940 X-5.266 Y-4.627
N9945 X-5.256 Y-4.755
N9950 X-5.251 Y-4.777
N9955 X-5.248
N9960 X-5.232 Y-4.781
N9965 X-5.112 Y-4.806
N9970 X-5.018 Y-4.829
N9975 X-4.901 Y-4.862
N9980 X-4.784 Y-4.901
N9985 X-4.669 Y-4.945
N9990 X-4.557 Y-4.993
N9995 X-4.446 Y-5.046
N5 X-4.338 Y-5.104
N10 X-4.233 Y-5.166
N15 X-4.13 Y-5.233
N20 X-4.031 Y-5.304
N25 X-3.934 Y-5.379
N30 X-3.84 Y-5.458
N35 X-3.75 Y-5.541
N40 X-3.663 Y-5.629
N45 X-3.58 Y-5.72
N50 X-3.5 Y-5.815
N55 X-3.425 Y-5.913
N60 X-3.362 Y-6.003
N65 X-3.332 Y-6.043
N70 X-3.308 Y-6.071
N75 X-3.297 Y-6.082
N80 X-3.273 Y-6.103
N85 X-3.251 Y-6.121
N90 X-3.227 Y-6.137
N95 X-3.202 Y-6.151
N100 X-3.176 Y-6.163
N105 X-3.149 Y-6.174
N110 X-3.122 Y-6.182
N115 X-3.094 Y-6.189
N120 X-3.065 Y-6.194
N125 X-3.037 Y-6.196
N130 X-3.008 Y-6.197
N135 X-2.979 Y-6.196
N140 X-2.951 Y-6.193
N145 X-2.922 Y-6.187
N150 X-2.894 Y-6.18
N155 X-2.866 Y-6.17
N160 X-2.826 Y-6.153
N165 X-2.649 Y-6.072
N170 X-2.459 Y-5.991
N175 X-2.33 Y-5.939
N180 X-2.158 Y-5.874
N185 X-1.93 Y-5.795
N190 X-1.795 Y-5.752
N195 X-1.644 Y-5.706
N200 X-1.491 Y-5.663
N205 X-1.337 Y-5.623
N210 X-1.183 Y-5.586
N215 X-1.028 Y-5.553
N220 X-.873 Y-5.522
N225 X-.718 Y-5.494
N230 X-.562 Y-5.47
N235 X-.405 Y-5.448
N240 X-.248 Y-5.43
N245 X-.091 Y-5.415
N250 X.066 Y-5.402
N255 X.224 Y-5.393
N260 X.381 Y-5.387
N265 X.539 Y-5.384
N270 X.697
N275 X.855 Y-5.387
N280 X1.013 Y-5.393
N285 X1.17 Y-5.403
N290 X1.328 Y-5.415
N295 X1.485 Y-5.43
N300 X1.643 Y-5.449
N305 X1.799 Y-5.47
N310 X1.956 Y-5.495
N315 X2.112 Y-5.523
N320 X2.268 Y-5.554
N325 X2.424 Y-5.588
N330 X2.579 Y-5.625
N335 X2.733 Y-5.665
N340 X2.887 Y-5.709
N345 X3.04 Y-5.755
N350 X3.193 Y-5.805
N355 X3.332 Y-5.853
N360 X3.378 Y-5.867
N365 X3.411 Y-5.875
N370 X3.445 Y-5.879
N375 X3.479 Y-5.881
N380 X3.513 Y-5.88
N385 X3.547 Y-5.876
N390 X3.58 Y-5.869
N395 X3.613 Y-5.859
N400 X3.645 Y-5.847
N405 X3.689 Y-5.826
N410 X3.821 Y-5.758
N415 X3.966 Y-5.688
N420 X4.067 Y-5.644
N425 X4.2 Y-5.589
N430 X4.375 Y-5.523
N435 X4.48 Y-5.487
N440 X4.584 Y-5.454
N445 X4.688 Y-5.424
N450 X4.793 Y-5.396
N455 X4.898 Y-5.37
N460 X5.003 Y-5.346
N465 X5.109 Y-5.325
N470 X5.215 Y-5.306
N475 X5.322 Y-5.289
N480 X5.429 Y-5.275
N485 X5.536 Y-5.263
N490 X5.644 Y-5.253
N495 X5.751 Y-5.245
N500 X5.859 Y-5.24
N505 X5.967 Y-5.238
N510 X6.074 Y-5.237
N515 X6.182 Y-5.239
N520 X6.29 Y-5.243
N525 X6.398 Y-5.25
N530 X6.452 Y-5.254
N535 X6.48 Y-5.245
N540 X6.478 Y-5.227
N545 X6.469 Y-5.173
N550 X6.46 Y-5.101
N555 X6.454 Y-5.03
N560 X6.451 Y-4.958
N565 Y-4.887
N570 X6.455 Y-4.816
N575 X6.461 Y-4.745
N580 X6.47 Y-4.675
N585 X6.482 Y-4.605
N590 X6.497 Y-4.536
N595 X6.515 Y-4.467
N600 X6.536 Y-4.399
N605 X6.559 Y-4.333
N610 X6.586 Y-4.267
N615 X6.615 Y-4.202
N620 X6.647 Y-4.138
N625 X6.683 Y-4.073
N630 X6.739 Y-3.984
N635 X6.801 Y-3.899
N640 X6.847 Y-3.84
N645 X6.895 Y-3.786
N650 X6.945 Y-3.734
N655 X6.996 Y-3.685
N660 X7.05 Y-3.638
N665 X7.105 Y-3.593
N670 X7.162 Y-3.551
N675 X7.22 Y-3.511
N680 X7.281 Y-3.473
N685 X7.342 Y-3.439
N690 X7.406 Y-3.407
N695 X7.47 Y-3.377
N700 X7.536 Y-3.35
N705 X7.602 Y-3.326
N710 X7.67 Y-3.305
N715 X7.739 Y-3.287
N720 X7.812 Y-3.27
N725 X7.915 Y-3.253
N730 X8.005 Y-3.244
N735 X8.032 Y-3.232
N740 X8.03 Y-3.211
N745 X8.025 Y-3.179
N750 X8.017 Y-3.095
N755 X8.012 Y-3.012
N760 X8.01 Y-2.933
N765 Y3.694
N770 X7.935 Y3.65
N775 X7.839 Y3.6
N780 X7.741 Y3.555
N785 X7.641 Y3.516
N790 X7.539 Y3.483
N795 X7.436 Y3.455
N800 X7.332 Y3.433
N805 X7.228 Y3.416
N810 X7.122 Y3.405
N815 X7.016 Y3.4
N820 X6.91
N825 X6.804 Y3.406
N830 X6.698 Y3.418
N835 X6.593 Y3.435
N840 X6.488 Y3.458
N845 X6.386 Y3.487
N850 X6.305 Y3.513
N855 X6.193 Y3.556
N860 X6.082 Y3.607
N865 X5.985 Y3.659
N870 X5.892 Y3.716
N875 X5.803 Y3.777
N880 X5.717 Y3.842
N885 X5.636 Y3.911
N890 X5.558 Y3.985
N895 X5.485 Y4.063
N900 X5.417 Y4.144
N905 X5.352 Y4.228
N910 X5.293 Y4.316
N915 X5.238 Y4.407
N920 X5.188 Y4.5
N925 X5.143 Y4.597
N930 X5.103 Y4.695
N935 X5.069 Y4.796
N940 X5.039 Y4.899
N945 X5.016 Y5.003
N950 X5.001 Y5.087
N955 X4.987 Y5.206
N960 X4.98 Y5.306
N965 X4.974 Y5.336
N970 X4.951 Y5.346
N975 X4.936 Y5.351
N980 X4.736 Y5.42
N985 X4.535 Y5.486
N990 X4.334 Y5.55
N995 X4.132 Y5.61
N1000 X3.93 Y5.667
N1005 X3.726 Y5.721
N1010 X3.523 Y5.773
N1015 X3.318 Y5.821
N1020 X3.113 Y5.867
N1025 X2.908 Y5.909
N1030 X2.702 Y5.949
N1035 X2.496 Y5.986
N1040 X2.289 Y6.02
N1045 X2.082 Y6.05
N1050 X1.875 Y6.078
N1055 X1.667 Y6.103
N1060 X1.46 Y6.125
N1065 X1.251 Y6.144
N1070 X1.043 Y6.161
N1075 X.835 Y6.174
N1080 X.626 Y6.184
N1085 X.417 Y6.191
N1090 X.209 Y6.196
N1095 X0 Y6.197
N1100 X-.209 Y6.196
N1105 X-.417 Y6.191
N1110 X-.626 Y6.184
N1115 X-.835 Y6.174
N1120 X-1.043 Y6.161
N1125 X-1.251 Y6.144
N1130 X-1.46 Y6.125
N1135 X-1.667 Y6.103
N1140 X-1.875 Y6.078
N1145 X-2.082 Y6.05
N1150 X-2.289 Y6.02
N1155 X-2.496 Y5.986
N1160 X-2.702 Y5.949
N1165 X-2.908 Y5.909
N1170 X-3.113 Y5.867
N1175 X-3.318 Y5.821
N1180 X-3.523 Y5.773
N1185 X-3.726 Y5.721
N1190 X-3.93 Y5.667
N1195 X-4.132 Y5.61
N1200 X-4.334 Y5.55
N1205 X-4.535 Y5.486
N1210 X-4.736 Y5.42
N1215 X-4.936 Y5.351
N1220 X-4.951 Y5.346
N1225 X-4.978 Y5.33
N1230 X-4.98 Y5.307
N1235 X-4.986 Y5.219
N1240 X-4.998 Y5.111
N1245 X-5.016 Y5.004
N1250 X-5.039 Y4.899
N1255 X-5.069 Y4.796
N1260 X-5.103 Y4.695
N1265 X-5.143 Y4.597
N1270 X-5.188 Y4.5
N1275 X-5.238 Y4.407
N1280 X-5.293 Y4.316
N1285 X-5.352 Y4.228
N1290 X-5.417 Y4.144
N1295 X-5.485 Y4.063
N1300 X-5.558 Y3.985
N1305 X-5.636 Y3.911
N1310 X-5.717 Y3.842
N1315 X-5.801 Y3.778
N1320 X-5.871 Y3.729
N1325 X-5.973 Y3.666
N1330 X-6.081 Y3.608
N1335 X-6.181 Y3.562
N1340 X-6.282 Y3.522
N1345 X-6.384 Y3.487
N1350 X-6.488 Y3.458
N1355 X-6.593 Y3.435
N1360 X-6.698 Y3.418
N1365 X-6.804 Y3.406
N1370 X-6.91 Y3.4
N1375 X-7.016
N1380 X-7.122 Y3.405
N1385 X-7.228 Y3.416
N1390 X-7.332 Y3.433
N1395 X-7.436 Y3.455
N1400 X-7.539 Y3.483
N1405 X-7.641 Y3.516
N1410 X-7.741 Y3.555
N1415 X-7.837 Y3.599
N1420 X-7.913 Y3.638
N1425 X-8.01 Y3.694
N1430 Y.334
N1435 G03 X-7.981 Y.264 I.1 J0
N1440 G01 X-7.613 Y-.104
N1445 G00 Z3.
N1450 G90 G54 X-7.613 Y.973
N1455 Z2.4
N1460 G01 Z-.8 F750.
N1465 X-7.981 Y.605 F2250.
N1470 G03 X-8.01 Y.534 I.071 J-.071
N1475 G01 Y-2.022 F3000.
N1480 X-8.005 Y-2.04
N1485 X-8.002 Y-2.041
N1490 X-7.982 Y-2.043
N1495 X-7.89 Y-2.049
N1500 X-7.781 Y-2.061
N1505 X-7.674 Y-2.076
N1510 X-7.567 Y-2.095
N1515 X-7.462 Y-2.119
N1520 X-7.358 Y-2.146
N1525 X-7.256 Y-2.177
N1530 X-7.155 Y-2.211
N1535 X-7.056 Y-2.249
N1540 X-6.959 Y-2.29
N1545 X-6.864 Y-2.335
N1550 X-6.771 Y-2.383
N1555 X-6.679 Y-2.435
N1560 X-6.59 Y-2.489
N1565 X-6.503 Y-2.547
N1570 X-6.419 Y-2.607
N1575 X-6.336 Y-2.671
N1580 X-6.256 Y-2.737
N1585 X-6.179 Y-2.806
N1590 X-6.104 Y-2.878
N1595 X-6.032 Y-2.953
N1600 X-5.962 Y-3.03
N1605 X-5.895 Y-3.109
N1610 X-5.831 Y-3.191
N1615 X-5.77 Y-3.275
N1620 X-5.712 Y-3.362
N1625 X-5.657 Y-3.451
N1630 X-5.605 Y-3.542
N1635 X-5.556 Y-3.634
N1640 X-5.511 Y-3.729
N1645 X-5.469 Y-3.826
N1650 X-5.43 Y-3.925
N1655 X-5.395 Y-4.025
N1660 X-5.367 Y-4.117
N1665 X-5.326 Y-4.272
N1670 X-5.3 Y-4.394
N1675 X-5.284 Y-4.489
N1680 X-5.266 Y-4.627
N1685 X-5.256 Y-4.755
N1690 X-5.251 Y-4.777
N1695 X-5.248
N1700 X-5.232 Y-4.781
N1705 X-5.112 Y-4.806
N1710 X-5.018 Y-4.829
N1715 X-4.901 Y-4.862
N1720 X-4.784 Y-4.901
N1725 X-4.669 Y-4.945
N1730 X-4.557 Y-4.993
N1735 X-4.446 Y-5.046
N1740 X-4.338 Y-5.104
N1745 X-4.233 Y-5.166
N1750 X-4.13 Y-5.233
N1755 X-4.031 Y-5.304
N1760 X-3.934 Y-5.379
N1765 X-3.84 Y-5.458
N1770 X-3.75 Y-5.541
N1775 X-3.663 Y-5.629
N1780 X-3.58 Y-5.72
N1785 X-3.5 Y-5.815
N1790 X-3.425 Y-5.913
N1795 X-3.362 Y-6.003
N1800 X-3.332 Y-6.043
N1805 X-3.308 Y-6.071
N1810 X-3.297 Y-6.082
N1815 X-3.273 Y-6.103
N1820 X-3.251 Y-6.121
N1825 X-3.227 Y-6.137
N1830 X-3.202 Y-6.151
N1835 X-3.176 Y-6.163
N1840 X-3.149 Y-6.174
N1845 X-3.122 Y-6.182
N1850 X-3.094 Y-6.189
N1855 X-3.065 Y-6.194
N1860 X-3.037 Y-6.196
N1865 X-3.008 Y-6.197
N1870 X-2.979 Y-6.196
N1875 X-2.951 Y-6.193
N1880 X-2.922 Y-6.187
N1885 X-2.894 Y-6.18
N1890 X-2.866 Y-6.17
N1895 X-2.826 Y-6.153
N1900 X-2.649 Y-6.072
N1905 X-2.459 Y-5.991
N1910 X-2.33 Y-5.939
N1915 X-2.158 Y-5.874
N1920 X-1.93 Y-5.795
N1925 X-1.795 Y-5.752
N1930 X-1.644 Y-5.706
N1935 X-1.491 Y-5.663
N1940 X-1.337 Y-5.623
N1945 X-1.183 Y-5.586
N1950 X-1.028 Y-5.553
N1955 X-.873 Y-5.522
N1960 X-.718 Y-5.494
N1965 X-.562 Y-5.47
N1970 X-.405 Y-5.448
N1975 X-.248 Y-5.43
N1980 X-.091 Y-5.415
N1985 X.066 Y-5.402
N1990 X.224 Y-5.393
N1995 X.381 Y-5.387
N2000 X.539 Y-5.384
N2005 X.697
N2010 X.855 Y-5.387
N2015 X1.013 Y-5.393
N2020 X1.17 Y-5.403
N2025 X1.328 Y-5.415
N2030 X1.485 Y-5.43
N2035 X1.643 Y-5.449
N2040 X1.799 Y-5.47
N2045 X1.956 Y-5.495
N2050 X2.112 Y-5.523
N2055 X2.268 Y-5.554
N2060 X2.424 Y-5.588
N2065 X2.579 Y-5.625
N2070 X2.733 Y-5.665
N2075 X2.887 Y-5.709
N2080 X3.04 Y-5.755
N2085 X3.193 Y-5.805
N2090 X3.332 Y-5.853
N2095 X3.378 Y-5.867
N2100 X3.411 Y-5.875
N2105 X3.445 Y-5.879
N2110 X3.479 Y-5.881
N2115 X3.513 Y-5.88
N2120 X3.547 Y-5.876
N2125 X3.58 Y-5.869
N2130 X3.613 Y-5.859
N2135 X3.645 Y-5.847
N2140 X3.689 Y-5.826
N2145 X3.821 Y-5.758
N2150 X3.966 Y-5.688
N2155 X4.067 Y-5.644
N2160 X4.2 Y-5.589
N2165 X4.375 Y-5.523
N2170 X4.48 Y-5.487
N2175 X4.584 Y-5.454
N2180 X4.688 Y-5.424
N2185 X4.793 Y-5.396
N2190 X4.898 Y-5.37
N2195 X5.003 Y-5.346
N2200 X5.109 Y-5.325
N2205 X5.215 Y-5.306
N2210 X5.322 Y-5.289
N2215 X5.429 Y-5.275
N2220 X5.536 Y-5.263
N2225 X5.644 Y-5.253
N2230 X5.751 Y-5.245
N2235 X5.859 Y-5.24
N2240 X5.967 Y-5.238
N2245 X6.074 Y-5.237
N2250 X6.182 Y-5.239
N2255 X6.29 Y-5.243
N2260 X6.398 Y-5.25
N2265 X6.452 Y-5.254
N2270 X6.48 Y-5.245
N2275 X6.478 Y-5.227
N2280 X6.469 Y-5.173
N2285 X6.46 Y-5.101
N2290 X6.454 Y-5.03
N2295 X6.451 Y-4.958
N2300 Y-4.887
N2305 X6.455 Y-4.816
N2310 X6.461 Y-4.745
N2315 X6.47 Y-4.675
N2320 X6.482 Y-4.605
N2325 X6.497 Y-4.536
N2330 X6.515 Y-4.467
N2335 X6.536 Y-4.399
N2340 X6.559 Y-4.333
N2345 X6.586 Y-4.267
N2350 X6.615 Y-4.202
N2355 X6.647 Y-4.138
N2360 X6.683 Y-4.073
N2365 X6.739 Y-3.984
N2370 X6.801 Y-3.899
N2375 X6.847 Y-3.84
N2380 X6.895 Y-3.786
N2385 X6.945 Y-3.734
N2390 X6.996 Y-3.685
N2395 X7.05 Y-3.638
N2400 X7.105 Y-3.593
N2405 X7.162 Y-3.551
N2410 X7.22 Y-3.511
N2415 X7.281 Y-3.473
N2420 X7.342 Y-3.439
N2425 X7.406 Y-3.407
N2430 X7.47 Y-3.377
N2435 X7.536 Y-3.35
N2440 X7.602 Y-3.326
N2445 X7.67 Y-3.305
N2450 X7.739 Y-3.287
N2455 X7.812 Y-3.27
N2460 X7.915 Y-3.253
N2465 X8.005 Y-3.244
N2470 X8.032 Y-3.232
N2475 X8.03 Y-3.211
N2480 X8.025 Y-3.179
N2485 X8.017 Y-3.095
N2490 X8.012 Y-3.012
N2495 X8.01 Y-2.933
N2500 Y3.694
N2505 X7.935 Y3.65
N2510 X7.839 Y3.6
N2515 X7.741 Y3.555
N2520 X7.641 Y3.516
N2525 X7.539 Y3.483
N2530 X7.436 Y3.455
N2535 X7.332 Y3.433
N2540 X7.228 Y3.416
N2545 X7.122 Y3.405
N2550 X7.016 Y3.4
N2555 X6.91
N2560 X6.804 Y3.406
N2565 X6.698 Y3.418
N2570 X6.593 Y3.435
N2575 X6.488 Y3.458
N2580 X6.386 Y3.487
N2585 X6.305 Y3.513
N2590 X6.193 Y3.556
N2595 X6.082 Y3.607
N2600 X5.985 Y3.659
N2605 X5.892 Y3.716
N2610 X5.803 Y3.777
N2615 X5.717 Y3.842
N2620 X5.636 Y3.911
N2625 X5.558 Y3.985
N2630 X5.485 Y4.063
N2635 X5.417 Y4.144
N2640 X5.352 Y4.228
N2645 X5.293 Y4.316
N2650 X5.238 Y4.407
N2655 X5.188 Y4.5
N2660 X5.143 Y4.597
N2665 X5.103 Y4.695
N2670 X5.069 Y4.796
N2675 X5.039 Y4.899
N2680 X5.016 Y5.003
N2685 X5.001 Y5.087
N2690 X4.987 Y5.206
N2695 X4.98 Y5.306
N2700 X4.974 Y5.336
N2705 X4.951 Y5.346
N2710 X4.936 Y5.351
N2715 X4.736 Y5.42
N2720 X4.535 Y5.486
N2725 X4.334 Y5.55
N2730 X4.132 Y5.61
N2735 X3.93 Y5.667
N2740 X3.726 Y5.721
N2745 X3.523 Y5.773
N2750 X3.318 Y5.821
N2755 X3.113 Y5.867
N2760 X2.908 Y5.909
N2765 X2.702 Y5.949
N2770 X2.496 Y5.986
N2775 X2.289 Y6.02
N2780 X2.082 Y6.05
N2785 X1.875 Y6.078
N2790 X1.667 Y6.103
N2795 X1.46 Y6.125
N2800 X1.251 Y6.144
N2805 X1.043 Y6.161
N2810 X.835 Y6.174
N2815 X.626 Y6.184
N2820 X.417 Y6.191
N2825 X.209 Y6.196
N2830 X0 Y6.197
N2835 X-.209 Y6.196
N2840 X-.417 Y6.191
N2845 X-.626 Y6.184
N2850 X-.835 Y6.174
N2855 X-1.043 Y6.161
N2860 X-1.251 Y6.144
N2865 X-1.46 Y6.125
N2870 X-1.667 Y6.103
N2875 X-1.875 Y6.078
N2880 X-2.082 Y6.05
N2885 X-2.289 Y6.02
N2890 X-2.496 Y5.986
N2895 X-2.702 Y5.949
N2900 X-2.908 Y5.909
N2905 X-3.113 Y5.867
N2910 X-3.318 Y5.821
N2915 X-3.523 Y5.773
N2920 X-3.726 Y5.721
N2925 X-3.93 Y5.667
N2930 X-4.132 Y5.61
N2935 X-4.334 Y5.55
N2940 X-4.535 Y5.486
N2945 X-4.736 Y5.42
N2950 X-4.936 Y5.351
N2955 X-4.951 Y5.346
N2960 X-4.978 Y5.33
N2965 X-4.98 Y5.307
N2970 X-4.986 Y5.219
N2975 X-4.998 Y5.111
N2980 X-5.016 Y5.004
N2985 X-5.039 Y4.899
N2990 X-5.069 Y4.796
N2995 X-5.103 Y4.695
N3000 X-5.143 Y4.597
N3005 X-5.188 Y4.5
N3010 X-5.238 Y4.407
N3015 X-5.293 Y4.316
N3020 X-5.352 Y4.228
N3025 X-5.417 Y4.144
N3030 X-5.485 Y4.063
N3035 X-5.558 Y3.985
N3040 X-5.636 Y3.911
N3045 X-5.717 Y3.842
N3050 X-5.801 Y3.778
N3055 X-5.871 Y3.729
N3060 X-5.973 Y3.666
N3065 X-6.081 Y3.608
N3070 X-6.181 Y3.562
N3075 X-6.282 Y3.522
N3080 X-6.384 Y3.487
N3085 X-6.488 Y3.458
N3090 X-6.593 Y3.435
N3095 X-6.698 Y3.418
N3100 X-6.804 Y3.406
N3105 X-6.91 Y3.4
N3110 X-7.016
N3115 X-7.122 Y3.405
N3120 X-7.228 Y3.416
N3125 X-7.332 Y3.433
N3130 X-7.436 Y3.455
N3135 X-7.539 Y3.483
N3140 X-7.641 Y3.516
N3145 X-7.741 Y3.555
N3150 X-7.837 Y3.599
N3155 X-7.913 Y3.638
N3160 X-8.01 Y3.694
N3165 Y.334
N3170 G03 X-7.981 Y.264 I.1 J0
N3175 G01 X-7.613 Y-.104
N3180 G00 Z3.
N3185 Z25.
N3190 G90 G54 X-1.921 Y6.062
N3195 Z3.
N3200 G01 Z-.88 F750.
N3205 X-1.874 Y6.068 F600.
N3210 X-1.666 Y6.093
N3215 X-1.459 Y6.115
N3220 X-1.251 Y6.134
N3225 X-1.042 Y6.151
N3230 X-.834 Y6.164
N3235 X-.626 Y6.174
N3240 X-.417 Y6.181
N3245 X-.209 Y6.186
N3250 X0 Y6.187
N3255 X.209 Y6.186
N3260 X.417 Y6.181
N3265 X.626 Y6.174
N3270 X.834 Y6.164
N3275 X1.042 Y6.151
N3280 X1.251 Y6.134
N3285 X1.459 Y6.115
N3290 X1.666 Y6.093
N3295 X1.874 Y6.068
N3300 X2.081 Y6.041
N3305 X2.288 Y6.01
N3310 X2.494 Y5.976
N3315 X2.7 Y5.939
N3320 X2.906 Y5.9
N3325 X3.111 Y5.857
N3330 X3.316 Y5.812
N3335 X3.52 Y5.763
N3340 X3.724 Y5.712
N3345 X3.927 Y5.657
N3350 X4.129 Y5.6
N3355 X4.331 Y5.54
N3360 X4.532 Y5.477
N3365 X4.733 Y5.411
N3370 X4.932 Y5.342
N3375 X4.948 Y5.336
N3380 X4.968 Y5.327
N3385 X4.971 Y5.305
N3390 X4.977 Y5.205
N3395 X4.991 Y5.085
N3400 X5.006 Y5.001
N3405 X5.03 Y4.897
N3410 X5.059 Y4.793
N3415 X5.094 Y4.692
N3420 X5.134 Y4.593
N3425 X5.179 Y4.496
N3430 X5.229 Y4.402
N3435 X5.284 Y4.31
N3440 X5.344 Y4.222
N3445 X5.409 Y4.137
N3450 X5.478 Y4.056
N3455 X5.551 Y3.978
N3460 X5.629 Y3.904
N3465 X5.711 Y3.834
N3470 X5.797 Y3.768
N3475 X5.887 Y3.707
N3480 X5.98 Y3.651
N3485 X6.078 Y3.599
N3490 X6.19 Y3.547
N3495 X6.302 Y3.504
N3500 X6.383 Y3.477
N3505 X6.486 Y3.448
N3510 X6.591 Y3.425
N3515 X6.697 Y3.408
N3520 X6.803 Y3.396
N3525 X6.91 Y3.39
N3530 X7.017
N3535 X7.123 Y3.395
N3540 X7.229 Y3.406
N3545 X7.334 Y3.423
N3550 X7.439 Y3.445
N3555 X7.542 Y3.473
N3560 X7.644 Y3.507
N3565 X7.744 Y3.546
N3570 X7.843 Y3.591
N3575 X7.939 Y3.641
N3580 X8. Y3.677
N3585 Y-2.933
N3590 X8.002 Y-3.012
N3595 X8.007 Y-3.096
N3600 X8.015 Y-3.18
N3605 X8.02 Y-3.212
N3610 X8.022 Y-3.232
N3615 X8.004 Y-3.234
N3620 X7.914 Y-3.243
N3625 X7.81 Y-3.261
N3630 X7.737 Y-3.277
N3635 X7.668 Y-3.295
N3640 X7.599 Y-3.317
N3645 X7.532 Y-3.341
N3650 X7.466 Y-3.368
N3655 X7.401 Y-3.397
N3660 X7.338 Y-3.43
N3665 X7.276 Y-3.465
N3670 X7.215 Y-3.502
N3675 X7.156 Y-3.542
N3680 X7.099 Y-3.585
N3685 X7.043 Y-3.63
N3690 X6.989 Y-3.678
N3695 X6.937 Y-3.727
N3700 X6.888 Y-3.78
N3705 X6.84 Y-3.834
N3710 X6.793 Y-3.893
N3715 X6.73 Y-3.979
N3720 X6.674 Y-4.068
N3725 X6.638 Y-4.133
N3730 X6.606 Y-4.197
N3735 X6.576 Y-4.263
N3740 X6.55 Y-4.329
N3745 X6.526 Y-4.396
N3750 X6.505 Y-4.465
N3755 X6.487 Y-4.533
N3760 X6.472 Y-4.603
N3765 X6.46 Y-4.673
N3770 X6.451 Y-4.744
N3775 X6.445 Y-4.815
N3780 X6.441 Y-4.887
N3785 Y-4.958
N3790 X6.444 Y-5.03
N3795 X6.45 Y-5.102
N3800 X6.459 Y-5.174
N3805 X6.468 Y-5.229
N3810 X6.47 Y-5.245
N3815 X6.453 Y-5.244
N3820 X6.399 Y-5.24
N3825 X6.291 Y-5.233
N3830 X6.183 Y-5.229
N3835 X6.074 Y-5.227
N3840 X5.966 Y-5.228
N3845 X5.858 Y-5.23
N3850 X5.75 Y-5.235
N3855 X5.643 Y-5.243
N3860 X5.535 Y-5.253
N3865 X5.428 Y-5.265
N3870 X5.321 Y-5.279
N3875 X5.214 Y-5.296
N3880 X5.107 Y-5.315
N3885 X5.001 Y-5.336
N3890 X4.895 Y-5.36
N3895 X4.79 Y-5.386
N3900 X4.685 Y-5.414
N3905 X4.581 Y-5.445
N3910 X4.477 Y-5.478
N3915 X4.372 Y-5.514
N3920 X4.196 Y-5.58
N3925 X4.063 Y-5.635
N3930 X3.962 Y-5.679
N3935 X3.817 Y-5.749
N3940 X3.685 Y-5.817
N3945 X3.641 Y-5.838
N3950 X3.61 Y-5.85
N3955 X3.578 Y-5.859
N3960 X3.545 Y-5.866
N3965 X3.512 Y-5.87
N3970 X3.479 Y-5.871
N3975 X3.446 Y-5.869
N3980 X3.413 Y-5.865
N3985 X3.38 Y-5.857
N3990 X3.335 Y-5.844
N3995 X3.196 Y-5.795
N4000 X3.043 Y-5.746
N4005 X2.89 Y-5.699
N4010 X2.736 Y-5.656
N4015 X2.581 Y-5.615
N4020 X2.426 Y-5.578
N4025 X2.27 Y-5.544
N4030 X2.114 Y-5.513
N4035 X1.958 Y-5.485
N4040 X1.801 Y-5.461
N4045 X1.644 Y-5.439
N4050 X1.486 Y-5.42
N4055 X1.329 Y-5.405
N4060 X1.171 Y-5.393
N4065 X1.013 Y-5.383
N4070 X.855 Y-5.377
N4075 X.697 Y-5.374
N4080 X.539
N4085 X.381 Y-5.377
N4090 X.223 Y-5.383
N4095 X.065 Y-5.392
N4100 X-.092 Y-5.405
N4105 X-.249 Y-5.42
N4110 X-.406 Y-5.438
N4115 X-.563 Y-5.46
N4120 X-.719 Y-5.485
N4125 X-.875 Y-5.512
N4130 X-1.03 Y-5.543
N4135 X-1.185 Y-5.577
N4140 X-1.34 Y-5.613
N4145 X-1.493 Y-5.653
N4150 X-1.646 Y-5.696
N4155 X-1.798 Y-5.742
N4160 X-1.933 Y-5.785
N4165 X-2.161 Y-5.865
N4170 X-2.333 Y-5.93
N4175 X-2.463 Y-5.982
N4180 X-2.653 Y-6.063
N4185 X-2.83 Y-6.144
N4190 X-2.869 Y-6.161
N4195 X-2.897 Y-6.17
N4200 X-2.924 Y-6.177
N4205 X-2.952 Y-6.183
N4210 X-2.98 Y-6.186
N4215 X-3.008 Y-6.187
N4220 X-3.036 Y-6.186
N4225 X-3.064 Y-6.184
N4230 X-3.092 Y-6.179
N4235 X-3.119 Y-6.173
N4240 X-3.146 Y-6.164
N4245 X-3.172 Y-6.154
N4250 X-3.197 Y-6.142
N4255 X-3.221 Y-6.128
N4260 X-3.245 Y-6.113
N4265 X-3.267 Y-6.095
N4270 X-3.29 Y-6.075
N4275 X-3.301 Y-6.064
N4280 X-3.325 Y-6.037
N4285 X-3.354 Y-5.997
N4290 X-3.417 Y-5.907
N4295 X-3.492 Y-5.808
N4300 X-3.572 Y-5.713
N4305 X-3.656 Y-5.622
N4310 X-3.743 Y-5.534
N4315 X-3.834 Y-5.451
N4320 X-3.928 Y-5.371
N4325 X-4.025 Y-5.296
N4330 X-4.125 Y-5.225
N4335 X-4.228 Y-5.158
N4340 X-4.333 Y-5.095
N4345 X-4.442 Y-5.037
N4350 X-4.552 Y-4.984
N4355 X-4.665 Y-4.936
N4360 X-4.781 Y-4.892
N4365 X-4.898 Y-4.853
N4370 X-5.016 Y-4.819
N4375 X-5.109 Y-4.796
N4380 X-5.229 Y-4.772
N4385 X-5.245 Y-4.768
N4390 X-5.246 Y-4.754
N4395 X-5.256 Y-4.626
N4400 X-5.274 Y-4.488
N4405 X-5.291 Y-4.392
N4410 X-5.316 Y-4.269
N4415 X-5.357 Y-4.115
N4420 X-5.386 Y-4.022
N4425 X-5.421 Y-3.921
N4430 X-5.459 Y-3.822
N4435 X-5.502 Y-3.725
N4440 X-5.547 Y-3.63
N4445 X-5.596 Y-3.537
N4450 X-5.648 Y-3.446
N4455 X-5.703 Y-3.356
N4460 X-5.762 Y-3.27
N4465 X-5.823 Y-3.185
N4470 X-5.887 Y-3.103
N4475 X-5.955 Y-3.023
N4480 X-6.024 Y-2.946
N4485 X-6.097 Y-2.871
N4490 X-6.172 Y-2.799
N4495 X-6.25 Y-2.73
N4500 X-6.33 Y-2.663
N4505 X-6.413 Y-2.599
N4510 X-6.498 Y-2.538
N4515 X-6.585 Y-2.481
N4520 X-6.674 Y-2.426
N4525 X-6.766 Y-2.374
N4530 X-6.86 Y-2.326
N4535 X-6.955 Y-2.281
N4540 X-7.053 Y-2.24
N4545 X-7.152 Y-2.202
N4550 X-7.253 Y-2.167
N4555 X-7.355 Y-2.136
N4560 X-7.459 Y-2.109
N4565 X-7.565 Y-2.086
N4570 X-7.672 Y-2.066
N4575 X-7.78 Y-2.051
N4580 X-7.89 Y-2.039
N4585 X-7.981 Y-2.033
N4590 X-8. Y-2.031
N4595 Y-2.022
N4600 Y3.677
N4605 X-7.918 Y3.629
N4610 X-7.841 Y3.59
N4615 X-7.744 Y3.546
N4620 X-7.644 Y3.507
N4625 X-7.542 Y3.473
N4630 X-7.439 Y3.445
N4635 X-7.334 Y3.423
N4640 X-7.229 Y3.406
N4645 X-7.123 Y3.395
N4650 X-7.017 Y3.39
N4655 X-6.91
N4660 X-6.803 Y3.396
N4665 X-6.697 Y3.408
N4670 X-6.591 Y3.425
N4675 X-6.486 Y3.448
N4680 X-6.382 Y3.477
N4685 X-6.279 Y3.512
N4690 X-6.177 Y3.553
N4695 X-6.076 Y3.599
N4700 X-5.968 Y3.657
N4705 X-5.866 Y3.721
N4710 X-5.795 Y3.769
N4715 X-5.711 Y3.834
N4720 X-5.629 Y3.904
N4725 X-5.551 Y3.978
N4730 X-5.478 Y4.056
N4735 X-5.409 Y4.137
N4740 X-5.344 Y4.222
N4745 X-5.284 Y4.31
N4750 X-5.229 Y4.402
N4755 X-5.179 Y4.496
N4760 X-5.134 Y4.593
N4765 X-5.094 Y4.692
N4770 X-5.059 Y4.793
N4775 X-5.03 Y4.897
N4780 X-5.006 Y5.003
N4785 X-4.988 Y5.11
N4790 X-4.976 Y5.218
N4795 X-4.97 Y5.306
N4800 X-4.968 Y5.327
N4805 X-4.948 Y5.336
N4810 X-4.932 Y5.342
N4815 X-4.733 Y5.411
N4820 X-4.532 Y5.477
N4825 X-4.331 Y5.54
N4830 X-4.129 Y5.6
N4835 X-3.927 Y5.657
N4840 X-3.724 Y5.712
N4845 X-3.52 Y5.763
N4850 X-3.316 Y5.812
N4855 X-3.111 Y5.857
N4860 X-2.906 Y5.9
N4865 X-2.7 Y5.939
N4870 X-2.494 Y5.976
N4875 X-2.288 Y6.01
N4880 X-2.081 Y6.041
N4885 X-1.921 Y6.062
N4890 X-1.855 Y5.566
N4895 X-1.811 Y5.572
N4900 X-1.61 Y5.597
N4905 X-1.409 Y5.618
N4910 X-1.208 Y5.636
N4915 X-1.007 Y5.652
N4920 X-.806 Y5.665
N4925 X-.605 Y5.675
N4930 X-.403 Y5.682
N4935 X-.202 Y5.686
N4940 X0 Y5.687
N4945 X.202 Y5.686
N4950 X.403 Y5.682
N4955 X.605 Y5.675
N4960 X.806 Y5.665
N4965 X1.007 Y5.652
N4970 X1.208 Y5.636
N4975 X1.409 Y5.618
N4980 X1.61 Y5.597
N4985 X1.811 Y5.572
N4990 X2.011 Y5.545
N4995 X2.211 Y5.516
N5000 X2.41 Y5.483
N5005 X2.609 Y5.448
N5010 X2.808 Y5.409
N5015 X3.006 Y5.368
N5020 X3.204 Y5.324
N5025 X3.401 Y5.277
N5030 X3.598 Y5.228
N5035 X3.794 Y5.175
N5040 X3.99 Y5.12
N5045 X4.185 Y5.062
N5050 X4.379 Y5.001
N5055 X4.506 Y4.959
N5060 X4.516 Y4.902
N5065 X4.545 Y4.774
N5070 X4.582 Y4.644
N5075 X4.625 Y4.517
N5080 X4.675 Y4.393
N5085 X4.732 Y4.272
N5090 X4.794 Y4.155
N5095 X4.863 Y4.041
N5100 X4.938 Y3.93
N5105 X5.019 Y3.824
N5110 X5.105 Y3.722
N5115 X5.197 Y3.625
N5120 X5.294 Y3.533
N5125 X5.396 Y3.445
N5130 X5.504 Y3.363
N5135 X5.616 Y3.286
N5140 X5.733 Y3.216
N5145 X5.856 Y3.15
N5150 X5.995 Y3.086
N5155 X6.133 Y3.033
N5160 X6.238 Y2.998
N5165 X6.365 Y2.963
N5170 X6.497 Y2.934
N5175 X6.629 Y2.912
N5180 X6.762 Y2.898
N5185 X6.895 Y2.89
N5190 X7.029
N5195 X7.162 Y2.897
N5200 X7.294 Y2.911
N5205 X7.426 Y2.931
N5210 X7.5 Y2.947
N5215 Y-2.824
N5220 X7.44 Y-2.843
N5225 X7.353 Y-2.874
N5230 X7.267 Y-2.909
N5235 X7.184 Y-2.947
N5240 X7.101 Y-2.989
N5245 X7.021 Y-3.034
N5250 X6.943 Y-3.083
N5255 X6.866 Y-3.135
N5260 X6.792 Y-3.19
N5265 X6.72 Y-3.248
N5270 X6.651 Y-3.31
N5275 X6.583 Y-3.374
N5280 X6.519 Y-3.442
N5285 X6.457 Y-3.512
N5290 X6.395 Y-3.589
N5295 X6.316 Y-3.699
N5300 X6.244 Y-3.814
N5305 X6.196 Y-3.9
N5310 X6.154 Y-3.983
N5315 X6.116 Y-4.067
N5320 X6.082 Y-4.153
N5325 X6.051 Y-4.24
N5330 X6.024 Y-4.328
N5335 X6.001 Y-4.417
N5340 X5.981 Y-4.507
N5345 X5.966 Y-4.598
N5350 X5.954 Y-4.69
N5355 X5.95 Y-4.728
N5360 X5.84 Y-4.731
N5365 X5.721 Y-4.736
N5370 X5.603 Y-4.744
N5375 X5.485 Y-4.755
N5380 X5.366 Y-4.768
N5385 X5.249 Y-4.784
N5390 X5.131 Y-4.803
N5395 X5.014 Y-4.824
N5400 X4.897 Y-4.847
N5405 X4.781 Y-4.873
N5410 X4.665 Y-4.902
N5415 X4.55 Y-4.933
N5420 X4.435 Y-4.967
N5425 X4.321 Y-5.003
N5430 X4.203 Y-5.043
N5435 X4.013 Y-5.114
N5440 X3.866 Y-5.175
N5445 X3.753 Y-5.225
N5450 X3.594 Y-5.301
N5455 X3.475 Y-5.363
N5460 X3.355 Y-5.321
N5465 X3.193 Y-5.268
N5470 X3.03 Y-5.219
N5475 X2.867 Y-5.173
N5480 X2.702 Y-5.13
N5485 X2.538 Y-5.091
N5490 X2.372 Y-5.055
N5495 X2.207 Y-5.022
N5500 X2.041 Y-4.992
N5505 X1.874 Y-4.966
N5510 X1.707 Y-4.943
N5515 X1.54 Y-4.923
N5520 X1.373 Y-4.907
N5525 X1.205 Y-4.894
N5530 X1.037 Y-4.884
N5535 X.87 Y-4.877
N5540 X.702 Y-4.874
N5545 X.534
N5550 X.366 Y-4.877
N5555 X.199 Y-4.884
N5560 X.031 Y-4.894
N5565 X-.136 Y-4.907
N5570 X-.303 Y-4.923
N5575 X-.469 Y-4.942
N5580 X-.636 Y-4.965
N5585 X-.802 Y-4.991
N5590 X-.967 Y-5.021
N5595 X-1.132 Y-5.053
N5600 X-1.297 Y-5.089
N5605 X-1.46 Y-5.128
N5610 X-1.624 Y-5.171
N5615 X-1.786 Y-5.216
N5620 X-1.947 Y-5.265
N5625 X-2.092 Y-5.311
N5630 X-2.332 Y-5.395
N5635 X-2.515 Y-5.464
N5640 X-2.654 Y-5.52
N5645 X-2.854 Y-5.605
N5650 X-2.978 Y-5.662
N5655 X-3.013 Y-5.611
N5660 X-3.102 Y-5.495
N5665 X-3.196 Y-5.384
N5670 X-3.294 Y-5.277
N5675 X-3.396 Y-5.174
N5680 X-3.502 Y-5.076
N5685 X-3.613 Y-4.983
N5690 X-3.726 Y-4.894
N5695 X-3.844 Y-4.811
N5700 X-3.964 Y-4.733
N5705 X-4.088 Y-4.659
N5710 X-4.215 Y-4.592
N5715 X-4.345 Y-4.529
N5720 X-4.478 Y-4.472
N5725 X-4.613 Y-4.421
N5730 X-4.75 Y-4.375
N5735 X-4.788 Y-4.364
N5740 X-4.799 Y-4.298
N5745 X-4.829 Y-4.155
N5750 X-4.876 Y-3.977
N5755 X-4.911 Y-3.865
N5760 X-4.952 Y-3.748
N5765 X-4.997 Y-3.632
N5770 X-5.047 Y-3.518
N5775 X-5.1 Y-3.406
N5780 X-5.157 Y-3.297
N5785 X-5.219 Y-3.19
N5790 X-5.283 Y-3.085
N5795 X-5.352 Y-2.983
N5800 X-5.424 Y-2.884
N5805 X-5.499 Y-2.788
N5810 X-5.578 Y-2.694
N5815 X-5.659 Y-2.604
N5820 X-5.744 Y-2.516
N5825 X-5.833 Y-2.432
N5830 X-5.924 Y-2.35
N5835 X-6.018 Y-2.272
N5840 X-6.115 Y-2.198
N5845 X-6.214 Y-2.127
N5850 X-6.316 Y-2.059
N5855 X-6.421 Y-1.995
N5860 X-6.529 Y-1.934
N5865 X-6.638 Y-1.878
N5870 X-6.75 Y-1.825
N5875 X-6.865 Y-1.776
N5880 X-6.981 Y-1.732
N5885 X-7.1 Y-1.691
N5890 X-7.22 Y-1.655
N5895 X-7.342 Y-1.623
N5900 X-7.466 Y-1.595
N5905 X-7.5 Y-1.589
N5910 Y2.947
N5915 X-7.426 Y2.931
N5920 X-7.294 Y2.911
N5925 X-7.162 Y2.897
N5930 X-7.029 Y2.89
N5935 X-6.895
N5940 X-6.762 Y2.898
N5945 X-6.629 Y2.912
N5950 X-6.497 Y2.934
N5955 X-6.365 Y2.963
N5960 X-6.235 Y2.999
N5965 X-6.106 Y3.043
N5970 X-5.979 Y3.093
N5975 X-5.853 Y3.152
N5980 X-5.718 Y3.224
N5985 X-5.592 Y3.302
N5990 X-5.501 Y3.365
N5995 X-5.396 Y3.445
N6000 X-5.294 Y3.533
N6005 X-5.197 Y3.625
N6010 X-5.105 Y3.722
N6015 X-5.019 Y3.824
N6020 X-4.938 Y3.93
N6025 X-4.863 Y4.041
N6030 X-4.794 Y4.155
N6035 X-4.732 Y4.272
N6040 X-4.675 Y4.393
N6045 X-4.625 Y4.517
N6050 X-4.582 Y4.644
N6055 X-4.545 Y4.774
N6060 X-4.515 Y4.906
N6065 X-4.506 Y4.959
N6070 X-4.379 Y5.001
N6075 X-4.185 Y5.062
N6080 X-3.99 Y5.12
N6085 X-3.794 Y5.175
N6090 X-3.598 Y5.228
N6095 X-3.401 Y5.277
N6100 X-3.204 Y5.324
N6105 X-3.006 Y5.368
N6110 X-2.808 Y5.409
N6115 X-2.609 Y5.448
N6120 X-2.41 Y5.483
N6125 X-2.211 Y5.516
N6130 X-2.011 Y5.545
N6135 X-1.855 Y5.566
N6140 X-1.788 Y5.071
N6145 X-1.747 Y5.076
N6150 X-1.554 Y5.1
N6155 X-1.36 Y5.12
N6160 X-1.166 Y5.138
N6165 X-.972 Y5.153
N6170 X-.778 Y5.165
N6175 X-.584 Y5.175
N6180 X-.389 Y5.182
N6185 X-.195 Y5.186
N6190 X0 Y5.187
N6195 X.195 Y5.186
N6200 X.389 Y5.182
N6205 X.584 Y5.175
N6210 X.778 Y5.165
N6215 X.972 Y5.153
N6220 X1.166 Y5.138
N6225 X1.36 Y5.12
N6230 X1.554 Y5.1
N6235 X1.747 Y5.076
N6240 X1.94 Y5.05
N6245 X2.133 Y5.022
N6250 X2.326 Y4.99
N6255 X2.518 Y4.956
N6260 X2.71 Y4.919
N6265 X2.901 Y4.879
N6270 X3.092 Y4.837
N6275 X3.282 Y4.792
N6280 X3.472 Y4.744
N6285 X3.662 Y4.693
N6290 X3.85 Y4.64
N6295 X4.039 Y4.584
N6300 X4.083 Y4.57
N6305 X4.104 Y4.495
N6310 X4.156 Y4.343
N6315 X4.216 Y4.194
N6320 X4.284 Y4.049
N6325 X4.359 Y3.908
N6330 X4.442 Y3.771
N6335 X4.532 Y3.638
N6340 X4.629 Y3.511
N6345 X4.732 Y3.389
N6350 X4.842 Y3.272
N6355 X4.959 Y3.161
N6360 X5.082 Y3.056
N6365 X5.211 Y2.958
N6370 X5.346 Y2.866
N6375 X5.486 Y2.781
N6380 X5.634 Y2.702
N6385 X5.8 Y2.626
N6390 X5.965 Y2.562
N6395 X6.093 Y2.52
N6400 X6.244 Y2.478
N6405 X6.402 Y2.443
N6410 X6.561 Y2.417
N6415 X6.721 Y2.399
N6420 X6.881 Y2.39
N6425 X7.
N6430 Y-2.481
N6435 X6.966 Y-2.497
N6440 X6.865 Y-2.548
N6445 X6.767 Y-2.604
N6450 X6.67 Y-2.664
N6455 X6.577 Y-2.727
N6460 X6.485 Y-2.795
N6465 X6.397 Y-2.866
N6470 X6.312 Y-2.942
N6475 X6.229 Y-3.021
N6480 X6.15 Y-3.104
N6485 X6.074 Y-3.19
N6490 X5.997 Y-3.286
N6495 X5.901 Y-3.42
N6500 X5.813 Y-3.559
N6505 X5.754 Y-3.666
N6510 X5.703 Y-3.768
N6515 X5.656 Y-3.871
N6520 X5.614 Y-3.977
N6525 X5.576 Y-4.083
N6530 X5.543 Y-4.192
N6535 X5.528 Y-4.249
N6540 X5.434 Y-4.258
N6545 X5.305 Y-4.272
N6550 X5.177 Y-4.289
N6555 X5.048 Y-4.31
N6560 X4.921 Y-4.332
N6565 X4.793 Y-4.358
N6570 X4.666 Y-4.386
N6575 X4.54 Y-4.418
N6580 X4.414 Y-4.452
N6585 X4.289 Y-4.488
N6590 X4.164 Y-4.528
N6595 X4.035 Y-4.572
N6600 X3.829 Y-4.649
N6605 X3.669 Y-4.715
N6610 X3.544 Y-4.771
N6615 X3.437 Y-4.822
N6620 X3.343 Y-4.791
N6625 X3.17 Y-4.739
N6630 X2.997 Y-4.69
N6635 X2.824 Y-4.645
N6640 X2.649 Y-4.603
N6645 X2.474 Y-4.565
N6650 X2.299 Y-4.53
N6655 X2.123 Y-4.499
N6660 X1.947 Y-4.471
N6665 X1.771 Y-4.447
N6670 X1.594 Y-4.426
N6675 X1.417 Y-4.409
N6680 X1.239 Y-4.395
N6685 X1.062 Y-4.384
N6690 X.884 Y-4.377
N6695 X.707 Y-4.374
N6700 X.529
N6705 X.352 Y-4.377
N6710 X.175 Y-4.384
N6715 X-.003 Y-4.395
N6720 X-.18 Y-4.408
N6725 X-.356 Y-4.426
N6730 X-.533 Y-4.446
N6735 X-.709 Y-4.471
N6740 X-.884 Y-4.498
N6745 X-1.059 Y-4.529
N6750 X-1.234 Y-4.564
N6755 X-1.408 Y-4.602
N6760 X-1.581 Y-4.643
N6765 X-1.754 Y-4.688
N6770 X-1.926 Y-4.736
N6775 X-2.096 Y-4.787
N6780 X-2.251 Y-4.837
N6785 X-2.503 Y-4.925
N6790 X-2.696 Y-4.998
N6795 X-2.826 Y-5.048
N6800 X-2.932 Y-4.931
N6805 X-3.049 Y-4.814
N6810 X-3.171 Y-4.701
N6815 X-3.298 Y-4.594
N6820 X-3.428 Y-4.493
N6825 X-3.563 Y-4.397
N6830 X-3.701 Y-4.307
N6835 X-3.843 Y-4.223
N6840 X-3.989 Y-4.146
N6845 X-4.138 Y-4.074
N6850 X-4.29 Y-4.008
N6855 X-4.358 Y-3.983
N6860 X-4.395 Y-3.839
N6865 X-4.436 Y-3.708
N6870 X-4.483 Y-3.574
N6875 X-4.535 Y-3.441
N6880 X-4.592 Y-3.31
N6885 X-4.653 Y-3.182
N6890 X-4.719 Y-3.056
N6895 X-4.789 Y-2.934
N6900 X-4.863 Y-2.814
N6905 X-4.942 Y-2.697
N6910 X-5.024 Y-2.583
N6915 X-5.11 Y-2.473
N6920 X-5.201 Y-2.366
N6925 X-5.295 Y-2.262
N6930 X-5.392 Y-2.161
N6935 X-5.493 Y-2.065
N6940 X-5.598 Y-1.971
N6945 X-5.705 Y-1.882
N6950 X-5.816 Y-1.796
N6955 X-5.931 Y-1.715
N6960 X-6.048 Y-1.637
N6965 X-6.168 Y-1.563
N6970 X-6.291 Y-1.494
N6975 X-6.417 Y-1.429
N6980 X-6.546 Y-1.369
N6985 X-6.677 Y-1.313
N6990 X-6.811 Y-1.261
N6995 X-6.947 Y-1.215
N7000 X-7. Y-1.199
N7005 Y2.39
N7010 X-6.881
N7015 X-6.721 Y2.399
N7020 X-6.561 Y2.417
N7025 X-6.402 Y2.443
N7030 X-6.244 Y2.478
N7035 X-6.088 Y2.521
N7040 X-5.933 Y2.573
N7045 X-5.781 Y2.634
N7050 X-5.629 Y2.704
N7055 X-5.468 Y2.791
N7060 X-5.318 Y2.884
N7065 X-5.207 Y2.961
N7070 X-5.082 Y3.056
N7075 X-4.959 Y3.161
N7080 X-4.842 Y3.272
N7085 X-4.732 Y3.389
N7090 X-4.629 Y3.511
N7095 X-4.532 Y3.638
N7100 X-4.442 Y3.771
N7105 X-4.359 Y3.908
N7110 X-4.284 Y4.049
N7115 X-4.216 Y4.194
N7120 X-4.156 Y4.343
N7125 X-4.104 Y4.495
N7130 X-4.083 Y4.57
N7135 X-4.039 Y4.584
N7140 X-3.85 Y4.64
N7145 X-3.662 Y4.693
N7150 X-3.472 Y4.744
N7155 X-3.282 Y4.792
N7160 X-3.092 Y4.837
N7165 X-2.901 Y4.879
N7170 X-2.71 Y4.919
N7175 X-2.518 Y4.956
N7180 X-2.326 Y4.99
N7185 X-2.133 Y5.022
N7190 X-1.94 Y5.05
N7195 X-1.788 Y5.071
N7200 X-1.721 Y4.575
N7205 X-1.684 Y4.58
N7210 X-1.498 Y4.603
N7215 X-1.311 Y4.623
N7220 X-1.124 Y4.64
N7225 X-.937 Y4.654
N7230 X-.75 Y4.666
N7235 X-.562 Y4.675
N7240 X-.375 Y4.682
N7245 X-.188 Y4.686
N7250 X0 Y4.687
N7255 X.188 Y4.686
N7260 X.375 Y4.682
N7265 X.562 Y4.675
N7270 X.75 Y4.666
N7275 X.937 Y4.654
N7280 X1.124 Y4.64
N7285 X1.311 Y4.623
N7290 X1.498 Y4.603
N7295 X1.684 Y4.58
N7300 X1.87 Y4.555
N7305 X2.056 Y4.528
N7310 X2.242 Y4.497
N7315 X2.427 Y4.464
N7320 X2.612 Y4.429
N7325 X2.796 Y4.39
N7330 X2.98 Y4.35
N7335 X3.164 Y4.306
N7340 X3.347 Y4.26
N7345 X3.529 Y4.211
N7350 X3.689 Y4.166
N7355 X3.691 Y4.161
N7360 X3.758 Y3.994
N7365 X3.837 Y3.825
N7370 X3.925 Y3.66
N7375 X4.021 Y3.501
N7380 X4.126 Y3.347
N7385 X4.239 Y3.198
N7390 X4.359 Y3.055
N7395 X4.488 Y2.919
N7400 X4.624 Y2.79
N7405 X4.768 Y2.667
N7410 X4.918 Y2.552
N7415 X5.075 Y2.445
N7420 X5.239 Y2.346
N7425 X5.412 Y2.254
N7430 X5.605 Y2.165
N7435 X5.796 Y2.091
N7440 X5.948 Y2.041
N7445 X6.124 Y1.992
N7450 X6.308 Y1.952
N7455 X6.49 Y1.922
N7460 X6.5 Y1.921
N7465 Y-2.181
N7470 X6.398 Y-2.244
N7475 X6.287 Y-2.32
N7480 X6.179 Y-2.4
N7485 X6.074 Y-2.485
N7490 X5.973 Y-2.574
N7495 X5.875 Y-2.668
N7500 X5.781 Y-2.766
N7505 X5.692 Y-2.868
N7510 X5.599 Y-2.983
N7515 X5.486 Y-3.14
N7520 X5.383 Y-3.304
N7525 X5.312 Y-3.432
N7530 X5.251 Y-3.553
N7535 X5.196 Y-3.675
N7540 X5.151 Y-3.789
N7545 X5.105 Y-3.795
N7550 X4.966 Y-3.816
N7555 X4.827 Y-3.841
N7560 X4.689 Y-3.869
N7565 X4.552 Y-3.9
N7570 X4.415 Y-3.933
N7575 X4.279 Y-3.97
N7580 X4.143 Y-4.01
N7585 X4.008 Y-4.053
N7590 X3.866 Y-4.101
N7595 X3.646 Y-4.184
N7600 X3.472 Y-4.256
N7605 X3.402 Y-4.287
N7610 X3.311 Y-4.259
N7615 X3.128 Y-4.208
N7620 X2.945 Y-4.16
N7625 X2.761 Y-4.116
N7630 X2.577 Y-4.076
N7635 X2.392 Y-4.039
N7640 X2.206 Y-4.006
N7645 X2.02 Y-3.977
N7650 X1.834 Y-3.951
N7655 X1.647 Y-3.929
N7660 X1.461 Y-3.911
N7665 X1.274 Y-3.896
N7670 X1.086 Y-3.885
N7675 X.899 Y-3.878
N7680 X.712 Y-3.874
N7685 X.525
N7690 X.337 Y-3.878
N7695 X.15 Y-3.885
N7700 X-.037 Y-3.896
N7705 X-.223 Y-3.91
N7710 X-.41 Y-3.929
N7715 X-.596 Y-3.95
N7720 X-.781 Y-3.976
N7725 X-.967 Y-4.005
N7730 X-1.151 Y-4.038
N7735 X-1.335 Y-4.074
N7740 X-1.519 Y-4.114
N7745 X-1.702 Y-4.158
N7750 X-1.884 Y-4.205
N7755 X-2.066 Y-4.256
N7760 X-2.245 Y-4.31
N7765 X-2.409 Y-4.363
N7770 X-2.673 Y-4.455
N7775 X-2.693 Y-4.462
N7780 X-2.702 Y-4.453
N7785 X-2.84 Y-4.326
N7790 X-2.983 Y-4.206
N7795 X-3.13 Y-4.091
N7800 X-3.282 Y-3.983
N7805 X-3.438 Y-3.882
N7810 X-3.598 Y-3.787
N7815 X-3.763 Y-3.7
N7820 X-3.931 Y-3.619
N7825 X-3.942 Y-3.614
N7830 X-3.961 Y-3.552
N7835 X-4.014 Y-3.401
N7840 X-4.073 Y-3.25
N7845 X-4.137 Y-3.103
N7850 X-4.206 Y-2.958
N7855 X-4.28 Y-2.816
N7860 X-4.359 Y-2.678
N7865 X-4.443 Y-2.543
N7870 X-4.532 Y-2.411
N7875 X-4.625 Y-2.283
N7880 X-4.722 Y-2.158
N7885 X-4.824 Y-2.037
N7890 X-4.93 Y-1.92
N7895 X-5.04 Y-1.807
N7900 X-5.153 Y-1.697
N7905 X-5.271 Y-1.592
N7910 X-5.393 Y-1.491
N7915 X-5.518 Y-1.395
N7920 X-5.647 Y-1.303
N7925 X-5.779 Y-1.215
N7930 X-5.915 Y-1.132
N7935 X-6.054 Y-1.054
N7940 X-6.196 Y-.981
N7945 X-6.341 Y-.912
N7950 X-6.489 Y-.849
N7955 X-6.5 Y-.845
N7960 Y1.921
N7965 X-6.49 Y1.922
N7970 X-6.308 Y1.952
N7975 X-6.124 Y1.992
N7980 X-5.941 Y2.043
N7985 X-5.761 Y2.104
N7990 X-5.583 Y2.175
N7995 X-5.406 Y2.257
N8000 X-5.218 Y2.358
N8005 X-5.044 Y2.465
N8010 X-4.913 Y2.556
N8015 X-4.768 Y2.667
N8020 X-4.624 Y2.79
N8025 X-4.488 Y2.919
N8030 X-4.359 Y3.055
N8035 X-4.239 Y3.198
N8040 X-4.126 Y3.347
N8045 X-4.021 Y3.501
N8050 X-3.925 Y3.66
N8055 X-3.837 Y3.825
N8060 X-3.758 Y3.994
N8065 X-3.691 Y4.161
N8070 X-3.689 Y4.166
N8075 X-3.529 Y4.211
N8080 X-3.347 Y4.26
N8085 X-3.164 Y4.306
N8090 X-2.98 Y4.35
N8095 X-2.796 Y4.39
N8100 X-2.612 Y4.429
N8105 X-2.427 Y4.464
N8110 X-2.242 Y4.497
N8115 X-2.056 Y4.528
N8120 X-1.87 Y4.555
N8125 X-1.721 Y4.575
N8130 X-1.655 Y4.08
N8135 X-1.621 Y4.084
N8140 X-1.441 Y4.106
N8145 X-1.262 Y4.125
N8150 X-1.082 Y4.142
N8155 X-.902 Y4.156
N8160 X-.722 Y4.167
N8165 X-.541 Y4.176
N8170 X-.361 Y4.182
N8175 X-.18 Y4.186
N8180 X0 Y4.187
N8185 X.18 Y4.186
N8190 X.361 Y4.182
N8195 X.541 Y4.176
N8200 X.722 Y4.167
N8205 X.902 Y4.156
N8210 X1.082 Y4.142
N8215 X1.262 Y4.125
N8220 X1.441 Y4.106
N8225 X1.621 Y4.084
N8230 X1.8 Y4.06
N8235 X1.979 Y4.034
N8240 X2.158 Y4.004
N8245 X2.336 Y3.973
N8250 X2.514 Y3.938
N8255 X2.691 Y3.902
N8260 X2.868 Y3.862
N8265 X3.045 Y3.82
N8270 X3.221 Y3.776
N8275 X3.32 Y3.749
N8280 X3.389 Y3.602
N8285 X3.49 Y3.413
N8290 X3.6 Y3.231
N8295 X3.72 Y3.055
N8300 X3.849 Y2.885
N8305 X3.987 Y2.722
N8310 X4.134 Y2.566
N8315 X4.289 Y2.418
N8320 X4.453 Y2.278
N8325 X4.625 Y2.147
N8330 X4.805 Y2.024
N8335 X4.992 Y1.911
N8340 X5.19 Y1.806
N8345 X5.41 Y1.704
N8350 X5.627 Y1.62
N8355 X5.802 Y1.563
N8360 X5.995 Y1.509
N8365 X6. Y1.508
N8370 Y-1.91
N8375 X5.994 Y-1.914
N8380 X5.872 Y-2.005
N8385 X5.751 Y-2.103
N8390 X5.634 Y-2.206
N8395 X5.521 Y-2.315
N8400 X5.413 Y-2.428
N8405 X5.309 Y-2.546
N8410 X5.201 Y-2.68
N8415 X5.071 Y-2.861
N8420 X4.952 Y-3.05
N8425 X4.87 Y-3.198
N8430 X4.802 Y-3.333
N8435 X4.8 Y-3.338
N8440 X4.734 Y-3.35
N8445 X4.585 Y-3.38
N8450 X4.437 Y-3.413
N8455 X4.29 Y-3.449
N8460 X4.143 Y-3.489
N8465 X3.997 Y-3.532
N8470 X3.852 Y-3.578
N8475 X3.698 Y-3.63
N8480 X3.462 Y-3.719
N8485 X3.371 Y-3.757
N8490 X3.259 Y-3.725
N8495 X3.066 Y-3.675
N8500 X2.873 Y-3.629
N8505 X2.679 Y-3.586
N8510 X2.484 Y-3.548
N8515 X2.289 Y-3.513
N8520 X2.093 Y-3.482
N8525 X1.897 Y-3.455
N8530 X1.701 Y-3.432
N8535 X1.504 Y-3.413
N8540 X1.308 Y-3.397
N8545 X1.111 Y-3.386
N8550 X.914 Y-3.378
N8555 X.717 Y-3.374
N8560 X.52
N8565 X.323 Y-3.378
N8570 X.126 Y-3.385
N8575 X-.071 Y-3.397
N8580 X-.267 Y-3.412
N8585 X-.463 Y-3.431
N8590 X-.659 Y-3.454
N8595 X-.854 Y-3.481
N8600 X-1.049 Y-3.512
N8605 X-1.243 Y-3.546
N8610 X-1.437 Y-3.585
N8615 X-1.63 Y-3.627
N8620 X-1.823 Y-3.673
N8625 X-2.014 Y-3.722
N8630 X-2.205 Y-3.776
N8635 X-2.394 Y-3.833
N8640 X-2.568 Y-3.889
N8645 X-2.579 Y-3.892
N8650 X-2.668 Y-3.817
N8655 X-2.832 Y-3.69
N8660 X-3.001 Y-3.57
N8665 X-3.175 Y-3.457
N8670 X-3.353 Y-3.351
N8675 X-3.535 Y-3.254
N8680 X-3.545 Y-3.227
N8685 X-3.61 Y-3.06
N8690 X-3.682 Y-2.895
N8695 X-3.759 Y-2.734
N8700 X-3.842 Y-2.576
N8705 X-3.93 Y-2.422
N8710 X-4.023 Y-2.271
N8715 X-4.122 Y-2.125
N8720 X-4.225 Y-1.982
N8725 X-4.334 Y-1.843
N8730 X-4.447 Y-1.708
N8735 X-4.565 Y-1.578
N8740 X-4.687 Y-1.452
N8745 X-4.814 Y-1.33
N8750 X-4.945 Y-1.213
N8755 X-5.081 Y-1.101
N8760 X-5.22 Y-.993
N8765 X-5.364 Y-.891
N8770 X-5.511 Y-.793
N8775 X-5.662 Y-.701
N8780 X-5.817 Y-.614
N8785 X-5.975 Y-.532
N8790 X-6. Y-.52
N8795 Y1.508
N8800 X-5.995 Y1.509
N8805 X-5.794 Y1.565
N8810 X-5.588 Y1.634
N8815 X-5.385 Y1.715
N8820 X-5.182 Y1.81
N8825 X-4.968 Y1.924
N8830 X-4.77 Y2.047
N8835 X-4.618 Y2.152
N8840 X-4.453 Y2.278
N8845 X-4.289 Y2.418
N8850 X-4.134 Y2.566
N8855 X-3.987 Y2.722
N8860 X-3.849 Y2.885
N8865 X-3.72 Y3.055
N8870 X-3.6 Y3.231
N8875 X-3.49 Y3.413
N8880 X-3.389 Y3.602
N8885 X-3.32 Y3.749
N8890 X-3.221 Y3.776
N8895 X-3.045 Y3.82
N8900 X-2.868 Y3.862
N8905 X-2.691 Y3.902
N8910 X-2.514 Y3.938
N8915 X-2.336 Y3.973
N8920 X-2.158 Y4.004
N8925 X-1.979 Y4.034
N8930 X-1.8 Y4.06
N8935 X-1.655 Y4.08
N8940 X-1.588 Y3.584
N8945 X-1.558 Y3.588
N8950 X-1.385 Y3.609
N8955 X-1.213 Y3.627
N8960 X-1.04 Y3.643
N8965 X-.867 Y3.657
N8970 X-.694 Y3.668
N8975 X-.52 Y3.676
N8980 X-.347 Y3.682
N8985 X-.173 Y3.686
N8990 X0 Y3.687
N8995 X.173 Y3.686
N9000 X.347 Y3.682
N9005 X.52 Y3.676
N9010 X.694 Y3.668
N9015 X.867 Y3.657
N9020 X1.04 Y3.643
N9025 X1.213 Y3.627
N9030 X1.385 Y3.609
N9035 X1.558 Y3.588
N9040 X1.73 Y3.565
N9045 X1.902 Y3.54
N9050 X2.073 Y3.512
N9055 X2.245 Y3.481
N9060 X2.416 Y3.448
N9065 X2.586 Y3.413
N9070 X2.756 Y3.375
N9075 X2.926 Y3.335
N9080 X2.971 Y3.323
N9085 X3.055 Y3.166
N9090 X3.179 Y2.961
N9095 X3.313 Y2.763
N9100 X3.458 Y2.572
N9105 X3.614 Y2.388
N9110 X3.779 Y2.213
N9115 X3.954 Y2.047
N9120 X4.139 Y1.889
N9125 X4.332 Y1.741
N9130 X4.534 Y1.603
N9135 X4.745 Y1.476
N9140 X4.967 Y1.358
N9145 X5.215 Y1.244
N9150 X5.459 Y1.149
N9155 X5.5 Y1.136
N9160 Y-1.663
N9165 X5.428 Y-1.721
N9170 X5.295 Y-1.838
N9175 X5.167 Y-1.961
N9180 X5.044 Y-2.09
N9185 X4.926 Y-2.225
N9190 X4.804 Y-2.377
N9195 X4.656 Y-2.582
N9200 X4.522 Y-2.795
N9205 X4.467 Y-2.894
N9210 X4.323 Y-2.926
N9215 X4.165 Y-2.965
N9220 X4.008 Y-3.008
N9225 X3.851 Y-3.053
N9230 X3.695 Y-3.103
N9235 X3.529 Y-3.16
N9240 X3.342 Y-3.23
N9245 X3.187 Y-3.19
N9250 X2.984 Y-3.141
N9255 X2.781 Y-3.097
N9260 X2.576 Y-3.056
N9265 X2.372 Y-3.02
N9270 X2.166 Y-2.987
N9275 X1.961 Y-2.959
N9280 X1.755 Y-2.935
N9285 X1.548 Y-2.914
N9290 X1.342 Y-2.898
N9295 X1.135 Y-2.886
N9300 X.928 Y-2.878
N9305 X.722 Y-2.874
N9310 X.515
N9315 X.308 Y-2.878
N9320 X.102 Y-2.886
N9325 X-.105 Y-2.898
N9330 X-.311 Y-2.914
N9335 X-.517 Y-2.934
N9340 X-.722 Y-2.958
N9345 X-.927 Y-2.987
N9350 X-1.132 Y-3.019
N9355 X-1.336 Y-3.055
N9360 X-1.539 Y-3.095
N9365 X-1.742 Y-3.139
N9370 X-1.943 Y-3.187
N9375 X-2.145 Y-3.239
N9380 X-2.345 Y-3.296
N9385 X-2.474 Y-3.335
N9390 X-2.533 Y-3.288
N9395 X-2.72 Y-3.156
N9400 X-2.911 Y-3.032
N9405 X-3.108 Y-2.915
N9410 X-3.135 Y-2.901
N9415 X-3.148 Y-2.869
N9420 X-3.227 Y-2.688
N9425 X-3.312 Y-2.51
N9430 X-3.403 Y-2.336
N9435 X-3.5 Y-2.166
N9440 X-3.603 Y-2.
N9445 X-3.711 Y-1.838
N9450 X-3.826 Y-1.681
N9455 X-3.945 Y-1.528
N9460 X-4.07 Y-1.38
N9465 X-4.2 Y-1.236
N9470 X-4.335 Y-1.097
N9475 X-4.474 Y-.963
N9480 X-4.619 Y-.834
N9485 X-4.768 Y-.71
N9490 X-4.922 Y-.592
N9495 X-5.08 Y-.479
N9500 X-5.242 Y-.371
N9505 X-5.409 Y-.269
N9510 X-5.5 Y-.218
N9515 Y1.136
N9520 X-5.415 Y1.165
N9525 X-5.187 Y1.256
N9530 X-4.958 Y1.362
N9535 X-4.718 Y1.491
N9540 X-4.496 Y1.628
N9545 X-4.324 Y1.747
N9550 X-4.139 Y1.889
N9555 X-3.954 Y2.047
N9560 X-3.779 Y2.213
N9565 X-3.614 Y2.388
N9570 X-3.458 Y2.572
N9575 X-3.313 Y2.763
N9580 X-3.179 Y2.961
N9585 X-3.055 Y3.166
N9590 X-2.971 Y3.323
N9595 X-2.926 Y3.335
N9600 X-2.756 Y3.375
N9605 X-2.586 Y3.413
N9610 X-2.416 Y3.448
N9615 X-2.245 Y3.481
N9620 X-2.073 Y3.512
N9625 X-1.902 Y3.54
N9630 X-1.73 Y3.565
N9635 X-1.588 Y3.584
N9640 X-1.521 Y3.089
N9645 X-1.494 Y3.092
N9650 X-1.329 Y3.112
N9655 X-1.163 Y3.13
N9660 X-.998 Y3.145
N9665 X-.832 Y3.158
N9670 X-.665 Y3.169
N9675 X-.499 Y3.177
N9680 X-.333 Y3.183
N9685 X-.166 Y3.186
N9690 X0 Y3.187
N9695 X.166 Y3.186
N9700 X.333 Y3.183
N9705 X.499 Y3.177
N9710 X.665 Y3.169
N9715 X.832 Y3.158
N9720 X.998 Y3.145
N9725 X1.163 Y3.13
N9730 X1.329 Y3.112
N9735 X1.494 Y3.092
N9740 X1.66 Y3.07
N9745 X1.825 Y3.046
N9750 X1.989 Y3.019
N9755 X2.154 Y2.989
N9760 X2.317 Y2.958
N9765 X2.481 Y2.924
N9770 X2.638 Y2.889
N9775 X2.758 Y2.691
N9780 X2.907 Y2.471
N9785 X3.068 Y2.259
N9790 X3.241 Y2.055
N9795 X3.425 Y1.86
N9800 X3.619 Y1.675
N9805 X3.824 Y1.5
N9810 X4.039 Y1.336
N9815 X4.264 Y1.183
N9820 X4.498 Y1.041
N9825 X4.745 Y.909
N9830 X5. Y.792
N9835 Y-1.432
N9840 X4.957 Y-1.47
N9845 X4.813 Y-1.608
N9850 X4.675 Y-1.752
N9855 X4.543 Y-1.903
N9860 X4.406 Y-2.073
N9865 X4.241 Y-2.302
N9870 X4.145 Y-2.455
N9875 X4.04 Y-2.481
N9880 X3.872 Y-2.526
N9885 X3.705 Y-2.575
N9890 X3.539 Y-2.628
N9895 X3.36 Y-2.689
N9900 X3.314 Y-2.706
N9905 X3.309 Y-2.705
N9910 X3.096 Y-2.654
N9915 X2.883 Y-2.607
N9920 X2.669 Y-2.565
N9925 X2.454 Y-2.527
N9930 X2.239 Y-2.493
N9935 X2.024 Y-2.463
N9940 X1.808 Y-2.438
N9945 X1.592 Y-2.416
N9950 X1.376 Y-2.399
N9955 X1.16 Y-2.387
N9960 X.943 Y-2.378
N9965 X.727 Y-2.374
N9970 X.51
N9975 X.294 Y-2.378
N9980 X.077 Y-2.387
N9985 X-.139 Y-2.399
N9990 X-.355 Y-2.416
N9995 X-.57 Y-2.437
N5 X-.785 Y-2.462
N10 X-1. Y-2.492
N15 X-1.214 Y-2.525
N20 X-1.428 Y-2.563
N25 X-1.641 Y-2.605
N30 X-1.853 Y-2.652
N35 X-2.064 Y-2.702
N40 X-2.275 Y-2.757
N45 X-2.378 Y-2.786
N50 X-2.439 Y-2.742
N55 X-2.648 Y-2.606
N60 X-2.741 Y-2.552
N65 X-2.772 Y-2.48
N70 X-2.865 Y-2.286
N75 X-2.964 Y-2.096
N80 X-3.07 Y-1.91
N85 X-3.183 Y-1.729
N90 X-3.301 Y-1.552
N95 X-3.426 Y-1.38
N100 X-3.557 Y-1.213
N105 X-3.693 Y-1.051
N110 X-3.835 Y-.894
N115 X-3.982 Y-.742
N120 X-4.135 Y-.596
N125 X-4.293 Y-.455
N130 X-4.456 Y-.32
N135 X-4.624 Y-.19
N140 X-4.796 Y-.067
N145 X-4.974 Y.051
N150 X-5. Y.067
N155 Y.792
N160 X-4.988 Y.797
N165 X-4.735 Y.915
N170 X-4.468 Y1.058
N175 X-4.222 Y1.21
N180 X-4.03 Y1.343
N185 X-3.824 Y1.5
N190 X-3.619 Y1.675
N195 X-3.425 Y1.86
N200 X-3.241 Y2.055
N205 X-3.068 Y2.259
N210 X-2.907 Y2.471
N215 X-2.758 Y2.691
N220 X-2.638 Y2.889
N225 X-2.481 Y2.924
N230 X-2.317 Y2.958
N235 X-2.154 Y2.989
N240 X-1.989 Y3.019
N245 X-1.825 Y3.046
N250 X-1.66 Y3.07
N255 X-1.521 Y3.089
N260 X-1.454 Y2.593
N265 X-1.431 Y2.596
N270 X-1.273 Y2.615
N275 X-1.114 Y2.632
N280 X-.955 Y2.647
N285 X-.796 Y2.659
N290 X-.637 Y2.669
N295 X-.478 Y2.677
N300 X-.319 Y2.683
N305 X-.159 Y2.686
N310 X0 Y2.687
N315 X.159 Y2.686
N320 X.319 Y2.683
N325 X.478 Y2.677
N330 X.637 Y2.669
N335 X.796 Y2.659
N340 X.955 Y2.647
N345 X1.114 Y2.632
N350 X1.273 Y2.615
N355 X1.431 Y2.596
N360 X1.589 Y2.575
N365 X1.747 Y2.552
N370 X1.905 Y2.526
N375 X2.062 Y2.498
N380 X2.219 Y2.468
N385 X2.321 Y2.446
N390 X2.336 Y2.421
N395 X2.501 Y2.179
N400 X2.678 Y1.946
N405 X2.868 Y1.722
N410 X3.07 Y1.507
N415 X3.284 Y1.304
N420 X3.51 Y1.111
N425 X3.746 Y.93
N430 X3.994 Y.762
N435 X4.251 Y.606
N440 X4.5 Y.473
N445 Y-1.216
N450 X4.459 Y-1.255
N455 X4.307 Y-1.414
N460 X4.161 Y-1.581
N465 X4.008 Y-1.77
N470 X3.831 Y-2.015
N475 X3.828 Y-2.02
N480 X3.737 Y-2.045
N485 X3.559 Y-2.097
N490 X3.383 Y-2.153
N495 X3.287 Y-2.186
N500 X3.208 Y-2.166
N505 X2.985 Y-2.118
N510 X2.761 Y-2.073
N515 X2.537 Y-2.033
N520 X2.313 Y-1.998
N525 X2.087 Y-1.967
N530 X1.862 Y-1.94
N535 X1.636 Y-1.918
N540 X1.41 Y-1.901
N545 X1.184 Y-1.887
N550 X.958 Y-1.878
N555 X.732 Y-1.874
N560 X.505
N565 X.279 Y-1.878
N570 X.053 Y-1.887
N575 X-.173 Y-1.9
N580 X-.398 Y-1.918
N585 X-.624 Y-1.94
N590 X-.848 Y-1.966
N595 X-1.073 Y-1.997
N600 X-1.296 Y-2.032
N605 X-1.52 Y-2.072
N610 X-1.742 Y-2.116
N615 X-1.964 Y-2.164
N620 X-2.185 Y-2.217
N625 X-2.289 Y-2.244
N630 X-2.349 Y-2.204
N635 X-2.418 Y-2.062
N640 X-2.526 Y-1.856
N645 X-2.641 Y-1.654
N650 X-2.763 Y-1.458
N655 X-2.891 Y-1.266
N660 X-3.027 Y-1.08
N665 X-3.168 Y-.898
N670 X-3.316 Y-.723
N675 X-3.47 Y-.552
N680 X-3.63 Y-.388
N685 X-3.795 Y-.229
N690 X-3.967 Y-.076
N695 X-4.143 Y.071
N700 X-4.325 Y.211
N705 X-4.5 Y.336
N710 X-4.499 Y.474
N715 X-4.218 Y.625
N720 X-3.948 Y.792
N725 X-3.736 Y.939
N730 X-3.51 Y1.111
N735 X-3.284 Y1.304
N740 X-3.07 Y1.507
N745 X-2.868 Y1.722
N750 X-2.678 Y1.946
N755 X-2.501 Y2.179
N760 X-2.336 Y2.421
N765 X-2.321 Y2.446
N770 X-2.219 Y2.468
N775 X-2.062 Y2.498
N780 X-1.905 Y2.526
N785 X-1.747 Y2.552
N790 X-1.589 Y2.575
N795 X-1.454 Y2.593
N800 X-1.388 Y2.098
N805 X-1.368 Y2.1
N810 X-1.217 Y2.119
N815 X-1.065 Y2.135
N820 X-.913 Y2.149
N825 X-.761 Y2.16
N830 X-.609 Y2.17
N835 X-.457 Y2.178
N840 X-.305 Y2.183
N845 X-.152 Y2.186
N850 X0 Y2.187
N855 X.152 Y2.186
N860 X.305 Y2.183
N865 X.457 Y2.178
N870 X.609 Y2.17
N875 X.761 Y2.16
N880 X.913 Y2.149
N885 X1.065 Y2.135
N890 X1.217 Y2.119
N895 X1.368 Y2.1
N900 X1.519 Y2.08
N905 X1.67 Y2.058
N910 X1.821 Y2.033
N915 X1.971 Y2.006
N920 X2.02 Y1.997
N925 X2.095 Y1.887
N930 X2.288 Y1.632
N935 X2.495 Y1.388
N940 X2.716 Y1.154
N945 X2.949 Y.932
N950 X3.195 Y.722
N955 X3.453 Y.525
N960 X3.723 Y.341
N965 X4. Y.174
N970 Y-1.012
N975 X3.938 Y-1.077
N980 X3.778 Y-1.259
N985 X3.61 Y-1.467
N990 X3.524 Y-1.586
N995 X3.413 Y-1.619
N1000 X3.262 Y-1.667
N1005 X3.087 Y-1.628
N1010 X2.854 Y-1.582
N1015 X2.62 Y-1.54
N1020 X2.386 Y-1.503
N1025 X2.151 Y-1.471
N1030 X1.916 Y-1.443
N1035 X1.68 Y-1.42
N1040 X1.444 Y-1.402
N1045 X1.209 Y-1.388
N1050 X.973 Y-1.379
N1055 X.737 Y-1.374
N1060 X.5
N1065 X.265 Y-1.379
N1070 X.029 Y-1.388
N1075 X-.207 Y-1.401
N1080 X-.442 Y-1.42
N1085 X-.677 Y-1.443
N1090 X-.911 Y-1.47
N1095 X-1.145 Y-1.502
N1100 X-1.379 Y-1.539
N1105 X-1.612 Y-1.58
N1110 X-1.844 Y-1.626
N1115 X-2.057 Y-1.673
N1120 X-2.087 Y-1.616
N1125 X-2.211 Y-1.398
N1130 X-2.343 Y-1.186
N1135 X-2.481 Y-.98
N1140 X-2.627 Y-.779
N1145 X-2.78 Y-.583
N1150 X-2.939 Y-.394
N1155 X-3.105 Y-.21
N1160 X-3.277 Y-.033
N1165 X-3.456 Y.138
N1170 X-3.64 Y.303
N1175 X-3.703 Y.355
N1180 X-3.674 Y.373
N1185 X-3.441 Y.534
N1190 X-3.195 Y.722
N1195 X-2.949 Y.932
N1200 X-2.716 Y1.154
N1205 X-2.495 Y1.388
N1210 X-2.288 Y1.632
N1215 X-2.095 Y1.887
N1220 X-2.02 Y1.997
N1225 X-1.971 Y2.006
N1230 X-1.821 Y2.033
N1235 X-1.67 Y2.058
N1240 X-1.519 Y2.08
N1245 X-1.388 Y2.098
N1250 X-1.321 Y1.602
N1255 X-1.305 Y1.604
N1260 X-1.16 Y1.622
N1265 X-1.016 Y1.637
N1270 X-.871 Y1.65
N1275 X-.726 Y1.662
N1280 X-.581 Y1.671
N1285 X-.436 Y1.678
N1290 X-.291 Y1.683
N1295 X-.145 Y1.686
N1300 X0 Y1.687
N1305 X.145 Y1.686
N1310 X.291 Y1.683
N1315 X.436 Y1.678
N1320 X.581 Y1.671
N1325 X.726 Y1.662
N1330 X.871 Y1.65
N1335 X1.016 Y1.637
N1340 X1.16 Y1.622
N1345 X1.305 Y1.604
N1350 X1.449 Y1.585
N1355 X1.593 Y1.564
N1360 X1.73 Y1.541
N1365 X1.898 Y1.319
N1370 X2.123 Y1.055
N1375 X2.362 Y.801
N1380 X2.614 Y.561
N1385 X2.881 Y.333
N1390 X3.161 Y.119
N1395 X3.453 Y-.08
N1400 X3.5 Y-.108
N1405 Y-.817
N1410 X3.395 Y-.937
N1415 X3.226 Y-1.147
N1420 X3.189 Y-1.139
N1425 X2.946 Y-1.091
N1430 X2.703 Y-1.047
N1435 X2.459 Y-1.009
N1440 X2.214 Y-.975
N1445 X1.969 Y-.946
N1450 X1.724 Y-.922
N1455 X1.479 Y-.903
N1460 X1.233 Y-.888
N1465 X.987 Y-.879
N1470 X.741 Y-.874
N1475 X.496
N1480 X.25 Y-.879
N1485 X.004 Y-.888
N1490 X-.241 Y-.903
N1495 X-.486 Y-.922
N1500 X-.73 Y-.946
N1505 X-.975 Y-.974
N1510 X-1.218 Y-1.008
N1515 X-1.461 Y-1.046
N1520 X-1.704 Y-1.089
N1525 X-1.803 Y-1.108
N1530 X-1.922 Y-.915
N1535 X-2.071 Y-.694
N1540 X-2.228 Y-.478
N1545 X-2.391 Y-.268
N1550 X-2.562 Y-.065
N1555 X-2.74 Y.132
N1560 X-2.912 Y.309
N1565 X-2.881 Y.333
N1570 X-2.614 Y.561
N1575 X-2.362 Y.801
N1580 X-2.123 Y1.055
N1585 X-1.898 Y1.319
N1590 X-1.73 Y1.541
N1595 X-1.593 Y1.564
N1600 X-1.449 Y1.585
N1605 X-1.321 Y1.602
N1610 X-1.254 Y1.107
N1615 X-1.242 Y1.108
N1620 X-1.104 Y1.125
N1625 X-.967 Y1.14
N1630 X-.829 Y1.152
N1635 X-.691 Y1.163
N1640 X-.553 Y1.172
N1645 X-.415 Y1.178
N1650 X-.277 Y1.183
N1655 X-.138 Y1.186
N1660 X0 Y1.187
N1665 X.138 Y1.186
N1670 X.277 Y1.183
N1675 X.415 Y1.178
N1680 X.553 Y1.172
N1685 X.691 Y1.163
N1690 X.829 Y1.152
N1695 X.967 Y1.14
N1700 X1.104 Y1.125
N1705 X1.242 Y1.108
N1710 X1.379 Y1.09
N1715 X1.453 Y1.079
N1720 X1.508 Y1.006
N1725 X1.75 Y.721
N1730 X2.007 Y.449
N1735 X2.28 Y.189
N1740 X2.567 Y-.056
N1745 X2.868 Y-.286
N1750 X3. Y-.376
N1755 Y-.592
N1760 X2.785 Y-.554
N1765 X2.532 Y-.514
N1770 X2.278 Y-.479
N1775 X2.023 Y-.449
N1780 X1.768 Y-.424
N1785 X1.513 Y-.404
N1790 X1.257 Y-.389
N1795 X1.002 Y-.379
N1800 X.746 Y-.374
N1805 X.491
N1810 X.235 Y-.379
N1815 X-.02 Y-.389
N1820 X-.275 Y-.404
N1825 X-.53 Y-.424
N1830 X-.784 Y-.448
N1835 X-1.038 Y-.478
N1840 X-1.291 Y-.513
N1845 X-1.544 Y-.553
N1850 X-1.561 Y-.556
N1855 X-1.661 Y-.407
N1860 X-1.828 Y-.177
N1865 X-2.003 Y.046
N1870 X-2.185 Y.263
N1875 X-2.193 Y.272
N1880 X-2.007 Y.449
N1885 X-1.75 Y.721
N1890 X-1.508 Y1.006
N1895 X-1.453 Y1.079
N1900 X-1.379 Y1.09
N1905 X-1.254 Y1.107
N1910 X-1.188 Y.611
N1915 X-1.178 Y.612
N1920 X-1.048 Y.628
N1925 X-.917 Y.642
N1930 X-.787 Y.654
N1935 X-.656 Y.664
N1940 X-.525 Y.672
N1945 X-.394 Y.679
N1950 X-.262 Y.683
N1955 X-.131 Y.686
N1960 X0 Y.687
N1965 X.131 Y.686
N1970 X.262 Y.683
N1975 X.394 Y.679
N1980 X.525 Y.672
N1985 X.656 Y.664
N1990 X.787 Y.654
N1995 X.917 Y.642
N2000 X1.048 Y.628
N2005 X1.178 Y.612
N2010 X1.188 Y.611
N2015 X1.377 Y.388
N2020 X1.653 Y.096
N2025 X1.663 Y.086
N2030 X1.547 Y.095
N2035 X1.282 Y.11
N2040 X1.017 Y.121
N2045 X.751 Y.126
N2050 X.486
N2055 X.221 Y.121
N2060 X-.044 Y.111
N2065 X-.309 Y.095
N2070 X-.573 Y.074
N2075 X-.837 Y.049
N2080 X-1.101 Y.018
N2085 X-1.329 Y-.014
N2090 X-1.429 Y.124
N2095 X-1.518 Y.238
N2100 X-1.377 Y.388
N2105 X-1.188 Y.611
N2110 G00 Z3.
N2115 Z25. M09
N2120 G00 G90 M05
N2125 G54 Z30 X0 Y0
N2130 M30
%
