%
O00001
(This Post Processor is distributed on an "AS IS" BASIS, )
(WITHOUT WARRANTIES OR CONDITIONS OF ANY KIND, either express or implied. )
N5 G21 G17 G40 G80 G90
N15 T01 M06 (1mm)
N20 G54 G90 G94 Z50
N25 S23000 M03
N30 G90 X.104 Y-7.315
N35 G43 H01 Z2.5 M08
N40 G01 Z0 F750.
N45 X.249 Y-7.311 F3000.
N50 X.393 Y-7.305
N55 X.536 Y-7.295
N60 X.678 Y-7.282
N65 X.807 Y-7.268
N70 X.757 Y-7.261
N75 X.617 Y-7.247
N80 X.474 Y-7.235
N85 X.331 Y-7.227
N90 X.186 Y-7.221
N95 X.041 Y-7.219
N100 X-.104 Y-7.22
N105 X-.249 Y-7.223
N110 X-.393 Y-7.23
N115 X-.536 Y-7.24
N120 X-.678 Y-7.253
N125 X-.807 Y-7.267
N130 X-.757 Y-7.273
N135 X-.617 Y-7.288
N140 X-.474 Y-7.299
N145 X-.331 Y-7.308
N150 X-.186 Y-7.313
N155 X-.041 Y-7.316
N160 X.104 Y-7.315
N165 X.11 Y-7.715
N170 X.263 Y-7.711
N175 X.416 Y-7.704
N180 X.568 Y-7.694
N185 X.718 Y-7.68
N190 X.867 Y-7.663
N195 X1.013 Y-7.644
N200 X1.157 Y-7.621
N205 X1.298 Y-7.596
N210 X1.436 Y-7.567
N215 X1.571 Y-7.537
N220 X1.701 Y-7.504
N225 X1.827 Y-7.469
N230 X1.949 Y-7.432
N235 X2.066 Y-7.393
N240 X2.177 Y-7.353
N245 X2.283 Y-7.311
N250 X2.387 Y-7.268
N255 X2.341 Y-7.247
N260 X2.238 Y-7.205
N265 X2.13 Y-7.164
N270 X2.016 Y-7.125
N275 X1.897 Y-7.087
N280 X1.773 Y-7.051
N285 X1.645 Y-7.016
N290 X1.513 Y-6.984
N295 X1.377 Y-6.955
N300 X1.238 Y-6.928
N305 X1.095 Y-6.904
N310 X.95 Y-6.882
N315 X.803 Y-6.864
N320 X.653 Y-6.849
N325 X.502 Y-6.836
N330 X.35 Y-6.827
N335 X.197 Y-6.822
N340 X.044 Y-6.819
N345 X-.11 Y-6.82
N350 X-.263 Y-6.824
N355 X-.416 Y-6.831
N360 X-.568 Y-6.841
N365 X-.718 Y-6.855
N370 X-.867 Y-6.872
N375 X-1.013 Y-6.891
N380 X-1.157 Y-6.914
N385 X-1.298 Y-6.939
N390 X-1.436 Y-6.967
N395 X-1.571 Y-6.998
N400 X-1.701 Y-7.031
N405 X-1.827 Y-7.066
N410 X-1.949 Y-7.103
N415 X-2.066 Y-7.142
N420 X-2.177 Y-7.182
N425 X-2.283 Y-7.223
N430 X-2.387 Y-7.267
N435 X-2.341 Y-7.288
N440 X-2.238 Y-7.33
N445 X-2.13 Y-7.37
N450 X-2.016 Y-7.41
N455 X-1.897 Y-7.448
N460 X-1.773 Y-7.484
N465 X-1.645 Y-7.518
N470 X-1.513 Y-7.55
N475 X-1.377 Y-7.58
N480 X-1.238 Y-7.607
N485 X-1.095 Y-7.631
N490 X-.95 Y-7.652
N495 X-.803 Y-7.671
N500 X-.653 Y-7.686
N505 X-.502 Y-7.698
N510 X-.35 Y-7.707
N515 X-.197 Y-7.713
N520 X-.044 Y-7.716
N525 X.106 Y-7.715
N530 X.108 Y-8.115
N535 X.116
N540 X.278 Y-8.111
N545 X.439 Y-8.103
N550 X.6 Y-8.092
N555 X.759 Y-8.078
N560 X.916 Y-8.06
N565 X1.071 Y-8.039
N570 X1.224 Y-8.015
N575 X1.374 Y-7.988
N580 X1.521 Y-7.959
N585 X1.664 Y-7.926
N590 X1.804 Y-7.891
N595 X1.939 Y-7.853
N600 X2.07 Y-7.813
N605 X2.197 Y-7.771
N610 X2.318 Y-7.727
N615 X2.434 Y-7.682
N620 X2.544 Y-7.636
N625 X2.648 Y-7.588
N630 X2.746 Y-7.54
N635 X2.837 Y-7.492
N640 X2.922 Y-7.444
N645 X3. Y-7.397
N650 X3.071 Y-7.35
N655 X3.135 Y-7.305
N660 X3.184 Y-7.267
N665 X3.168 Y-7.254
N670 X3.108 Y-7.21
N675 X3.041 Y-7.165
N680 X2.967 Y-7.118
N685 X2.886 Y-7.07
N690 X2.798 Y-7.022
N695 X2.704 Y-6.974
N700 X2.603 Y-6.926
N705 X2.497 Y-6.879
N710 X2.384 Y-6.833
N715 X2.266 Y-6.788
N720 X2.143 Y-6.745
N725 X2.014 Y-6.704
N730 X1.881 Y-6.665
N735 X1.744 Y-6.629
N740 X1.602 Y-6.594
N745 X1.457 Y-6.563
N750 X1.309 Y-6.534
N755 X1.158 Y-6.509
N760 X1.004 Y-6.486
N765 X.848 Y-6.466
N770 X.69 Y-6.45
N775 X.53 Y-6.437
N780 X.37 Y-6.428
N785 X.208 Y-6.422
N790 X.046 Y-6.419
N795 X-.116 Y-6.42
N800 X-.278 Y-6.424
N805 X-.439 Y-6.431
N810 X-.6 Y-6.443
N815 X-.759 Y-6.457
N820 X-.916 Y-6.475
N825 X-1.071 Y-6.495
N830 X-1.224 Y-6.519
N835 X-1.374 Y-6.546
N840 X-1.521 Y-6.576
N845 X-1.664 Y-6.609
N850 X-1.804 Y-6.644
N855 X-1.939 Y-6.682
N860 X-2.07 Y-6.722
N865 X-2.197 Y-6.764
N870 X-2.318 Y-6.807
N875 X-2.434 Y-6.853
N880 X-2.544 Y-6.899
N885 X-2.648 Y-6.947
N890 X-2.746 Y-6.995
N895 X-2.837 Y-7.043
N900 X-2.922 Y-7.091
N905 X-3. Y-7.138
N910 X-3.071 Y-7.185
N915 X-3.135 Y-7.23
N920 X-3.184 Y-7.267
N925 X-3.168 Y-7.281
N930 X-3.108 Y-7.324
N935 X-3.041 Y-7.37
N940 X-2.967 Y-7.417
N945 X-2.886 Y-7.465
N950 X-2.798 Y-7.513
N955 X-2.704 Y-7.561
N960 X-2.603 Y-7.609
N965 X-2.497 Y-7.656
N970 X-2.384 Y-7.702
N975 X-2.266 Y-7.746
N980 X-2.143 Y-7.789
N985 X-2.014 Y-7.831
N990 X-1.881 Y-7.87
N995 X-1.744 Y-7.906
N1000 X-1.602 Y-7.94
N1005 X-1.457 Y-7.972
N1010 X-1.309 Y-8.
N1015 X-1.158 Y-8.026
N1020 X-1.004 Y-8.049
N1025 X-.848 Y-8.068
N1030 X-.69 Y-8.085
N1035 X-.53 Y-8.097
N1040 X-.37 Y-8.107
N1045 X-.208 Y-8.113
N1050 X-.046 Y-8.116
N1055 X.108 Y-8.115
N1060 X.11 Y-8.515
N1065 X.122
N1070 X.293 Y-8.511
N1075 X.462 Y-8.503
N1080 X.631 Y-8.491
N1085 X.799 Y-8.476
N1090 X.965 Y-8.457
N1095 X1.129 Y-8.435
N1100 X1.29 Y-8.41
N1105 X1.449 Y-8.381
N1110 X1.605 Y-8.35
N1115 X1.757 Y-8.315
N1120 X1.906 Y-8.277
N1125 X2.051 Y-8.237
N1130 X2.192 Y-8.194
N1135 X2.328 Y-8.149
N1140 X2.458 Y-8.102
N1145 X2.584 Y-8.053
N1150 X2.704 Y-8.002
N1155 X2.819 Y-7.95
N1160 X2.927 Y-7.897
N1165 X3.029 Y-7.843
N1170 X3.125 Y-7.789
N1175 X3.214 Y-7.735
N1180 X3.296 Y-7.681
N1185 X3.371 Y-7.628
N1190 X3.439 Y-7.576
N1195 X3.5 Y-7.527
N1200 X3.554 Y-7.479
N1205 X3.601 Y-7.434
N1210 X3.641 Y-7.392
N1215 X3.675 Y-7.354
N1220 X3.702 Y-7.32
N1225 X3.724 Y-7.29
N1230 X3.739 Y-7.267
N1235 X3.734 Y-7.259
N1240 X3.715 Y-7.232
N1245 X3.691 Y-7.201
N1250 X3.661 Y-7.165
N1255 X3.625 Y-7.125
N1260 X3.581 Y-7.082
N1265 X3.531 Y-7.036
N1270 X3.474 Y-6.987
N1275 X3.41 Y-6.936
N1280 X3.339 Y-6.884
N1285 X3.261 Y-6.831
N1290 X3.176 Y-6.777
N1295 X3.084 Y-6.722
N1300 X2.986 Y-6.668
N1305 X2.881 Y-6.615
N1310 X2.77 Y-6.562
N1315 X2.653 Y-6.511
N1320 X2.53 Y-6.461
N1325 X2.402 Y-6.412
N1330 X2.269 Y-6.366
N1335 X2.131 Y-6.322
N1340 X1.989 Y-6.28
N1345 X1.842 Y-6.241
N1350 X1.692 Y-6.205
N1355 X1.538 Y-6.171
N1360 X1.381 Y-6.141
N1365 X1.22 Y-6.114
N1370 X1.058 Y-6.09
N1375 X.893 Y-6.069
N1380 X.726 Y-6.052
N1385 X.558 Y-6.038
N1390 X.389 Y-6.028
N1395 X.219 Y-6.022
N1400 X.048 Y-6.019
N1405 X-.122 Y-6.02
N1410 X-.293 Y-6.024
N1415 X-.462 Y-6.032
N1420 X-.631 Y-6.044
N1425 X-.799 Y-6.059
N1430 X-.965 Y-6.078
N1435 X-1.129 Y-6.1
N1440 X-1.29 Y-6.125
N1445 X-1.449 Y-6.154
N1450 X-1.605 Y-6.185
N1455 X-1.757 Y-6.22
N1460 X-1.906 Y-6.258
N1465 X-2.051 Y-6.298
N1470 X-2.192 Y-6.341
N1475 X-2.328 Y-6.386
N1480 X-2.458 Y-6.433
N1485 X-2.584 Y-6.482
N1490 X-2.704 Y-6.533
N1495 X-2.819 Y-6.585
N1500 X-2.927 Y-6.638
N1505 X-3.029 Y-6.692
N1510 X-3.125 Y-6.746
N1515 X-3.214 Y-6.8
N1520 X-3.296 Y-6.854
N1525 X-3.371 Y-6.907
N1530 X-3.439 Y-6.958
N1535 X-3.5 Y-7.008
N1540 X-3.554 Y-7.056
N1545 X-3.601 Y-7.101
N1550 X-3.641 Y-7.143
N1555 X-3.675 Y-7.181
N1560 X-3.702 Y-7.215
N1565 X-3.724 Y-7.245
N1570 X-3.739 Y-7.267
N1575 X-3.734 Y-7.276
N1580 X-3.715 Y-7.302
N1585 X-3.691 Y-7.334
N1590 X-3.661 Y-7.37
N1595 X-3.625 Y-7.41
N1600 X-3.581 Y-7.453
N1605 X-3.531 Y-7.499
N1610 X-3.474 Y-7.548
N1615 X-3.41 Y-7.599
N1620 X-3.339 Y-7.651
N1625 X-3.261 Y-7.704
N1630 X-3.176 Y-7.758
N1635 X-3.084 Y-7.812
N1640 X-2.986 Y-7.866
N1645 X-2.881 Y-7.92
N1650 X-2.77 Y-7.973
N1655 X-2.653 Y-8.024
N1660 X-2.53 Y-8.074
N1665 X-2.402 Y-8.123
N1670 X-2.269 Y-8.169
N1675 X-2.131 Y-8.213
N1680 X-1.989 Y-8.255
N1685 X-1.842 Y-8.294
N1690 X-1.692 Y-8.33
N1695 X-1.538 Y-8.364
N1700 X-1.381 Y-8.394
N1705 X-1.22 Y-8.421
N1710 X-1.058 Y-8.445
N1715 X-.893 Y-8.466
N1720 X-.726 Y-8.483
N1725 X-.558 Y-8.497
N1730 X-.389 Y-8.507
N1735 X-.219 Y-8.513
N1740 X-.048 Y-8.516
N1745 X.11 Y-8.515
N1750 X.111 Y-8.915
N1755 X.128
N1760 X.307 Y-8.91
N1765 X.486 Y-8.902
N1770 X.663 Y-8.89
N1775 X.839 Y-8.874
N1780 X1.014 Y-8.854
N1785 X1.186 Y-8.831
N1790 X1.357 Y-8.804
N1795 X1.524 Y-8.774
N1800 X1.689 Y-8.741
N1805 X1.851 Y-8.704
N1810 X2.009 Y-8.664
N1815 X2.163 Y-8.621
N1820 X2.313 Y-8.575
N1825 X2.458 Y-8.527
N1830 X2.599 Y-8.476
N1835 X2.735 Y-8.423
N1840 X2.865 Y-8.368
N1845 X2.99 Y-8.312
N1850 X3.108 Y-8.253
N1855 X3.221 Y-8.194
N1860 X3.327 Y-8.134
N1865 X3.427 Y-8.073
N1870 X3.521 Y-8.012
N1875 X3.607 Y-7.951
N1880 X3.686 Y-7.891
N1885 X3.759 Y-7.831
N1890 X3.825 Y-7.773
N1895 X3.883 Y-7.717
N1900 X3.935 Y-7.663
N1905 X3.981 Y-7.612
N1910 X4.02 Y-7.564
N1915 X4.052 Y-7.519
N1920 X4.08 Y-7.478
N1925 X4.102 Y-7.44
N1930 X4.119 Y-7.407
N1935 X4.132 Y-7.378
N1940 X4.142 Y-7.353
N1945 X4.149 Y-7.332
N1950 X4.154 Y-7.314
N1955 X4.157 Y-7.299
N1960 X4.159 Y-7.287
N1965 Y-7.276
N1970 X4.16 Y-7.265
N1975 X4.159 Y-7.254
N1980 X4.158 Y-7.243
N1985 X4.156 Y-7.229
N1990 X4.152 Y-7.213
N1995 X4.146 Y-7.194
N2000 X4.138 Y-7.171
N2005 X4.127 Y-7.144
N2010 X4.112 Y-7.114
N2015 X4.093 Y-7.079
N2020 X4.069 Y-7.04
N2025 X4.039 Y-6.997
N2030 X4.003 Y-6.951
N2035 X3.962 Y-6.901
N2040 X3.914 Y-6.848
N2045 X3.859 Y-6.793
N2050 X3.797 Y-6.736
N2055 X3.728 Y-6.678
N2060 X3.653 Y-6.618
N2065 X3.57 Y-6.557
N2070 X3.481 Y-6.496
N2075 X3.385 Y-6.435
N2080 X3.282 Y-6.375
N2085 X3.173 Y-6.315
N2090 X3.058 Y-6.256
N2095 X2.936 Y-6.198
N2100 X2.809 Y-6.142
N2105 X2.677 Y-6.088
N2110 X2.539 Y-6.036
N2115 X2.396 Y-5.987
N2120 X2.249 Y-5.939
N2125 X2.097 Y-5.895
N2130 X1.941 Y-5.853
N2135 X1.781 Y-5.815
N2140 X1.618 Y-5.779
N2145 X1.452 Y-5.747
N2150 X1.283 Y-5.718
N2155 X1.112 Y-5.693
N2160 X.938 Y-5.672
N2165 X.763 Y-5.654
N2170 X.586 Y-5.639
N2175 X.408 Y-5.629
N2180 X.23 Y-5.622
N2185 X.051 Y-5.619
N2190 X-.128 Y-5.62
N2195 X-.307 Y-5.624
N2200 X-.486 Y-5.633
N2205 X-.663 Y-5.645
N2210 X-.839 Y-5.661
N2215 X-1.014 Y-5.68
N2220 X-1.186 Y-5.704
N2225 X-1.357 Y-5.73
N2230 X-1.524 Y-5.761
N2235 X-1.689 Y-5.794
N2240 X-1.851 Y-5.831
N2245 X-2.009 Y-5.871
N2250 X-2.163 Y-5.914
N2255 X-2.313 Y-5.959
N2260 X-2.458 Y-6.008
N2265 X-2.599 Y-6.058
N2270 X-2.735 Y-6.111
N2275 X-2.865 Y-6.166
N2280 X-2.99 Y-6.223
N2285 X-3.108 Y-6.281
N2290 X-3.221 Y-6.341
N2295 X-3.327 Y-6.401
N2300 X-3.427 Y-6.462
N2305 X-3.521 Y-6.523
N2310 X-3.607 Y-6.584
N2315 X-3.686 Y-6.644
N2320 X-3.759 Y-6.703
N2325 X-3.825 Y-6.761
N2330 X-3.883 Y-6.818
N2335 X-3.935 Y-6.872
N2340 X-3.981 Y-6.923
N2345 X-4.02 Y-6.971
N2350 X-4.052 Y-7.016
N2355 X-4.08 Y-7.057
N2360 X-4.102 Y-7.094
N2365 X-4.119 Y-7.127
N2370 X-4.132 Y-7.156
N2375 X-4.142 Y-7.181
N2380 X-4.149 Y-7.203
N2385 X-4.154 Y-7.22
N2390 X-4.157 Y-7.235
N2395 X-4.159 Y-7.248
N2400 Y-7.259
N2405 X-4.16 Y-7.27
N2410 X-4.159 Y-7.28
N2415 X-4.158 Y-7.292
N2420 X-4.156 Y-7.306
N2425 X-4.152 Y-7.322
N2430 X-4.146 Y-7.341
N2435 X-4.138 Y-7.364
N2440 X-4.127 Y-7.39
N2445 X-4.112 Y-7.421
N2450 X-4.093 Y-7.456
N2455 X-4.069 Y-7.495
N2460 X-4.039 Y-7.538
N2465 X-4.003 Y-7.584
N2470 X-3.962 Y-7.634
N2475 X-3.914 Y-7.686
N2480 X-3.859 Y-7.741
N2485 X-3.797 Y-7.798
N2490 X-3.728 Y-7.857
N2495 X-3.653 Y-7.917
N2500 X-3.57 Y-7.977
N2505 X-3.481 Y-8.038
N2510 X-3.385 Y-8.099
N2515 X-3.282 Y-8.16
N2520 X-3.173 Y-8.22
N2525 X-3.058 Y-8.279
N2530 X-2.936 Y-8.336
N2535 X-2.809 Y-8.392
N2540 X-2.677 Y-8.447
N2545 X-2.539 Y-8.499
N2550 X-2.396 Y-8.548
N2555 X-2.249 Y-8.595
N2560 X-2.097 Y-8.64
N2565 X-1.941 Y-8.682
N2570 X-1.781 Y-8.72
N2575 X-1.618 Y-8.756
N2580 X-1.452 Y-8.788
N2585 X-1.283 Y-8.816
N2590 X-1.112 Y-8.842
N2595 X-.938 Y-8.863
N2600 X-.763 Y-8.881
N2605 X-.586 Y-8.896
N2610 X-.408 Y-8.906
N2615 X-.23 Y-8.913
N2620 X-.051 Y-8.916
N2625 X.111 Y-8.915
N2630 X.113 Y-9.315
N2635 X.134
N2640 X.322 Y-9.31
N2645 X.509 Y-9.301
N2650 X.695 Y-9.289
N2655 X.879 Y-9.272
N2660 X1.063 Y-9.251
N2665 X1.244 Y-9.227
N2670 X1.423 Y-9.199
N2675 X1.6 Y-9.167
N2680 X1.774 Y-9.132
N2685 X1.944 Y-9.093
N2690 X2.111 Y-9.051
N2695 X2.275 Y-9.005
N2700 X2.434 Y-8.957
N2705 X2.589 Y-8.905
N2710 X2.74 Y-8.851
N2715 X2.885 Y-8.794
N2720 X3.026 Y-8.735
N2725 X3.16 Y-8.673
N2730 X3.29 Y-8.61
N2735 X3.413 Y-8.545
N2740 X3.53 Y-8.479
N2745 X3.641 Y-8.411
N2750 X3.745 Y-8.343
N2755 X3.843 Y-8.274
N2760 X3.934 Y-8.205
N2765 X4.018 Y-8.136
N2770 X4.095 Y-8.068
N2775 X4.166 Y-8.001
N2780 X4.229 Y-7.935
N2785 X4.286 Y-7.87
N2790 X4.337 Y-7.808
N2795 X4.381 Y-7.748
N2800 X4.419 Y-7.69
N2805 X4.451 Y-7.635
N2810 X4.478 Y-7.583
N2815 X4.501 Y-7.535
N2820 X4.519 Y-7.489
N2825 X4.533 Y-7.446
N2830 X4.543 Y-7.405
N2835 X4.551 Y-7.367
N2840 X4.556 Y-7.33
N2845 X4.559 Y-7.295
N2850 X4.56 Y-7.26
N2855 X4.558 Y-7.225
N2860 X4.554 Y-7.189
N2865 X4.548 Y-7.152
N2870 X4.539 Y-7.112
N2875 X4.527 Y-7.071
N2880 X4.511 Y-7.027
N2885 X4.492 Y-6.979
N2890 X4.467 Y-6.929
N2895 X4.438 Y-6.876
N2900 X4.403 Y-6.82
N2905 X4.362 Y-6.762
N2910 X4.316 Y-6.7
N2915 X4.262 Y-6.637
N2920 X4.203 Y-6.572
N2925 X4.136 Y-6.505
N2930 X4.063 Y-6.437
N2935 X3.983 Y-6.369
N2940 X3.895 Y-6.3
N2945 X3.802 Y-6.231
N2950 X3.701 Y-6.162
N2955 X3.594 Y-6.094
N2960 X3.48 Y-6.027
N2965 X3.36 Y-5.961
N2970 X3.234 Y-5.897
N2975 X3.103 Y-5.835
N2980 X2.965 Y-5.774
N2985 X2.823 Y-5.716
N2990 X2.675 Y-5.66
N2995 X2.523 Y-5.607
N3000 X2.366 Y-5.557
N3005 X2.205 Y-5.51
N3010 X2.039 Y-5.466
N3015 X1.871 Y-5.425
N3020 X1.699 Y-5.387
N3025 X1.524 Y-5.354
N3030 X1.346 Y-5.323
N3035 X1.166 Y-5.297
N3040 X.984 Y-5.274
N3045 X.8 Y-5.255
N3050 X.614 Y-5.24
N3055 X.428 Y-5.229
N3060 X.241 Y-5.222
N3065 X.053 Y-5.219
N3070 X-.134 Y-5.22
N3075 X-.322 Y-5.225
N3080 X-.509 Y-5.233
N3085 X-.695 Y-5.246
N3090 X-.879 Y-5.263
N3095 X-1.063 Y-5.283
N3100 X-1.244 Y-5.308
N3105 X-1.423 Y-5.336
N3110 X-1.6 Y-5.368
N3115 X-1.774 Y-5.403
N3120 X-1.944 Y-5.442
N3125 X-2.111 Y-5.484
N3130 X-2.275 Y-5.53
N3135 X-2.434 Y-5.578
N3140 X-2.589 Y-5.63
N3145 X-2.74 Y-5.684
N3150 X-2.885 Y-5.741
N3155 X-3.026 Y-5.8
N3160 X-3.16 Y-5.861
N3165 X-3.29 Y-5.925
N3170 X-3.413 Y-5.99
N3175 X-3.53 Y-6.056
N3180 X-3.641 Y-6.124
N3185 X-3.745 Y-6.192
N3190 X-3.843 Y-6.261
N3195 X-3.934 Y-6.33
N3200 X-4.018 Y-6.399
N3205 X-4.095 Y-6.467
N3210 X-4.166 Y-6.534
N3215 X-4.229 Y-6.6
N3220 X-4.286 Y-6.665
N3225 X-4.337 Y-6.727
N3230 X-4.381 Y-6.787
N3235 X-4.419 Y-6.845
N3240 X-4.451 Y-6.9
N3245 X-4.478 Y-6.951
N3250 X-4.501 Y-7.
N3255 X-4.519 Y-7.046
N3260 X-4.533 Y-7.089
N3265 X-4.543 Y-7.13
N3270 X-4.551 Y-7.168
N3275 X-4.556 Y-7.204
N3280 X-4.559 Y-7.24
N3285 X-4.56 Y-7.275
N3290 X-4.558 Y-7.31
N3295 X-4.554 Y-7.346
N3300 X-4.548 Y-7.383
N3305 X-4.539 Y-7.422
N3310 X-4.527 Y-7.464
N3315 X-4.511 Y-7.508
N3320 X-4.492 Y-7.555
N3325 X-4.467 Y-7.605
N3330 X-4.438 Y-7.659
N3335 X-4.403 Y-7.715
N3340 X-4.362 Y-7.773
N3345 X-4.316 Y-7.834
N3350 X-4.262 Y-7.898
N3355 X-4.203 Y-7.963
N3360 X-4.136 Y-8.03
N3365 X-4.063 Y-8.097
N3370 X-3.983 Y-8.166
N3375 X-3.895 Y-8.235
N3380 X-3.802 Y-8.304
N3385 X-3.701 Y-8.373
N3390 X-3.594 Y-8.441
N3395 X-3.48 Y-8.508
N3400 X-3.36 Y-8.573
N3405 X-3.234 Y-8.638
N3410 X-3.103 Y-8.7
N3415 X-2.965 Y-8.761
N3420 X-2.823 Y-8.819
N3425 X-2.675 Y-8.875
N3430 X-2.523 Y-8.928
N3435 X-2.366 Y-8.978
N3440 X-2.205 Y-9.025
N3445 X-2.039 Y-9.069
N3450 X-1.871 Y-9.11
N3455 X-1.699 Y-9.147
N3460 X-1.524 Y-9.181
N3465 X-1.346 Y-9.211
N3470 X-1.166 Y-9.238
N3475 X-.984 Y-9.261
N3480 X-.8 Y-9.28
N3485 X-.614 Y-9.295
N3490 X-.428 Y-9.306
N3495 X-.241 Y-9.313
N3500 X-.053 Y-9.316
N3505 X.113 Y-9.315
N3510 X.115 Y-9.715
N3515 X.141
N3520 X.337 Y-9.71
N3525 X.532 Y-9.701
N3530 X.726 Y-9.687
N3535 X.92 Y-9.67
N3540 X1.112 Y-9.648
N3545 X1.302 Y-9.623
N3550 X1.49 Y-9.593
N3555 X1.675 Y-9.56
N3560 X1.858 Y-9.523
N3565 X2.038 Y-9.482
N3570 X2.214 Y-9.437
N3575 X2.387 Y-9.389
N3580 X2.556 Y-9.338
N3585 X2.72 Y-9.283
N3590 X2.88 Y-9.225
N3595 X3.036 Y-9.165
N3600 X3.186 Y-9.101
N3605 X3.331 Y-9.035
N3610 X3.471 Y-8.967
N3615 X3.605 Y-8.896
N3620 X3.733 Y-8.824
N3625 X3.855 Y-8.749
N3630 X3.97 Y-8.674
N3635 X4.079 Y-8.597
N3640 X4.182 Y-8.519
N3645 X4.277 Y-8.441
N3650 X4.366 Y-8.362
N3655 X4.448 Y-8.284
N3660 X4.524 Y-8.206
N3665 X4.592 Y-8.128
N3670 X4.654 Y-8.052
N3675 X4.709 Y-7.976
N3680 X4.758 Y-7.902
N3685 X4.801 Y-7.83
N3690 X4.838 Y-7.759
N3695 X4.869 Y-7.691
N3700 X4.895 Y-7.624
N3705 X4.916 Y-7.559
N3710 X4.933 Y-7.496
N3715 X4.946 Y-7.434
N3720 X4.954 Y-7.374
N3725 X4.959 Y-7.314
N3730 X4.96 Y-7.255
N3735 X4.957 Y-7.195
N3740 X4.951 Y-7.135
N3745 X4.941 Y-7.074
N3750 X4.926 Y-7.011
N3755 X4.908 Y-6.948
N3760 X4.884 Y-6.882
N3765 X4.856 Y-6.814
N3770 X4.822 Y-6.745
N3775 X4.783 Y-6.674
N3780 X4.738 Y-6.601
N3785 X4.686 Y-6.526
N3790 X4.628 Y-6.45
N3795 X4.563 Y-6.373
N3800 X4.492 Y-6.295
N3805 X4.414 Y-6.217
N3810 X4.329 Y-6.138
N3815 X4.237 Y-6.06
N3820 X4.138 Y-5.982
N3825 X4.033 Y-5.904
N3830 X3.921 Y-5.828
N3835 X3.803 Y-5.753
N3840 X3.678 Y-5.68
N3845 X3.548 Y-5.608
N3850 X3.411 Y-5.538
N3855 X3.269 Y-5.471
N3860 X3.122 Y-5.406
N3865 X2.969 Y-5.344
N3870 X2.812 Y-5.284
N3875 X2.649 Y-5.228
N3880 X2.483 Y-5.174
N3885 X2.312 Y-5.124
N3890 X2.138 Y-5.078
N3895 X1.96 Y-5.035
N3900 X1.779 Y-4.996
N3905 X1.595 Y-4.96
N3910 X1.408 Y-4.928
N3915 X1.22 Y-4.9
N3920 X1.029 Y-4.877
N3925 X.836 Y-4.857
N3930 X.642 Y-4.841
N3935 X.447 Y-4.83
N3940 X.252 Y-4.822
N3945 X.056 Y-4.819
N3950 X-.141 Y-4.82
N3955 X-.337 Y-4.825
N3960 X-.532 Y-4.834
N3965 X-.726 Y-4.847
N3970 X-.92 Y-4.865
N3975 X-1.112 Y-4.886
N3980 X-1.302 Y-4.912
N3985 X-1.49 Y-4.942
N3990 X-1.675 Y-4.975
N3995 X-1.858 Y-5.012
N4000 X-2.038 Y-5.053
N4005 X-2.214 Y-5.098
N4010 X-2.387 Y-5.146
N4015 X-2.556 Y-5.197
N4020 X-2.72 Y-5.252
N4025 X-2.88 Y-5.309
N4030 X-3.036 Y-5.37
N4035 X-3.186 Y-5.434
N4040 X-3.331 Y-5.5
N4045 X-3.471 Y-5.568
N4050 X-3.605 Y-5.639
N4055 X-3.733 Y-5.711
N4060 X-3.855 Y-5.785
N4065 X-3.97 Y-5.861
N4070 X-4.079 Y-5.938
N4075 X-4.182 Y-6.016
N4080 X-4.277 Y-6.094
N4085 X-4.366 Y-6.172
N4090 X-4.448 Y-6.251
N4095 X-4.524 Y-6.329
N4100 X-4.592 Y-6.407
N4105 X-4.654 Y-6.483
N4110 X-4.709 Y-6.559
N4115 X-4.758 Y-6.633
N4120 X-4.801 Y-6.705
N4125 X-4.838 Y-6.775
N4130 X-4.869 Y-6.844
N4135 X-4.895 Y-6.911
N4140 X-4.916 Y-6.975
N4145 X-4.933 Y-7.039
N4150 X-4.946 Y-7.1
N4155 X-4.954 Y-7.161
N4160 X-4.959 Y-7.221
N4165 X-4.96 Y-7.28
N4170 X-4.957 Y-7.34
N4175 X-4.951 Y-7.4
N4180 X-4.941 Y-7.461
N4185 X-4.926 Y-7.523
N4190 X-4.908 Y-7.587
N4195 X-4.884 Y-7.653
N4200 X-4.856 Y-7.72
N4205 X-4.822 Y-7.79
N4210 X-4.783 Y-7.861
N4215 X-4.738 Y-7.934
N4220 X-4.686 Y-8.009
N4225 X-4.628 Y-8.085
N4230 X-4.563 Y-8.162
N4235 X-4.492 Y-8.24
N4240 X-4.414 Y-8.318
N4245 X-4.329 Y-8.397
N4250 X-4.237 Y-8.475
N4255 X-4.138 Y-8.553
N4260 X-4.033 Y-8.63
N4265 X-3.921 Y-8.707
N4270 X-3.803 Y-8.782
N4275 X-3.678 Y-8.855
N4280 X-3.548 Y-8.927
N4285 X-3.411 Y-8.997
N4290 X-3.269 Y-9.064
N4295 X-3.122 Y-9.129
N4300 X-2.969 Y-9.191
N4305 X-2.812 Y-9.251
N4310 X-2.649 Y-9.307
N4315 X-2.483 Y-9.36
N4320 X-2.312 Y-9.41
N4325 X-2.138 Y-9.457
N4330 X-1.96 Y-9.5
N4335 X-1.779 Y-9.539
N4340 X-1.595 Y-9.575
N4345 X-1.408 Y-9.607
N4350 X-1.22 Y-9.634
N4355 X-1.029 Y-9.658
N4360 X-.836 Y-9.678
N4365 X-.642 Y-9.694
N4370 X-.447 Y-9.705
N4375 X-.252 Y-9.713
N4380 X-.056 Y-9.716
N4385 X.115 Y-9.715
N4390 X.117 Y-10.115
N4395 X.147
N4400 X.351 Y-10.11
N4405 X.555 Y-10.1
N4410 X.758 Y-10.086
N4415 X.96 Y-10.068
N4420 X1.161 Y-10.045
N4425 X1.359 Y-10.019
N4430 X1.556 Y-9.988
N4435 X1.75 Y-9.953
N4440 X1.942 Y-9.914
N4445 X2.131 Y-9.871
N4450 X2.317 Y-9.824
N4455 X2.499 Y-9.773
N4460 X2.677 Y-9.719
N4465 X2.851 Y-9.661
N4470 X3.021 Y-9.6
N4475 X3.186 Y-9.535
N4480 X3.347 Y-9.468
N4485 X3.502 Y-9.397
N4490 X3.652 Y-9.323
N4495 X3.797 Y-9.247
N4500 X3.936 Y-9.168
N4505 X4.068 Y-9.088
N4510 X4.195 Y-9.005
N4515 X4.315 Y-8.92
N4520 X4.429 Y-8.834
N4525 X4.536 Y-8.746
N4530 X4.637 Y-8.657
N4535 X4.731 Y-8.567
N4540 X4.818 Y-8.477
N4545 X4.898 Y-8.386
N4550 X4.971 Y-8.296
N4555 X5.037 Y-8.205
N4560 X5.097 Y-8.114
N4565 X5.15 Y-8.025
N4570 X5.197 Y-7.936
N4575 X5.237 Y-7.847
N4580 X5.272 Y-7.76
N4585 X5.3 Y-7.673
N4590 X5.323 Y-7.587
N4595 X5.34 Y-7.502
N4600 X5.352 Y-7.417
N4605 X5.359 Y-7.333
N4610 X5.36 Y-7.249
N4615 X5.356 Y-7.165
N4620 X5.347 Y-7.081
N4625 X5.333 Y-6.996
N4630 X5.314 Y-6.911
N4635 X5.289 Y-6.824
N4640 X5.258 Y-6.737
N4645 X5.221 Y-6.649
N4650 X5.178 Y-6.561
N4655 X5.128 Y-6.471
N4660 X5.072 Y-6.381
N4665 X5.009 Y-6.291
N4670 X4.94 Y-6.2
N4675 X4.864 Y-6.109
N4680 X4.781 Y-6.019
N4685 X4.691 Y-5.929
N4690 X4.594 Y-5.839
N4695 X4.491 Y-5.751
N4700 X4.381 Y-5.664
N4705 X4.264 Y-5.578
N4710 X4.141 Y-5.494
N4715 X4.012 Y-5.412
N4720 X3.876 Y-5.332
N4725 X3.735 Y-5.254
N4730 X3.588 Y-5.179
N4735 X3.436 Y-5.107
N4740 X3.278 Y-5.038
N4745 X3.115 Y-4.971
N4750 X2.948 Y-4.908
N4755 X2.776 Y-4.848
N4760 X2.6 Y-4.792
N4765 X2.42 Y-4.739
N4770 X2.237 Y-4.69
N4775 X2.05 Y-4.645
N4780 X1.859 Y-4.604
N4785 X1.667 Y-4.566
N4790 X1.471 Y-4.533
N4795 X1.273 Y-4.504
N4800 X1.074 Y-4.479
N4805 X.873 Y-4.459
N4810 X.67 Y-4.442
N4815 X.467 Y-4.43
N4820 X.263 Y-4.422
N4825 X.058 Y-4.419
N4830 X-.147 Y-4.42
N4835 X-.351 Y-4.425
N4840 X-.555 Y-4.435
N4845 X-.758 Y-4.449
N4850 X-.96 Y-4.467
N4855 X-1.161 Y-4.489
N4860 X-1.359 Y-4.516
N4865 X-1.556 Y-4.547
N4870 X-1.75 Y-4.582
N4875 X-1.942 Y-4.621
N4880 X-2.131 Y-4.664
N4885 X-2.317 Y-4.711
N4890 X-2.499 Y-4.762
N4895 X-2.677 Y-4.816
N4900 X-2.851 Y-4.874
N4905 X-3.021 Y-4.935
N4910 X-3.186 Y-5.
N4915 X-3.347 Y-5.067
N4920 X-3.502 Y-5.138
N4925 X-3.652 Y-5.212
N4930 X-3.797 Y-5.288
N4935 X-3.936 Y-5.366
N4940 X-4.068 Y-5.447
N4945 X-4.195 Y-5.53
N4950 X-4.315 Y-5.615
N4955 X-4.429 Y-5.701
N4960 X-4.536 Y-5.789
N4965 X-4.637 Y-5.878
N4970 X-4.731 Y-5.968
N4975 X-4.818 Y-6.058
N4980 X-4.898 Y-6.149
N4985 X-4.971 Y-6.239
N4990 X-5.037 Y-6.33
N4995 X-5.097 Y-6.42
N5000 X-5.15 Y-6.51
N5005 X-5.197 Y-6.599
N5010 X-5.237 Y-6.688
N5015 X-5.272 Y-6.775
N5020 X-5.3 Y-6.862
N5025 X-5.323 Y-6.948
N5030 X-5.34 Y-7.033
N5035 X-5.352 Y-7.117
N5040 X-5.359 Y-7.202
N5045 X-5.36 Y-7.286
N5050 X-5.356 Y-7.37
N5055 X-5.347 Y-7.454
N5060 X-5.333 Y-7.539
N5065 X-5.314 Y-7.624
N5070 X-5.289 Y-7.71
N5075 X-5.258 Y-7.797
N5080 X-5.221 Y-7.885
N5085 X-5.178 Y-7.974
N5090 X-5.128 Y-8.064
N5095 X-5.072 Y-8.154
N5100 X-5.009 Y-8.244
N5105 X-4.94 Y-8.335
N5110 X-4.864 Y-8.426
N5115 X-4.781 Y-8.516
N5120 X-4.691 Y-8.606
N5125 X-4.594 Y-8.696
N5130 X-4.491 Y-8.784
N5135 X-4.381 Y-8.871
N5140 X-4.264 Y-8.957
N5145 X-4.141 Y-9.041
N5150 X-4.012 Y-9.123
N5155 X-3.876 Y-9.203
N5160 X-3.735 Y-9.28
N5165 X-3.588 Y-9.355
N5170 X-3.436 Y-9.428
N5175 X-3.278 Y-9.497
N5180 X-3.115 Y-9.564
N5185 X-2.948 Y-9.627
N5190 X-2.776 Y-9.687
N5195 X-2.6 Y-9.743
N5200 X-2.42 Y-9.796
N5205 X-2.237 Y-9.845
N5210 X-2.05 Y-9.89
N5215 X-1.859 Y-9.931
N5220 X-1.667 Y-9.968
N5225 X-1.471 Y-10.002
N5230 X-1.273 Y-10.031
N5235 X-1.074 Y-10.056
N5240 X-.873 Y-10.076
N5245 X-.67 Y-10.093
N5250 X-.467 Y-10.105
N5255 X-.263 Y-10.113
N5260 X-.058 Y-10.116
N5265 X.117 Y-10.115
N5270 X.147
N5275 X.351 Y-10.11
N5280 X.555 Y-10.1
N5285 X.758 Y-10.086
N5290 X.96 Y-10.068
N5295 X1.161 Y-10.045
N5300 X1.359 Y-10.019
N5305 X1.556 Y-9.988
N5310 X1.75 Y-9.953
N5315 X1.942 Y-9.914
N5320 X2.131 Y-9.871
N5325 X2.317 Y-9.824
N5330 X2.499 Y-9.773
N5335 X2.677 Y-9.719
N5340 X2.851 Y-9.661
N5345 X3.021 Y-9.6
N5350 X3.186 Y-9.535
N5355 X3.347 Y-9.468
N5360 X3.502 Y-9.397
N5365 X3.652 Y-9.323
N5370 X3.797 Y-9.247
N5375 X3.936 Y-9.168
N5380 X4.068 Y-9.088
N5385 X4.195 Y-9.005
N5390 X4.315 Y-8.92
N5395 X4.429 Y-8.834
N5400 X4.536 Y-8.746
N5405 X4.637 Y-8.657
N5410 X4.731 Y-8.567
N5415 X4.818 Y-8.477
N5420 X4.898 Y-8.386
N5425 X4.971 Y-8.296
N5430 X5.037 Y-8.205
N5435 X5.097 Y-8.114
N5440 X5.15 Y-8.025
N5445 X5.197 Y-7.936
N5450 X5.237 Y-7.847
N5455 X5.272 Y-7.76
N5460 X5.3 Y-7.673
N5465 X5.323 Y-7.587
N5470 X5.34 Y-7.502
N5475 X5.352 Y-7.417
N5480 X5.359 Y-7.333
N5485 X5.36 Y-7.249
N5490 X5.356 Y-7.165
N5495 X5.347 Y-7.081
N5500 X5.333 Y-6.996
N5505 X5.314 Y-6.911
N5510 X5.289 Y-6.824
N5515 X5.258 Y-6.737
N5520 X5.221 Y-6.649
N5525 X5.178 Y-6.561
N5530 X5.128 Y-6.471
N5535 X5.072 Y-6.381
N5540 X5.009 Y-6.291
N5545 X4.94 Y-6.2
N5550 X4.864 Y-6.109
N5555 X4.781 Y-6.019
N5560 X4.691 Y-5.929
N5565 X4.594 Y-5.839
N5570 X4.491 Y-5.751
N5575 X4.381 Y-5.664
N5580 X4.264 Y-5.578
N5585 X4.141 Y-5.494
N5590 X4.012 Y-5.412
N5595 X3.876 Y-5.332
N5600 X3.735 Y-5.254
N5605 X3.588 Y-5.179
N5610 X3.436 Y-5.107
N5615 X3.278 Y-5.038
N5620 X3.115 Y-4.971
N5625 X2.948 Y-4.908
N5630 X2.776 Y-4.848
N5635 X2.6 Y-4.792
N5640 X2.42 Y-4.739
N5645 X2.237 Y-4.69
N5650 X2.05 Y-4.645
N5655 X1.859 Y-4.604
N5660 X1.667 Y-4.566
N5665 X1.471 Y-4.533
N5670 X1.273 Y-4.504
N5675 X1.074 Y-4.479
N5680 X.873 Y-4.459
N5685 X.67 Y-4.442
N5690 X.467 Y-4.43
N5695 X.263 Y-4.422
N5700 X.058 Y-4.419
N5705 X-.147 Y-4.42
N5710 X-.351 Y-4.425
N5715 X-.555 Y-4.435
N5720 X-.758 Y-4.449
N5725 X-.96 Y-4.467
N5730 X-1.161 Y-4.489
N5735 X-1.359 Y-4.516
N5740 X-1.556 Y-4.547
N5745 X-1.75 Y-4.582
N5750 X-1.942 Y-4.621
N5755 X-2.131 Y-4.664
N5760 X-2.317 Y-4.711
N5765 X-2.499 Y-4.762
N5770 X-2.677 Y-4.816
N5775 X-2.851 Y-4.874
N5780 X-3.021 Y-4.935
N5785 X-3.186 Y-5.
N5790 X-3.347 Y-5.067
N5795 X-3.502 Y-5.138
N5800 X-3.652 Y-5.212
N5805 X-3.797 Y-5.288
N5810 X-3.936 Y-5.366
N5815 X-4.068 Y-5.447
N5820 X-4.195 Y-5.53
N5825 X-4.315 Y-5.615
N5830 X-4.429 Y-5.701
N5835 X-4.536 Y-5.789
N5840 X-4.637 Y-5.878
N5845 X-4.731 Y-5.968
N5850 X-4.818 Y-6.058
N5855 X-4.898 Y-6.149
N5860 X-4.971 Y-6.239
N5865 X-5.037 Y-6.33
N5870 X-5.097 Y-6.42
N5875 X-5.15 Y-6.51
N5880 X-5.197 Y-6.599
N5885 X-5.237 Y-6.688
N5890 X-5.272 Y-6.775
N5895 X-5.3 Y-6.862
N5900 X-5.323 Y-6.948
N5905 X-5.34 Y-7.033
N5910 X-5.352 Y-7.117
N5915 X-5.359 Y-7.202
N5920 X-5.36 Y-7.286
N5925 X-5.356 Y-7.37
N5930 X-5.347 Y-7.454
N5935 X-5.333 Y-7.539
N5940 X-5.314 Y-7.624
N5945 X-5.289 Y-7.71
N5950 X-5.258 Y-7.797
N5955 X-5.221 Y-7.885
N5960 X-5.178 Y-7.974
N5965 X-5.128 Y-8.064
N5970 X-5.072 Y-8.154
N5975 X-5.009 Y-8.244
N5980 X-4.94 Y-8.335
N5985 X-4.864 Y-8.426
N5990 X-4.781 Y-8.516
N5995 X-4.691 Y-8.606
N6000 X-4.594 Y-8.696
N6005 X-4.491 Y-8.784
N6010 X-4.381 Y-8.871
N6015 X-4.264 Y-8.957
N6020 X-4.141 Y-9.041
N6025 X-4.012 Y-9.123
N6030 X-3.876 Y-9.203
N6035 X-3.735 Y-9.28
N6040 X-3.588 Y-9.355
N6045 X-3.436 Y-9.428
N6050 X-3.278 Y-9.497
N6055 X-3.115 Y-9.564
N6060 X-2.948 Y-9.627
N6065 X-2.776 Y-9.687
N6070 X-2.6 Y-9.743
N6075 X-2.42 Y-9.796
N6080 X-2.237 Y-9.845
N6085 X-2.05 Y-9.89
N6090 X-1.859 Y-9.931
N6095 X-1.667 Y-9.968
N6100 X-1.471 Y-10.002
N6105 X-1.273 Y-10.031
N6110 X-1.074 Y-10.056
N6115 X-.873 Y-10.076
N6120 X-.67 Y-10.093
N6125 X-.467 Y-10.105
N6130 X-.263 Y-10.113
N6135 X-.058 Y-10.116
N6140 X.117 Y-10.115
N6145 G00 Z2.5
N6150 G90 G54 X.104 Y-7.315
N6155 G01 Z-.25 F750.
N6160 X.249 Y-7.311 F3000.
N6165 X.393 Y-7.305
N6170 X.536 Y-7.295
N6175 X.678 Y-7.282
N6180 X.807 Y-7.268
N6185 X.757 Y-7.261
N6190 X.617 Y-7.247
N6195 X.474 Y-7.235
N6200 X.331 Y-7.227
N6205 X.186 Y-7.221
N6210 X.041 Y-7.219
N6215 X-.104 Y-7.22
N6220 X-.249 Y-7.223
N6225 X-.393 Y-7.23
N6230 X-.536 Y-7.24
N6235 X-.678 Y-7.253
N6240 X-.807 Y-7.267
N6245 X-.757 Y-7.273
N6250 X-.617 Y-7.288
N6255 X-.474 Y-7.299
N6260 X-.331 Y-7.308
N6265 X-.186 Y-7.313
N6270 X-.041 Y-7.316
N6275 X.104 Y-7.315
N6280 X.11 Y-7.715
N6285 X.263 Y-7.711
N6290 X.416 Y-7.704
N6295 X.568 Y-7.694
N6300 X.718 Y-7.68
N6305 X.867 Y-7.663
N6310 X1.013 Y-7.644
N6315 X1.157 Y-7.621
N6320 X1.298 Y-7.596
N6325 X1.436 Y-7.567
N6330 X1.571 Y-7.537
N6335 X1.701 Y-7.504
N6340 X1.827 Y-7.469
N6345 X1.949 Y-7.432
N6350 X2.066 Y-7.393
N6355 X2.177 Y-7.353
N6360 X2.283 Y-7.311
N6365 X2.387 Y-7.268
N6370 X2.341 Y-7.247
N6375 X2.238 Y-7.205
N6380 X2.13 Y-7.164
N6385 X2.016 Y-7.125
N6390 X1.897 Y-7.087
N6395 X1.773 Y-7.051
N6400 X1.645 Y-7.016
N6405 X1.513 Y-6.984
N6410 X1.377 Y-6.955
N6415 X1.238 Y-6.928
N6420 X1.095 Y-6.904
N6425 X.95 Y-6.882
N6430 X.803 Y-6.864
N6435 X.653 Y-6.849
N6440 X.502 Y-6.836
N6445 X.35 Y-6.827
N6450 X.197 Y-6.822
N6455 X.044 Y-6.819
N6460 X-.11 Y-6.82
N6465 X-.263 Y-6.824
N6470 X-.416 Y-6.831
N6475 X-.568 Y-6.841
N6480 X-.718 Y-6.855
N6485 X-.867 Y-6.872
N6490 X-1.013 Y-6.891
N6495 X-1.157 Y-6.914
N6500 X-1.298 Y-6.939
N6505 X-1.436 Y-6.967
N6510 X-1.571 Y-6.998
N6515 X-1.701 Y-7.031
N6520 X-1.827 Y-7.066
N6525 X-1.949 Y-7.103
N6530 X-2.066 Y-7.142
N6535 X-2.177 Y-7.182
N6540 X-2.283 Y-7.223
N6545 X-2.387 Y-7.267
N6550 X-2.341 Y-7.288
N6555 X-2.238 Y-7.33
N6560 X-2.13 Y-7.37
N6565 X-2.016 Y-7.41
N6570 X-1.897 Y-7.448
N6575 X-1.773 Y-7.484
N6580 X-1.645 Y-7.518
N6585 X-1.513 Y-7.55
N6590 X-1.377 Y-7.58
N6595 X-1.238 Y-7.607
N6600 X-1.095 Y-7.631
N6605 X-.95 Y-7.652
N6610 X-.803 Y-7.671
N6615 X-.653 Y-7.686
N6620 X-.502 Y-7.698
N6625 X-.35 Y-7.707
N6630 X-.197 Y-7.713
N6635 X-.044 Y-7.716
N6640 X.106 Y-7.715
N6645 X.108 Y-8.115
N6650 X.116
N6655 X.278 Y-8.111
N6660 X.439 Y-8.103
N6665 X.6 Y-8.092
N6670 X.759 Y-8.078
N6675 X.916 Y-8.06
N6680 X1.071 Y-8.039
N6685 X1.224 Y-8.015
N6690 X1.374 Y-7.988
N6695 X1.521 Y-7.959
N6700 X1.664 Y-7.926
N6705 X1.804 Y-7.891
N6710 X1.939 Y-7.853
N6715 X2.07 Y-7.813
N6720 X2.197 Y-7.771
N6725 X2.318 Y-7.727
N6730 X2.434 Y-7.682
N6735 X2.544 Y-7.636
N6740 X2.648 Y-7.588
N6745 X2.746 Y-7.54
N6750 X2.837 Y-7.492
N6755 X2.922 Y-7.444
N6760 X3. Y-7.397
N6765 X3.071 Y-7.35
N6770 X3.135 Y-7.305
N6775 X3.184 Y-7.267
N6780 X3.168 Y-7.254
N6785 X3.108 Y-7.21
N6790 X3.041 Y-7.165
N6795 X2.967 Y-7.118
N6800 X2.886 Y-7.07
N6805 X2.798 Y-7.022
N6810 X2.704 Y-6.974
N6815 X2.603 Y-6.926
N6820 X2.497 Y-6.879
N6825 X2.384 Y-6.833
N6830 X2.266 Y-6.788
N6835 X2.143 Y-6.745
N6840 X2.014 Y-6.704
N6845 X1.881 Y-6.665
N6850 X1.744 Y-6.629
N6855 X1.602 Y-6.594
N6860 X1.457 Y-6.563
N6865 X1.309 Y-6.534
N6870 X1.158 Y-6.509
N6875 X1.004 Y-6.486
N6880 X.848 Y-6.466
N6885 X.69 Y-6.45
N6890 X.53 Y-6.437
N6895 X.37 Y-6.428
N6900 X.208 Y-6.422
N6905 X.046 Y-6.419
N6910 X-.116 Y-6.42
N6915 X-.278 Y-6.424
N6920 X-.439 Y-6.431
N6925 X-.6 Y-6.443
N6930 X-.759 Y-6.457
N6935 X-.916 Y-6.475
N6940 X-1.071 Y-6.495
N6945 X-1.224 Y-6.519
N6950 X-1.374 Y-6.546
N6955 X-1.521 Y-6.576
N6960 X-1.664 Y-6.609
N6965 X-1.804 Y-6.644
N6970 X-1.939 Y-6.682
N6975 X-2.07 Y-6.722
N6980 X-2.197 Y-6.764
N6985 X-2.318 Y-6.807
N6990 X-2.434 Y-6.853
N6995 X-2.544 Y-6.899
N7000 X-2.648 Y-6.947
N7005 X-2.746 Y-6.995
N7010 X-2.837 Y-7.043
N7015 X-2.922 Y-7.091
N7020 X-3. Y-7.138
N7025 X-3.071 Y-7.185
N7030 X-3.135 Y-7.23
N7035 X-3.184 Y-7.267
N7040 X-3.168 Y-7.281
N7045 X-3.108 Y-7.324
N7050 X-3.041 Y-7.37
N7055 X-2.967 Y-7.417
N7060 X-2.886 Y-7.465
N7065 X-2.798 Y-7.513
N7070 X-2.704 Y-7.561
N7075 X-2.603 Y-7.609
N7080 X-2.497 Y-7.656
N7085 X-2.384 Y-7.702
N7090 X-2.266 Y-7.746
N7095 X-2.143 Y-7.789
N7100 X-2.014 Y-7.831
N7105 X-1.881 Y-7.87
N7110 X-1.744 Y-7.906
N7115 X-1.602 Y-7.94
N7120 X-1.457 Y-7.972
N7125 X-1.309 Y-8.
N7130 X-1.158 Y-8.026
N7135 X-1.004 Y-8.049
N7140 X-.848 Y-8.068
N7145 X-.69 Y-8.085
N7150 X-.53 Y-8.097
N7155 X-.37 Y-8.107
N7160 X-.208 Y-8.113
N7165 X-.046 Y-8.116
N7170 X.108 Y-8.115
N7175 X.11 Y-8.515
N7180 X.122
N7185 X.293 Y-8.511
N7190 X.462 Y-8.503
N7195 X.631 Y-8.491
N7200 X.799 Y-8.476
N7205 X.965 Y-8.457
N7210 X1.129 Y-8.435
N7215 X1.29 Y-8.41
N7220 X1.449 Y-8.381
N7225 X1.605 Y-8.35
N7230 X1.757 Y-8.315
N7235 X1.906 Y-8.277
N7240 X2.051 Y-8.237
N7245 X2.192 Y-8.194
N7250 X2.328 Y-8.149
N7255 X2.458 Y-8.102
N7260 X2.584 Y-8.053
N7265 X2.704 Y-8.002
N7270 X2.819 Y-7.95
N7275 X2.927 Y-7.897
N7280 X3.029 Y-7.843
N7285 X3.125 Y-7.789
N7290 X3.214 Y-7.735
N7295 X3.296 Y-7.681
N7300 X3.371 Y-7.628
N7305 X3.439 Y-7.576
N7310 X3.5 Y-7.527
N7315 X3.554 Y-7.479
N7320 X3.601 Y-7.434
N7325 X3.641 Y-7.392
N7330 X3.675 Y-7.354
N7335 X3.702 Y-7.32
N7340 X3.724 Y-7.29
N7345 X3.739 Y-7.267
N7350 X3.734 Y-7.259
N7355 X3.715 Y-7.232
N7360 X3.691 Y-7.201
N7365 X3.661 Y-7.165
N7370 X3.625 Y-7.125
N7375 X3.581 Y-7.082
N7380 X3.531 Y-7.036
N7385 X3.474 Y-6.987
N7390 X3.41 Y-6.936
N7395 X3.339 Y-6.884
N7400 X3.261 Y-6.831
N7405 X3.176 Y-6.777
N7410 X3.084 Y-6.722
N7415 X2.986 Y-6.668
N7420 X2.881 Y-6.615
N7425 X2.77 Y-6.562
N7430 X2.653 Y-6.511
N7435 X2.53 Y-6.461
N7440 X2.402 Y-6.412
N7445 X2.269 Y-6.366
N7450 X2.131 Y-6.322
N7455 X1.989 Y-6.28
N7460 X1.842 Y-6.241
N7465 X1.692 Y-6.205
N7470 X1.538 Y-6.171
N7475 X1.381 Y-6.141
N7480 X1.22 Y-6.114
N7485 X1.058 Y-6.09
N7490 X.893 Y-6.069
N7495 X.726 Y-6.052
N7500 X.558 Y-6.038
N7505 X.389 Y-6.028
N7510 X.219 Y-6.022
N7515 X.048 Y-6.019
N7520 X-.122 Y-6.02
N7525 X-.293 Y-6.024
N7530 X-.462 Y-6.032
N7535 X-.631 Y-6.044
N7540 X-.799 Y-6.059
N7545 X-.965 Y-6.078
N7550 X-1.129 Y-6.1
N7555 X-1.29 Y-6.125
N7560 X-1.449 Y-6.154
N7565 X-1.605 Y-6.185
N7570 X-1.757 Y-6.22
N7575 X-1.906 Y-6.258
N7580 X-2.051 Y-6.298
N7585 X-2.192 Y-6.341
N7590 X-2.328 Y-6.386
N7595 X-2.458 Y-6.433
N7600 X-2.584 Y-6.482
N7605 X-2.704 Y-6.533
N7610 X-2.819 Y-6.585
N7615 X-2.927 Y-6.638
N7620 X-3.029 Y-6.692
N7625 X-3.125 Y-6.746
N7630 X-3.214 Y-6.8
N7635 X-3.296 Y-6.854
N7640 X-3.371 Y-6.907
N7645 X-3.439 Y-6.958
N7650 X-3.5 Y-7.008
N7655 X-3.554 Y-7.056
N7660 X-3.601 Y-7.101
N7665 X-3.641 Y-7.143
N7670 X-3.675 Y-7.181
N7675 X-3.702 Y-7.215
N7680 X-3.724 Y-7.245
N7685 X-3.739 Y-7.267
N7690 X-3.734 Y-7.276
N7695 X-3.715 Y-7.302
N7700 X-3.691 Y-7.334
N7705 X-3.661 Y-7.37
N7710 X-3.625 Y-7.41
N7715 X-3.581 Y-7.453
N7720 X-3.531 Y-7.499
N7725 X-3.474 Y-7.548
N7730 X-3.41 Y-7.599
N7735 X-3.339 Y-7.651
N7740 X-3.261 Y-7.704
N7745 X-3.176 Y-7.758
N7750 X-3.084 Y-7.812
N7755 X-2.986 Y-7.866
N7760 X-2.881 Y-7.92
N7765 X-2.77 Y-7.973
N7770 X-2.653 Y-8.024
N7775 X-2.53 Y-8.074
N7780 X-2.402 Y-8.123
N7785 X-2.269 Y-8.169
N7790 X-2.131 Y-8.213
N7795 X-1.989 Y-8.255
N7800 X-1.842 Y-8.294
N7805 X-1.692 Y-8.33
N7810 X-1.538 Y-8.364
N7815 X-1.381 Y-8.394
N7820 X-1.22 Y-8.421
N7825 X-1.058 Y-8.445
N7830 X-.893 Y-8.466
N7835 X-.726 Y-8.483
N7840 X-.558 Y-8.497
N7845 X-.389 Y-8.507
N7850 X-.219 Y-8.513
N7855 X-.048 Y-8.516
N7860 X.11 Y-8.515
N7865 X.111 Y-8.915
N7870 X.128
N7875 X.307 Y-8.91
N7880 X.486 Y-8.902
N7885 X.663 Y-8.89
N7890 X.839 Y-8.874
N7895 X1.014 Y-8.854
N7900 X1.186 Y-8.831
N7905 X1.357 Y-8.804
N7910 X1.524 Y-8.774
N7915 X1.689 Y-8.741
N7920 X1.851 Y-8.704
N7925 X2.009 Y-8.664
N7930 X2.163 Y-8.621
N7935 X2.313 Y-8.575
N7940 X2.458 Y-8.527
N7945 X2.599 Y-8.476
N7950 X2.735 Y-8.423
N7955 X2.865 Y-8.368
N7960 X2.99 Y-8.312
N7965 X3.108 Y-8.253
N7970 X3.221 Y-8.194
N7975 X3.327 Y-8.134
N7980 X3.427 Y-8.073
N7985 X3.521 Y-8.012
N7990 X3.607 Y-7.951
N7995 X3.686 Y-7.891
N8000 X3.759 Y-7.831
N8005 X3.825 Y-7.773
N8010 X3.883 Y-7.717
N8015 X3.935 Y-7.663
N8020 X3.981 Y-7.612
N8025 X4.02 Y-7.564
N8030 X4.052 Y-7.519
N8035 X4.08 Y-7.478
N8040 X4.102 Y-7.44
N8045 X4.119 Y-7.407
N8050 X4.132 Y-7.378
N8055 X4.142 Y-7.353
N8060 X4.149 Y-7.332
N8065 X4.154 Y-7.314
N8070 X4.157 Y-7.299
N8075 X4.159 Y-7.287
N8080 Y-7.276
N8085 X4.16 Y-7.265
N8090 X4.159 Y-7.254
N8095 X4.158 Y-7.243
N8100 X4.156 Y-7.229
N8105 X4.152 Y-7.213
N8110 X4.146 Y-7.194
N8115 X4.138 Y-7.171
N8120 X4.127 Y-7.144
N8125 X4.112 Y-7.114
N8130 X4.093 Y-7.079
N8135 X4.069 Y-7.04
N8140 X4.039 Y-6.997
N8145 X4.003 Y-6.951
N8150 X3.962 Y-6.901
N8155 X3.914 Y-6.848
N8160 X3.859 Y-6.793
N8165 X3.797 Y-6.736
N8170 X3.728 Y-6.678
N8175 X3.653 Y-6.618
N8180 X3.57 Y-6.557
N8185 X3.481 Y-6.496
N8190 X3.385 Y-6.435
N8195 X3.282 Y-6.375
N8200 X3.173 Y-6.315
N8205 X3.058 Y-6.256
N8210 X2.936 Y-6.198
N8215 X2.809 Y-6.142
N8220 X2.677 Y-6.088
N8225 X2.539 Y-6.036
N8230 X2.396 Y-5.987
N8235 X2.249 Y-5.939
N8240 X2.097 Y-5.895
N8245 X1.941 Y-5.853
N8250 X1.781 Y-5.815
N8255 X1.618 Y-5.779
N8260 X1.452 Y-5.747
N8265 X1.283 Y-5.718
N8270 X1.112 Y-5.693
N8275 X.938 Y-5.672
N8280 X.763 Y-5.654
N8285 X.586 Y-5.639
N8290 X.408 Y-5.629
N8295 X.23 Y-5.622
N8300 X.051 Y-5.619
N8305 X-.128 Y-5.62
N8310 X-.307 Y-5.624
N8315 X-.486 Y-5.633
N8320 X-.663 Y-5.645
N8325 X-.839 Y-5.661
N8330 X-1.014 Y-5.68
N8335 X-1.186 Y-5.704
N8340 X-1.357 Y-5.73
N8345 X-1.524 Y-5.761
N8350 X-1.689 Y-5.794
N8355 X-1.851 Y-5.831
N8360 X-2.009 Y-5.871
N8365 X-2.163 Y-5.914
N8370 X-2.313 Y-5.959
N8375 X-2.458 Y-6.008
N8380 X-2.599 Y-6.058
N8385 X-2.735 Y-6.111
N8390 X-2.865 Y-6.166
N8395 X-2.99 Y-6.223
N8400 X-3.108 Y-6.281
N8405 X-3.221 Y-6.341
N8410 X-3.327 Y-6.401
N8415 X-3.427 Y-6.462
N8420 X-3.521 Y-6.523
N8425 X-3.607 Y-6.584
N8430 X-3.686 Y-6.644
N8435 X-3.759 Y-6.703
N8440 X-3.825 Y-6.761
N8445 X-3.883 Y-6.818
N8450 X-3.935 Y-6.872
N8455 X-3.981 Y-6.923
N8460 X-4.02 Y-6.971
N8465 X-4.052 Y-7.016
N8470 X-4.08 Y-7.057
N8475 X-4.102 Y-7.094
N8480 X-4.119 Y-7.127
N8485 X-4.132 Y-7.156
N8490 X-4.142 Y-7.181
N8495 X-4.149 Y-7.203
N8500 X-4.154 Y-7.22
N8505 X-4.157 Y-7.235
N8510 X-4.159 Y-7.248
N8515 Y-7.259
N8520 X-4.16 Y-7.27
N8525 X-4.159 Y-7.28
N8530 X-4.158 Y-7.292
N8535 X-4.156 Y-7.306
N8540 X-4.152 Y-7.322
N8545 X-4.146 Y-7.341
N8550 X-4.138 Y-7.364
N8555 X-4.127 Y-7.39
N8560 X-4.112 Y-7.421
N8565 X-4.093 Y-7.456
N8570 X-4.069 Y-7.495
N8575 X-4.039 Y-7.538
N8580 X-4.003 Y-7.584
N8585 X-3.962 Y-7.634
N8590 X-3.914 Y-7.686
N8595 X-3.859 Y-7.741
N8600 X-3.797 Y-7.798
N8605 X-3.728 Y-7.857
N8610 X-3.653 Y-7.917
N8615 X-3.57 Y-7.977
N8620 X-3.481 Y-8.038
N8625 X-3.385 Y-8.099
N8630 X-3.282 Y-8.16
N8635 X-3.173 Y-8.22
N8640 X-3.058 Y-8.279
N8645 X-2.936 Y-8.336
N8650 X-2.809 Y-8.392
N8655 X-2.677 Y-8.447
N8660 X-2.539 Y-8.499
N8665 X-2.396 Y-8.548
N8670 X-2.249 Y-8.595
N8675 X-2.097 Y-8.64
N8680 X-1.941 Y-8.682
N8685 X-1.781 Y-8.72
N8690 X-1.618 Y-8.756
N8695 X-1.452 Y-8.788
N8700 X-1.283 Y-8.816
N8705 X-1.112 Y-8.842
N8710 X-.938 Y-8.863
N8715 X-.763 Y-8.881
N8720 X-.586 Y-8.896
N8725 X-.408 Y-8.906
N8730 X-.23 Y-8.913
N8735 X-.051 Y-8.916
N8740 X.111 Y-8.915
N8745 X.113 Y-9.315
N8750 X.134
N8755 X.322 Y-9.31
N8760 X.509 Y-9.301
N8765 X.695 Y-9.289
N8770 X.879 Y-9.272
N8775 X1.063 Y-9.251
N8780 X1.244 Y-9.227
N8785 X1.423 Y-9.199
N8790 X1.6 Y-9.167
N8795 X1.774 Y-9.132
N8800 X1.944 Y-9.093
N8805 X2.111 Y-9.051
N8810 X2.275 Y-9.005
N8815 X2.434 Y-8.957
N8820 X2.589 Y-8.905
N8825 X2.74 Y-8.851
N8830 X2.885 Y-8.794
N8835 X3.026 Y-8.735
N8840 X3.16 Y-8.673
N8845 X3.29 Y-8.61
N8850 X3.413 Y-8.545
N8855 X3.53 Y-8.479
N8860 X3.641 Y-8.411
N8865 X3.745 Y-8.343
N8870 X3.843 Y-8.274
N8875 X3.934 Y-8.205
N8880 X4.018 Y-8.136
N8885 X4.095 Y-8.068
N8890 X4.166 Y-8.001
N8895 X4.229 Y-7.935
N8900 X4.286 Y-7.87
N8905 X4.337 Y-7.808
N8910 X4.381 Y-7.748
N8915 X4.419 Y-7.69
N8920 X4.451 Y-7.635
N8925 X4.478 Y-7.583
N8930 X4.501 Y-7.535
N8935 X4.519 Y-7.489
N8940 X4.533 Y-7.446
N8945 X4.543 Y-7.405
N8950 X4.551 Y-7.367
N8955 X4.556 Y-7.33
N8960 X4.559 Y-7.295
N8965 X4.56 Y-7.26
N8970 X4.558 Y-7.225
N8975 X4.554 Y-7.189
N8980 X4.548 Y-7.152
N8985 X4.539 Y-7.112
N8990 X4.527 Y-7.071
N8995 X4.511 Y-7.027
N9000 X4.492 Y-6.979
N9005 X4.467 Y-6.929
N9010 X4.438 Y-6.876
N9015 X4.403 Y-6.82
N9020 X4.362 Y-6.762
N9025 X4.316 Y-6.7
N9030 X4.262 Y-6.637
N9035 X4.203 Y-6.572
N9040 X4.136 Y-6.505
N9045 X4.063 Y-6.437
N9050 X3.983 Y-6.369
N9055 X3.895 Y-6.3
N9060 X3.802 Y-6.231
N9065 X3.701 Y-6.162
N9070 X3.594 Y-6.094
N9075 X3.48 Y-6.027
N9080 X3.36 Y-5.961
N9085 X3.234 Y-5.897
N9090 X3.103 Y-5.835
N9095 X2.965 Y-5.774
N9100 X2.823 Y-5.716
N9105 X2.675 Y-5.66
N9110 X2.523 Y-5.607
N9115 X2.366 Y-5.557
N9120 X2.205 Y-5.51
N9125 X2.039 Y-5.466
N9130 X1.871 Y-5.425
N9135 X1.699 Y-5.387
N9140 X1.524 Y-5.354
N9145 X1.346 Y-5.323
N9150 X1.166 Y-5.297
N9155 X.984 Y-5.274
N9160 X.8 Y-5.255
N9165 X.614 Y-5.24
N9170 X.428 Y-5.229
N9175 X.241 Y-5.222
N9180 X.053 Y-5.219
N9185 X-.134 Y-5.22
N9190 X-.322 Y-5.225
N9195 X-.509 Y-5.233
N9200 X-.695 Y-5.246
N9205 X-.879 Y-5.263
N9210 X-1.063 Y-5.283
N9215 X-1.244 Y-5.308
N9220 X-1.423 Y-5.336
N9225 X-1.6 Y-5.368
N9230 X-1.774 Y-5.403
N9235 X-1.944 Y-5.442
N9240 X-2.111 Y-5.484
N9245 X-2.275 Y-5.53
N9250 X-2.434 Y-5.578
N9255 X-2.589 Y-5.63
N9260 X-2.74 Y-5.684
N9265 X-2.885 Y-5.741
N9270 X-3.026 Y-5.8
N9275 X-3.16 Y-5.861
N9280 X-3.29 Y-5.925
N9285 X-3.413 Y-5.99
N9290 X-3.53 Y-6.056
N9295 X-3.641 Y-6.124
N9300 X-3.745 Y-6.192
N9305 X-3.843 Y-6.261
N9310 X-3.934 Y-6.33
N9315 X-4.018 Y-6.399
N9320 X-4.095 Y-6.467
N9325 X-4.166 Y-6.534
N9330 X-4.229 Y-6.6
N9335 X-4.286 Y-6.665
N9340 X-4.337 Y-6.727
N9345 X-4.381 Y-6.787
N9350 X-4.419 Y-6.845
N9355 X-4.451 Y-6.9
N9360 X-4.478 Y-6.951
N9365 X-4.501 Y-7.
N9370 X-4.519 Y-7.046
N9375 X-4.533 Y-7.089
N9380 X-4.543 Y-7.13
N9385 X-4.551 Y-7.168
N9390 X-4.556 Y-7.204
N9395 X-4.559 Y-7.24
N9400 X-4.56 Y-7.275
N9405 X-4.558 Y-7.31
N9410 X-4.554 Y-7.346
N9415 X-4.548 Y-7.383
N9420 X-4.539 Y-7.422
N9425 X-4.527 Y-7.464
N9430 X-4.511 Y-7.508
N9435 X-4.492 Y-7.555
N9440 X-4.467 Y-7.605
N9445 X-4.438 Y-7.659
N9450 X-4.403 Y-7.715
N9455 X-4.362 Y-7.773
N9460 X-4.316 Y-7.834
N9465 X-4.262 Y-7.898
N9470 X-4.203 Y-7.963
N9475 X-4.136 Y-8.03
N9480 X-4.063 Y-8.097
N9485 X-3.983 Y-8.166
N9490 X-3.895 Y-8.235
N9495 X-3.802 Y-8.304
N9500 X-3.701 Y-8.373
N9505 X-3.594 Y-8.441
N9510 X-3.48 Y-8.508
N9515 X-3.36 Y-8.573
N9520 X-3.234 Y-8.638
N9525 X-3.103 Y-8.7
N9530 X-2.965 Y-8.761
N9535 X-2.823 Y-8.819
N9540 X-2.675 Y-8.875
N9545 X-2.523 Y-8.928
N9550 X-2.366 Y-8.978
N9555 X-2.205 Y-9.025
N9560 X-2.039 Y-9.069
N9565 X-1.871 Y-9.11
N9570 X-1.699 Y-9.147
N9575 X-1.524 Y-9.181
N9580 X-1.346 Y-9.211
N9585 X-1.166 Y-9.238
N9590 X-.984 Y-9.261
N9595 X-.8 Y-9.28
N9600 X-.614 Y-9.295
N9605 X-.428 Y-9.306
N9610 X-.241 Y-9.313
N9615 X-.053 Y-9.316
N9620 X.113 Y-9.315
N9625 X.115 Y-9.715
N9630 X.141
N9635 X.337 Y-9.71
N9640 X.532 Y-9.701
N9645 X.726 Y-9.687
N9650 X.92 Y-9.67
N9655 X1.112 Y-9.648
N9660 X1.302 Y-9.623
N9665 X1.49 Y-9.593
N9670 X1.675 Y-9.56
N9675 X1.858 Y-9.523
N9680 X2.038 Y-9.482
N9685 X2.214 Y-9.437
N9690 X2.387 Y-9.389
N9695 X2.556 Y-9.338
N9700 X2.72 Y-9.283
N9705 X2.88 Y-9.225
N9710 X3.036 Y-9.165
N9715 X3.186 Y-9.101
N9720 X3.331 Y-9.035
N9725 X3.471 Y-8.967
N9730 X3.605 Y-8.896
N9735 X3.733 Y-8.824
N9740 X3.855 Y-8.749
N9745 X3.97 Y-8.674
N9750 X4.079 Y-8.597
N9755 X4.182 Y-8.519
N9760 X4.277 Y-8.441
N9765 X4.366 Y-8.362
N9770 X4.448 Y-8.284
N9775 X4.524 Y-8.206
N9780 X4.592 Y-8.128
N9785 X4.654 Y-8.052
N9790 X4.709 Y-7.976
N9795 X4.758 Y-7.902
N9800 X4.801 Y-7.83
N9805 X4.838 Y-7.759
N9810 X4.869 Y-7.691
N9815 X4.895 Y-7.624
N9820 X4.916 Y-7.559
N9825 X4.933 Y-7.496
N9830 X4.946 Y-7.434
N9835 X4.954 Y-7.374
N9840 X4.959 Y-7.314
N9845 X4.96 Y-7.255
N9850 X4.957 Y-7.195
N9855 X4.951 Y-7.135
N9860 X4.941 Y-7.074
N9865 X4.926 Y-7.011
N9870 X4.908 Y-6.948
N9875 X4.884 Y-6.882
N9880 X4.856 Y-6.814
N9885 X4.822 Y-6.745
N9890 X4.783 Y-6.674
N9895 X4.738 Y-6.601
N9900 X4.686 Y-6.526
N9905 X4.628 Y-6.45
N9910 X4.563 Y-6.373
N9915 X4.492 Y-6.295
N9920 X4.414 Y-6.217
N9925 X4.329 Y-6.138
N9930 X4.237 Y-6.06
N9935 X4.138 Y-5.982
N9940 X4.033 Y-5.904
N9945 X3.921 Y-5.828
N9950 X3.803 Y-5.753
N9955 X3.678 Y-5.68
N9960 X3.548 Y-5.608
N9965 X3.411 Y-5.538
N9970 X3.269 Y-5.471
N9975 X3.122 Y-5.406
N9980 X2.969 Y-5.344
N9985 X2.812 Y-5.284
N9990 X2.649 Y-5.228
N9995 X2.483 Y-5.174
N5 X2.312 Y-5.124
N10 X2.138 Y-5.078
N15 X1.96 Y-5.035
N20 X1.779 Y-4.996
N25 X1.595 Y-4.96
N30 X1.408 Y-4.928
N35 X1.22 Y-4.9
N40 X1.029 Y-4.877
N45 X.836 Y-4.857
N50 X.642 Y-4.841
N55 X.447 Y-4.83
N60 X.252 Y-4.822
N65 X.056 Y-4.819
N70 X-.141 Y-4.82
N75 X-.337 Y-4.825
N80 X-.532 Y-4.834
N85 X-.726 Y-4.847
N90 X-.92 Y-4.865
N95 X-1.112 Y-4.886
N100 X-1.302 Y-4.912
N105 X-1.49 Y-4.942
N110 X-1.675 Y-4.975
N115 X-1.858 Y-5.012
N120 X-2.038 Y-5.053
N125 X-2.214 Y-5.098
N130 X-2.387 Y-5.146
N135 X-2.556 Y-5.197
N140 X-2.72 Y-5.252
N145 X-2.88 Y-5.309
N150 X-3.036 Y-5.37
N155 X-3.186 Y-5.434
N160 X-3.331 Y-5.5
N165 X-3.471 Y-5.568
N170 X-3.605 Y-5.639
N175 X-3.733 Y-5.711
N180 X-3.855 Y-5.785
N185 X-3.97 Y-5.861
N190 X-4.079 Y-5.938
N195 X-4.182 Y-6.016
N200 X-4.277 Y-6.094
N205 X-4.366 Y-6.172
N210 X-4.448 Y-6.251
N215 X-4.524 Y-6.329
N220 X-4.592 Y-6.407
N225 X-4.654 Y-6.483
N230 X-4.709 Y-6.559
N235 X-4.758 Y-6.633
N240 X-4.801 Y-6.705
N245 X-4.838 Y-6.775
N250 X-4.869 Y-6.844
N255 X-4.895 Y-6.911
N260 X-4.916 Y-6.975
N265 X-4.933 Y-7.039
N270 X-4.946 Y-7.1
N275 X-4.954 Y-7.161
N280 X-4.959 Y-7.221
N285 X-4.96 Y-7.28
N290 X-4.957 Y-7.34
N295 X-4.951 Y-7.4
N300 X-4.941 Y-7.461
N305 X-4.926 Y-7.523
N310 X-4.908 Y-7.587
N315 X-4.884 Y-7.653
N320 X-4.856 Y-7.72
N325 X-4.822 Y-7.79
N330 X-4.783 Y-7.861
N335 X-4.738 Y-7.934
N340 X-4.686 Y-8.009
N345 X-4.628 Y-8.085
N350 X-4.563 Y-8.162
N355 X-4.492 Y-8.24
N360 X-4.414 Y-8.318
N365 X-4.329 Y-8.397
N370 X-4.237 Y-8.475
N375 X-4.138 Y-8.553
N380 X-4.033 Y-8.63
N385 X-3.921 Y-8.707
N390 X-3.803 Y-8.782
N395 X-3.678 Y-8.855
N400 X-3.548 Y-8.927
N405 X-3.411 Y-8.997
N410 X-3.269 Y-9.064
N415 X-3.122 Y-9.129
N420 X-2.969 Y-9.191
N425 X-2.812 Y-9.251
N430 X-2.649 Y-9.307
N435 X-2.483 Y-9.36
N440 X-2.312 Y-9.41
N445 X-2.138 Y-9.457
N450 X-1.96 Y-9.5
N455 X-1.779 Y-9.539
N460 X-1.595 Y-9.575
N465 X-1.408 Y-9.607
N470 X-1.22 Y-9.634
N475 X-1.029 Y-9.658
N480 X-.836 Y-9.678
N485 X-.642 Y-9.694
N490 X-.447 Y-9.705
N495 X-.252 Y-9.713
N500 X-.056 Y-9.716
N505 X.115 Y-9.715
N510 X.117 Y-10.115
N515 X.147
N520 X.351 Y-10.11
N525 X.555 Y-10.1
N530 X.758 Y-10.086
N535 X.96 Y-10.068
N540 X1.161 Y-10.045
N545 X1.359 Y-10.019
N550 X1.556 Y-9.988
N555 X1.75 Y-9.953
N560 X1.942 Y-9.914
N565 X2.131 Y-9.871
N570 X2.317 Y-9.824
N575 X2.499 Y-9.773
N580 X2.677 Y-9.719
N585 X2.851 Y-9.661
N590 X3.021 Y-9.6
N595 X3.186 Y-9.535
N600 X3.347 Y-9.468
N605 X3.502 Y-9.397
N610 X3.652 Y-9.323
N615 X3.797 Y-9.247
N620 X3.936 Y-9.168
N625 X4.068 Y-9.088
N630 X4.195 Y-9.005
N635 X4.315 Y-8.92
N640 X4.429 Y-8.834
N645 X4.536 Y-8.746
N650 X4.637 Y-8.657
N655 X4.731 Y-8.567
N660 X4.818 Y-8.477
N665 X4.898 Y-8.386
N670 X4.971 Y-8.296
N675 X5.037 Y-8.205
N680 X5.097 Y-8.114
N685 X5.15 Y-8.025
N690 X5.197 Y-7.936
N695 X5.237 Y-7.847
N700 X5.272 Y-7.76
N705 X5.3 Y-7.673
N710 X5.323 Y-7.587
N715 X5.34 Y-7.502
N720 X5.352 Y-7.417
N725 X5.359 Y-7.333
N730 X5.36 Y-7.249
N735 X5.356 Y-7.165
N740 X5.347 Y-7.081
N745 X5.333 Y-6.996
N750 X5.314 Y-6.911
N755 X5.289 Y-6.824
N760 X5.258 Y-6.737
N765 X5.221 Y-6.649
N770 X5.178 Y-6.561
N775 X5.128 Y-6.471
N780 X5.072 Y-6.381
N785 X5.009 Y-6.291
N790 X4.94 Y-6.2
N795 X4.864 Y-6.109
N800 X4.781 Y-6.019
N805 X4.691 Y-5.929
N810 X4.594 Y-5.839
N815 X4.491 Y-5.751
N820 X4.381 Y-5.664
N825 X4.264 Y-5.578
N830 X4.141 Y-5.494
N835 X4.012 Y-5.412
N840 X3.876 Y-5.332
N845 X3.735 Y-5.254
N850 X3.588 Y-5.179
N855 X3.436 Y-5.107
N860 X3.278 Y-5.038
N865 X3.115 Y-4.971
N870 X2.948 Y-4.908
N875 X2.776 Y-4.848
N880 X2.6 Y-4.792
N885 X2.42 Y-4.739
N890 X2.237 Y-4.69
N895 X2.05 Y-4.645
N900 X1.859 Y-4.604
N905 X1.667 Y-4.566
N910 X1.471 Y-4.533
N915 X1.273 Y-4.504
N920 X1.074 Y-4.479
N925 X.873 Y-4.459
N930 X.67 Y-4.442
N935 X.467 Y-4.43
N940 X.263 Y-4.422
N945 X.058 Y-4.419
N950 X-.147 Y-4.42
N955 X-.351 Y-4.425
N960 X-.555 Y-4.435
N965 X-.758 Y-4.449
N970 X-.96 Y-4.467
N975 X-1.161 Y-4.489
N980 X-1.359 Y-4.516
N985 X-1.556 Y-4.547
N990 X-1.75 Y-4.582
N995 X-1.942 Y-4.621
N1000 X-2.131 Y-4.664
N1005 X-2.317 Y-4.711
N1010 X-2.499 Y-4.762
N1015 X-2.677 Y-4.816
N1020 X-2.851 Y-4.874
N1025 X-3.021 Y-4.935
N1030 X-3.186 Y-5.
N1035 X-3.347 Y-5.067
N1040 X-3.502 Y-5.138
N1045 X-3.652 Y-5.212
N1050 X-3.797 Y-5.288
N1055 X-3.936 Y-5.366
N1060 X-4.068 Y-5.447
N1065 X-4.195 Y-5.53
N1070 X-4.315 Y-5.615
N1075 X-4.429 Y-5.701
N1080 X-4.536 Y-5.789
N1085 X-4.637 Y-5.878
N1090 X-4.731 Y-5.968
N1095 X-4.818 Y-6.058
N1100 X-4.898 Y-6.149
N1105 X-4.971 Y-6.239
N1110 X-5.037 Y-6.33
N1115 X-5.097 Y-6.42
N1120 X-5.15 Y-6.51
N1125 X-5.197 Y-6.599
N1130 X-5.237 Y-6.688
N1135 X-5.272 Y-6.775
N1140 X-5.3 Y-6.862
N1145 X-5.323 Y-6.948
N1150 X-5.34 Y-7.033
N1155 X-5.352 Y-7.117
N1160 X-5.359 Y-7.202
N1165 X-5.36 Y-7.286
N1170 X-5.356 Y-7.37
N1175 X-5.347 Y-7.454
N1180 X-5.333 Y-7.539
N1185 X-5.314 Y-7.624
N1190 X-5.289 Y-7.71
N1195 X-5.258 Y-7.797
N1200 X-5.221 Y-7.885
N1205 X-5.178 Y-7.974
N1210 X-5.128 Y-8.064
N1215 X-5.072 Y-8.154
N1220 X-5.009 Y-8.244
N1225 X-4.94 Y-8.335
N1230 X-4.864 Y-8.426
N1235 X-4.781 Y-8.516
N1240 X-4.691 Y-8.606
N1245 X-4.594 Y-8.696
N1250 X-4.491 Y-8.784
N1255 X-4.381 Y-8.871
N1260 X-4.264 Y-8.957
N1265 X-4.141 Y-9.041
N1270 X-4.012 Y-9.123
N1275 X-3.876 Y-9.203
N1280 X-3.735 Y-9.28
N1285 X-3.588 Y-9.355
N1290 X-3.436 Y-9.428
N1295 X-3.278 Y-9.497
N1300 X-3.115 Y-9.564
N1305 X-2.948 Y-9.627
N1310 X-2.776 Y-9.687
N1315 X-2.6 Y-9.743
N1320 X-2.42 Y-9.796
N1325 X-2.237 Y-9.845
N1330 X-2.05 Y-9.89
N1335 X-1.859 Y-9.931
N1340 X-1.667 Y-9.968
N1345 X-1.471 Y-10.002
N1350 X-1.273 Y-10.031
N1355 X-1.074 Y-10.056
N1360 X-.873 Y-10.076
N1365 X-.67 Y-10.093
N1370 X-.467 Y-10.105
N1375 X-.263 Y-10.113
N1380 X-.058 Y-10.116
N1385 X.117 Y-10.115
N1390 X.147
N1395 X.351 Y-10.11
N1400 X.555 Y-10.1
N1405 X.758 Y-10.086
N1410 X.96 Y-10.068
N1415 X1.161 Y-10.045
N1420 X1.359 Y-10.019
N1425 X1.556 Y-9.988
N1430 X1.75 Y-9.953
N1435 X1.942 Y-9.914
N1440 X2.131 Y-9.871
N1445 X2.317 Y-9.824
N1450 X2.499 Y-9.773
N1455 X2.677 Y-9.719
N1460 X2.851 Y-9.661
N1465 X3.021 Y-9.6
N1470 X3.186 Y-9.535
N1475 X3.347 Y-9.468
N1480 X3.502 Y-9.397
N1485 X3.652 Y-9.323
N1490 X3.797 Y-9.247
N1495 X3.936 Y-9.168
N1500 X4.068 Y-9.088
N1505 X4.195 Y-9.005
N1510 X4.315 Y-8.92
N1515 X4.429 Y-8.834
N1520 X4.536 Y-8.746
N1525 X4.637 Y-8.657
N1530 X4.731 Y-8.567
N1535 X4.818 Y-8.477
N1540 X4.898 Y-8.386
N1545 X4.971 Y-8.296
N1550 X5.037 Y-8.205
N1555 X5.097 Y-8.114
N1560 X5.15 Y-8.025
N1565 X5.197 Y-7.936
N1570 X5.237 Y-7.847
N1575 X5.272 Y-7.76
N1580 X5.3 Y-7.673
N1585 X5.323 Y-7.587
N1590 X5.34 Y-7.502
N1595 X5.352 Y-7.417
N1600 X5.359 Y-7.333
N1605 X5.36 Y-7.249
N1610 X5.356 Y-7.165
N1615 X5.347 Y-7.081
N1620 X5.333 Y-6.996
N1625 X5.314 Y-6.911
N1630 X5.289 Y-6.824
N1635 X5.258 Y-6.737
N1640 X5.221 Y-6.649
N1645 X5.178 Y-6.561
N1650 X5.128 Y-6.471
N1655 X5.072 Y-6.381
N1660 X5.009 Y-6.291
N1665 X4.94 Y-6.2
N1670 X4.864 Y-6.109
N1675 X4.781 Y-6.019
N1680 X4.691 Y-5.929
N1685 X4.594 Y-5.839
N1690 X4.491 Y-5.751
N1695 X4.381 Y-5.664
N1700 X4.264 Y-5.578
N1705 X4.141 Y-5.494
N1710 X4.012 Y-5.412
N1715 X3.876 Y-5.332
N1720 X3.735 Y-5.254
N1725 X3.588 Y-5.179
N1730 X3.436 Y-5.107
N1735 X3.278 Y-5.038
N1740 X3.115 Y-4.971
N1745 X2.948 Y-4.908
N1750 X2.776 Y-4.848
N1755 X2.6 Y-4.792
N1760 X2.42 Y-4.739
N1765 X2.237 Y-4.69
N1770 X2.05 Y-4.645
N1775 X1.859 Y-4.604
N1780 X1.667 Y-4.566
N1785 X1.471 Y-4.533
N1790 X1.273 Y-4.504
N1795 X1.074 Y-4.479
N1800 X.873 Y-4.459
N1805 X.67 Y-4.442
N1810 X.467 Y-4.43
N1815 X.263 Y-4.422
N1820 X.058 Y-4.419
N1825 X-.147 Y-4.42
N1830 X-.351 Y-4.425
N1835 X-.555 Y-4.435
N1840 X-.758 Y-4.449
N1845 X-.96 Y-4.467
N1850 X-1.161 Y-4.489
N1855 X-1.359 Y-4.516
N1860 X-1.556 Y-4.547
N1865 X-1.75 Y-4.582
N1870 X-1.942 Y-4.621
N1875 X-2.131 Y-4.664
N1880 X-2.317 Y-4.711
N1885 X-2.499 Y-4.762
N1890 X-2.677 Y-4.816
N1895 X-2.851 Y-4.874
N1900 X-3.021 Y-4.935
N1905 X-3.186 Y-5.
N1910 X-3.347 Y-5.067
N1915 X-3.502 Y-5.138
N1920 X-3.652 Y-5.212
N1925 X-3.797 Y-5.288
N1930 X-3.936 Y-5.366
N1935 X-4.068 Y-5.447
N1940 X-4.195 Y-5.53
N1945 X-4.315 Y-5.615
N1950 X-4.429 Y-5.701
N1955 X-4.536 Y-5.789
N1960 X-4.637 Y-5.878
N1965 X-4.731 Y-5.968
N1970 X-4.818 Y-6.058
N1975 X-4.898 Y-6.149
N1980 X-4.971 Y-6.239
N1985 X-5.037 Y-6.33
N1990 X-5.097 Y-6.42
N1995 X-5.15 Y-6.51
N2000 X-5.197 Y-6.599
N2005 X-5.237 Y-6.688
N2010 X-5.272 Y-6.775
N2015 X-5.3 Y-6.862
N2020 X-5.323 Y-6.948
N2025 X-5.34 Y-7.033
N2030 X-5.352 Y-7.117
N2035 X-5.359 Y-7.202
N2040 X-5.36 Y-7.286
N2045 X-5.356 Y-7.37
N2050 X-5.347 Y-7.454
N2055 X-5.333 Y-7.539
N2060 X-5.314 Y-7.624
N2065 X-5.289 Y-7.71
N2070 X-5.258 Y-7.797
N2075 X-5.221 Y-7.885
N2080 X-5.178 Y-7.974
N2085 X-5.128 Y-8.064
N2090 X-5.072 Y-8.154
N2095 X-5.009 Y-8.244
N2100 X-4.94 Y-8.335
N2105 X-4.864 Y-8.426
N2110 X-4.781 Y-8.516
N2115 X-4.691 Y-8.606
N2120 X-4.594 Y-8.696
N2125 X-4.491 Y-8.784
N2130 X-4.381 Y-8.871
N2135 X-4.264 Y-8.957
N2140 X-4.141 Y-9.041
N2145 X-4.012 Y-9.123
N2150 X-3.876 Y-9.203
N2155 X-3.735 Y-9.28
N2160 X-3.588 Y-9.355
N2165 X-3.436 Y-9.428
N2170 X-3.278 Y-9.497
N2175 X-3.115 Y-9.564
N2180 X-2.948 Y-9.627
N2185 X-2.776 Y-9.687
N2190 X-2.6 Y-9.743
N2195 X-2.42 Y-9.796
N2200 X-2.237 Y-9.845
N2205 X-2.05 Y-9.89
N2210 X-1.859 Y-9.931
N2215 X-1.667 Y-9.968
N2220 X-1.471 Y-10.002
N2225 X-1.273 Y-10.031
N2230 X-1.074 Y-10.056
N2235 X-.873 Y-10.076
N2240 X-.67 Y-10.093
N2245 X-.467 Y-10.105
N2250 X-.263 Y-10.113
N2255 X-.058 Y-10.116
N2260 X.117 Y-10.115
N2265 G00 Z2.5
N2270 Z25. M09
N2275 G00 G90 M05
N2280 G54 Z30 X0 Y0
N2285 M30
%
