%
O00001
(This Post Processor is distributed on an "AS IS" BASIS, )
(WITHOUT WARRANTIES OR CONDITIONS OF ANY KIND, either express or implied. )
N5 G21 G17 G40 G80 G90
N10 T01 M06 (1mm)
N15 G54 G90 G94 Z50
N20 S23000 M03
N25 G00 G90 X.366 Y-.147
N30 G43 H01 Z3. M08
N35 G01 Z-.2 F750.
N40 X-.001 Y.221 F2250.
N45 G03 X-.072 Y.25 I-.071 J-.071
N50 G01 X-13.762 F3000.
N55 G03 Y-.25 I0 J-.25
N60 G01 X13.418
N65 G03 Y.25 I0 J.25
N70 G01 X-.272
N75 G03 X-.343 Y.221 I0 J-.1
N80 G01 X-.71 Y-.147
N85 G00 Z3.
N90 G90 G54 X.366 Y-.147
N95 Z2.8
N100 G01 Z-.4 F750.
N105 X-.001 Y.221 F2250.
N110 G03 X-.072 Y.25 I-.071 J-.071
N115 G01 X-13.762 F3000.
N120 G03 Y-.25 I0 J-.25
N125 G01 X13.418
N130 G03 Y.25 I0 J.25
N135 G01 X-.272
N140 G03 X-.343 Y.221 I0 J-.1
N145 G01 X-.71 Y-.147
N150 G00 Z3.
N155 G90 G54 X.366 Y-.147
N160 Z2.6
N165 G01 Z-.6 F750.
N170 X-.001 Y.221 F2250.
N175 G03 X-.072 Y.25 I-.071 J-.071
N180 G01 X-13.762 F3000.
N185 G03 Y-.25 I0 J-.25
N190 G01 X13.418
N195 G03 Y.25 I0 J.25
N200 G01 X-.272
N205 G03 X-.343 Y.221 I0 J-.1
N210 G01 X-.71 Y-.147
N215 G00 Z3.
N220 G90 G54 X.366 Y-.147
N225 Z2.4
N230 G01 Z-.8 F750.
N235 X-.001 Y.221 F2250.
N240 G03 X-.072 Y.25 I-.071 J-.071
N245 G01 X-13.762 F3000.
N250 G03 Y-.25 I0 J-.25
N255 G01 X13.418
N260 G03 Y.25 I0 J.25
N265 G01 X-.272
N270 G03 X-.343 Y.221 I0 J-.1
N275 G01 X-.71 Y-.147
N280 G00 Z3.
N285 G90 G54 X.366 Y-.147
N290 Z2.2
N295 G01 Z-1. F750.
N300 X-.001 Y.221 F2250.
N305 G03 X-.072 Y.25 I-.071 J-.071
N310 G01 X-13.762 F3000.
N315 G03 Y-.25 I0 J-.25
N320 G01 X13.418
N325 G03 Y.25 I0 J.25
N330 G01 X-.272
N335 G03 X-.343 Y.221 I0 J-.1
N340 G01 X-.71 Y-.147
N345 G00 Z3.
N350 G90 G54 X.366 Y-.147
N355 Z2.
N360 G01 Z-1.2 F750.
N365 X-.001 Y.221 F2250.
N370 G03 X-.072 Y.25 I-.071 J-.071
N375 G01 X-13.762 F3000.
N380 G03 Y-.25 I0 J-.25
N385 G01 X13.418
N390 G03 Y.25 I0 J.25
N395 G01 X-.272
N400 G03 X-.343 Y.221 I0 J-.1
N405 G01 X-.71 Y-.147
N410 G00 Z3.
N415 G90 G54 X.366 Y.103
N420 G01 Z-.2 F750.
N425 X-.001 Y.471 F2250.
N430 G03 X-.072 Y.5 I-.071 J-.071
N435 G01 X-13.762 F3000.
N440 G03 Y-.5 I0 J-.5
N445 G01 X13.418
N450 G03 Y.5 I0 J.5
N455 G01 X-.272
N460 G03 X-.343 Y.471 I0 J-.1
N465 G01 X-.71 Y.103
N470 G00 Z3.
N475 G90 G54 X.366 Y.103
N480 Z2.8
N485 G01 Z-.4 F750.
N490 X-.001 Y.471 F2250.
N495 G03 X-.072 Y.5 I-.071 J-.071
N500 G01 X-13.762 F3000.
N505 G03 Y-.5 I0 J-.5
N510 G01 X13.418
N515 G03 Y.5 I0 J.5
N520 G01 X-.272
N525 G03 X-.343 Y.471 I0 J-.1
N530 G01 X-.71 Y.103
N535 G00 Z3.
N540 G90 G54 X.366 Y.103
N545 Z2.6
N550 G01 Z-.6 F750.
N555 X-.001 Y.471 F2250.
N560 G03 X-.072 Y.5 I-.071 J-.071
N565 G01 X-13.762 F3000.
N570 G03 Y-.5 I0 J-.5
N575 G01 X13.418
N580 G03 Y.5 I0 J.5
N585 G01 X-.272
N590 G03 X-.343 Y.471 I0 J-.1
N595 G01 X-.71 Y.103
N600 G00 Z3.
N605 G90 G54 X.366 Y.103
N610 Z2.4
N615 G01 Z-.8 F750.
N620 X-.001 Y.471 F2250.
N625 G03 X-.072 Y.5 I-.071 J-.071
N630 G01 X-13.762 F3000.
N635 G03 Y-.5 I0 J-.5
N640 G01 X13.418
N645 G03 Y.5 I0 J.5
N650 G01 X-.272
N655 G03 X-.343 Y.471 I0 J-.1
N660 G01 X-.71 Y.103
N665 G00 Z3.
N670 G90 G54 X.366 Y.103
N675 Z2.2
N680 G01 Z-1. F750.
N685 X-.001 Y.471 F2250.
N690 G03 X-.072 Y.5 I-.071 J-.071
N695 G01 X-13.762 F3000.
N700 G03 Y-.5 I0 J-.5
N705 G01 X13.418
N710 G03 Y.5 I0 J.5
N715 G01 X-.272
N720 G03 X-.343 Y.471 I0 J-.1
N725 G01 X-.71 Y.103
N730 G00 Z3.
N735 G90 G54 X.366 Y.103
N740 Z2.
N745 G01 Z-1.2 F750.
N750 X-.001 Y.471 F2250.
N755 G03 X-.072 Y.5 I-.071 J-.071
N760 G01 X-13.762 F3000.
N765 G03 Y-.5 I0 J-.5
N770 G01 X13.418
N775 G03 Y.5 I0 J.5
N780 G01 X-.272
N785 G03 X-.343 Y.471 I0 J-.1
N790 G01 X-.71 Y.103
N795 G00 Z3.
N800 Z25. M09
N805 G00 G90 M05
N810 G54 Z30 X210 Y0
N815 M30
%
