%
O00001
(This Post Processor is distributed on an "AS IS" BASIS, )
(WITHOUT WARRANTIES OR CONDITIONS OF ANY KIND, either express or implied. )
N5 G21 G17 G40 G80 G90
N10 T04 M06 (poltorashka)
N15 G54 G90 G94 Z30
N20 S7000 M03

(==========Row_1=========)
N25 G00 G90 X-4.571 Y-5.794
N30 G43 H04 Z5. M08
N35 G98 G81 Z-0.5 R3. F3000.
N40 X-3.801 Y-5.41
N45 X-2.999 Y-5.098
N50 X-2.172 Y-4.861
N55 X-1.327 Y-4.701
N60 X-.47 Y-4.619
N65 X.39 Y-4.615
N70 X1.247 Y-4.69
N75 X2.094 Y-4.843
N80 X2.923 Y-5.073
N85 X3.728 Y-5.378
N90 X4.501 Y-5.755
N95 X5.236 Y-6.202
N100 G80 Z5. M09

(==========Row_2=========)
N105 G00 G90 X14.6 Y-8.9
N110 G43 H04 Z5. M08
N115 G98 G81 Z-0.5 R3. F3000.
N120 
N125 X-2.999 Y-5.998
N130 X-2.172 Y-5.761
N135 X-1.327 Y-5.601
N140 X-.47 Y-5.519
N145 X.39 Y-5.515
N150 X1.247 Y-5.59
N155 X2.094 Y-5.743
N160 X2.923 Y-5.973
N165 X3.728 Y-6.278
N170 X4.501 Y-6.655
N175 
N180 G80 Z5. M09

N185 G00 G90 M05
N190 G54 Z15 X210 Y0
N195 M30
%