O00001
(This Post Processor is distributed on an "AS IS" BASIS, )
(WITHOUT WARRANTIES OR CONDITIONS OF ANY KIND, either express or implied. )
N5 G21 G17 G40 G80 G90
N10 T05 M06 (rezinka 2mm)
N15 G54 G90 G94 Z35
N20 S7000 M03

(==========Row_1========= Y=3.627)
N25 G00 G90 X-8.057 Y3.627
N30 G43 H05 Z6. M08
N35 G99 G81 Z-5. R6. F3000.
N40 X-7.08 Y4.2
N50 X-5.01 Y5.116
N55 X-3.929 Y5.454
N60 X-2.826 Y5.71
N65 X-1.706 Y5.881
N70 X-.577 Y5.968
N75 X.556 Y5.969
N80 X1.685 Y5.884
N85 X2.805 Y5.714
N90 X3.909 Y5.46
N95 X4.99 Y5.123
N110 X8.039 Y3.639
N115 G80 Z6. M09
(-------cleaning------------)
N000 G98 G81 Z-2. R3. F3000.
N000 X-5.299 Y9.
N000 X-1.665 Y9.
N000 X2.019 Y9.
N000 X5.642 Y9.
N000 X9.093 Y9.
N000 G98 G81 Z-5. R3. F3000.
(---------------------------)

(==========Row_2========= Y=2.427)
N120 G00 G90 X-8.057 Y2.427
N125 G43 H05 Z6. M08
N130 G99 G81 Z-5. R6. F3000.
N135 X-7.08 Y3.0
N140 X-6.062 Y3.497
N145 X-5.01 Y3.916
N150 X-3.929 Y4.254
N155 X-2.826 Y4.51
N160 X-1.706 Y4.681
N165 X-.577 Y4.768
N170 X.556 Y4.769
N175 X1.685 Y4.684
N180 X2.805 Y4.514
N185 X3.909 Y4.26
N190 X4.99 Y3.923
N195 X6.043 Y3.506
N200 X7.061 Y3.01
N205 X8.039 Y2.439
N210 G80 Z6. M09

(==========Row_3========= Y=1.227)
N215 G00 G90 X-8.057 Y1.227
N220 G43 H05 Z6. M08
N225 G99 G81 Z-5. R6. F3000.
N230 X-7.08 Y1.8
N235 X-6.062 Y2.297
N240 X-5.01 Y2.716
N245 X-3.929 Y3.054
N250 X-2.826 Y3.31
N255 X-1.706 Y3.481
N260 X-.577 Y3.568
N265 X.556 Y3.569
N270 X1.685 Y3.484
N275 X2.805 Y3.314
N280 X3.909 Y3.06
N285 X4.99 Y2.723
N290 X6.043 Y2.306
N295 X7.061 Y1.81
N300 X8.039 Y1.239
N305 G80 Z6. M09
(-------cleaning------------)
N000 G98 G81 Z-2. R3. F3000.
N000 X-5.299 Y10
N000 X-1.665 Y10
N000 X2.019 Y10
N000 X5.642 Y10
N000 X9.093 Y10
N000 G98 G81 Z-5. R3. F3000.
(---------------------------)
(==========Row_4========= Y=0.027)
N310 G00 G90 X-8.057 Y0.027
N315 G43 H05 Z6. M08
N320 G99 G81 Z-5. R6. F3000.
N325 X-7.08 Y0.6
N330 X-6.062 Y1.097
N335 X-5.01 Y1.516
N340 X-3.929 Y1.854
N345 X-2.826 Y2.11
N350 X-1.706 Y2.281
N355 X-.577 Y2.368
N360 X.556 Y2.369
N365 X1.685 Y2.284
N370 X2.805 Y2.114
N375 X3.909 Y1.86
N380 X4.99 Y1.523
N385 X6.043 Y1.106
N390 X7.061 Y0.61
N395 X8.039 Y0.039
N400 G80 Z6. M09

(==========Row_5========= Y=-1.173)
N405 G00 G90 X-8.057 Y-1.173
N410 G43 H05 Z6. M08
N415 G99 G81 Z-5. R6. F3000.
N420 X-7.08 Y-0.6
N425 X-6.062 Y-0.103
N430 X-5.01 Y0.316
N435 X-3.929 Y0.654
N440 X-2.826 Y0.91
N445 X-1.706 Y1.081
N450 X-.577 Y1.168
N455 X.556 Y1.169
N460 X1.685 Y1.084
N465 X2.805 Y0.914
N470 X3.909 Y0.66
N475 X4.99 Y0.323
N480 X6.043 Y-0.094
N485 X7.061 Y-0.59
N490 X8.039 Y-1.161
N495 G80 Z6. M09

(==========Row_6========= Y=-2.373)
N500 G00 G90 X-8.057 Y-2.373
N505 G43 H05 Z6. M08
N510 G99 G81 Z-5. R6. F3000.
N515 X-7.08 Y-1.8
N520 X-6.062 Y-1.303
N525 X-5.01 Y-0.884
N530 X-3.929 Y-0.546
N535 X-2.826 Y-0.29
N540 X-1.706 Y-0.119
N545 X-.577 Y-0.032
N550 X.556 Y-0.031
N555 X1.685 Y-0.116
N560 X2.805 Y-0.286
N565 X3.909 Y-0.54
N570 X4.99 Y-0.877
N575 X6.043 Y-1.294
N580 X7.061 Y-1.79
N585 X8.039 Y-2.361
N590 G80 Z6. M09
(-------cleaning------------)
N000 G98 G81 Z-2. R3. F3000.
N000 X-5.299 Y12
N000 X-1.665 Y12
N000 X2.019 Y12
N000 X5.642 Y12
N000 X9.093 Y12
N000 G98 G81 Z-5. R3. F3000.
(---------------------------)
(==========Row_7========= Y=-3.573)
N595 G00 G90 X-8.057 Y-3.573
N600 G43 H05 Z6. M08
N605 G99 G81 Z-5. R6. F3000.
N615 X-6.062 Y-2.503
N620 X-5.01 Y-2.084
N625 X-3.929 Y-1.746
N630 X-2.826 Y-1.49
N635 X-1.706 Y-1.319
N640 X-.577 Y-1.232
N645 X.556 Y-1.231
N650 X1.685 Y-1.316
N655 X2.805 Y-1.486
N660 X3.909 Y-1.74
N665 X4.99 Y-2.077
N670 X6.043 Y-2.494
N685 G80 Z6. M09
(==========Row_8========= Y=-4.773)
N690 G00 G90 X-8.057 Y-9.5
N695 G43 H05 Z6. M08
N700 G99 G81 Z-5. R6. F3000.
N710 X-6.062 Y-3.703
N715 X-5.01 Y-3.284
N720 X-3.929 Y-2.946
N725 X-2.826 Y-2.69
N730 X-1.706 Y-2.519
N735 X-.577 Y-2.432
N740 X.556 Y-2.431
N745 X1.685 Y-2.516
N750 X2.805 Y-2.686
N755 X3.909 Y-2.94
N760 X4.99 Y-3.277
N765 X6.043 Y-3.694
N780 G80 Z6. M09
(-------cleaning------------)
N000 G98 G81 Z-2. R3. F3000.
N000 X-6 Y13
N000 X-2 Y13
N000 X2 Y13
N000 X4 Y13
N000 X8 Y13
N000 G98 G81 Z-5. R3. F3000.
(---------------------------)
(==========Row_9========= Y=-5.973)
N785 G00 G90 X-8.057 Y-9.5
N790 G43 H05 Z6. M08
N795 G99 G81 Z-5. R6. F3000.
N805 X-6.062 Y-4.903
N810 X-5.01 Y-4.484
N815 X-3.929 Y-4.146
N820 X-2.826 Y-3.89
N825 X-1.706 Y-3.719
N830 X-.577 Y-3.632
N835 X.556 Y-3.631
N840 X1.685 Y-3.716
N845 X2.805 Y-3.886
N850 X3.909 Y-4.14
N855 X4.99 Y-4.477
N860 X6.043 Y-4.894
N875 G80 Z6. M09
(==========Row_10======== Y=-7.173)
N880 G00 G90 X-8.057 Y-10
N885 G43 H05 Z6. M08
N890 G99 G81 Z-5. R6. F3000.
N905 X-5.01 Y-5.684
N910 X-3.929 Y-5.346
N915 X-2.826 Y-5.09
N920 X-1.706 Y-4.919
N925 X-.577 Y-4.832
N930 X.556 Y-4.831
N935 X1.685 Y-4.916
N940 X2.805 Y-5.086
N945 X3.909 Y-5.34
N950 X4.99 Y-5.677
N970 G80 Z6. M09
(==========Row_11======== Y=-8.373)
N975 G00 G90 X-7 Y-10
N980 G43 H05 Z6. M08
N985 G99 G81 Z-5. R6. F3000.
N1010 X-2.826 Y-6.29
N1015 X-1.706 Y-6.119
N1020 X-.577 Y-6.032
N1025 X.556 Y-6.031
N1030 X1.685 Y-6.116
N1035 X2.805 Y-6.286
N1040 X3.909 Y-6.54
(-------cleaning------------)
N0000 G98 G81 Z-2. R3. F3000.
N0000 X-1.706 Y-9
N0000 X-.577 Y-9
N0000 X.556 Y-9
N0000 X1.685 Y-9
N0000 X2.805 Y-9
N0000 X3.909 Y-9
(---------------------------)
N1065 G80 Z6. M09
N1070 G00 G90 M05
N1075 G54 Z25 X210 Y0
N1080 M30
%