%
O00001
(This Post Processor is distributed on an "AS IS" BASIS, )
(WITHOUT WARRANTIES OR CONDITIONS OF ANY KIND, either express or implied. )
N5 G21 G17 G40 G80 G90
N10 T01 M06 (?>;B>@0H:0)
N15 G54 G90 G94
N20 S23000 M03
N25 G00 G90 X12.533 Y11.163
N30 G43 H01 Z3. M08
N35 G01 Z-.2 F750.
N40 X12.54 Y11.943 F2250.
N45 G03 X12.497 Y12.049 I-.15 J.001
N50 G01 X12.275 Y12.275 F3000.
N55 X12.037 Y12.509
N60 X11.795 Y12.738
N65 X11.548 Y12.962
N70 X11.297 Y13.181
N75 X11.042 Y13.396
N80 X10.783 Y13.606
N85 X10.52 Y13.811
N90 X10.252 Y14.011
N95 X9.981 Y14.206
N100 X9.706 Y14.396
N105 X9.427 Y14.58
N110 X9.144 Y14.759
N115 X8.858 Y14.933
N120 X8.568 Y15.102
N125 X8.274 Y15.265
N130 X7.977 Y15.423
N135 X7.677 Y15.575
N140 X7.374 Y15.721
N145 X7.067 Y15.861
N150 X6.757 Y15.996
N155 X6.444 Y16.125
N160 X6.128 Y16.248
N165 X5.809 Y16.364
N170 X5.487 Y16.475
N175 X5.163 Y16.58
N180 X4.835 Y16.678
N185 X4.505 Y16.77
N190 X4.172 Y16.855
N195 X3.837 Y16.935
N200 X3.5 Y17.007
N205 X3.159 Y17.073
N210 X2.817 Y17.133
N215 X2.472 Y17.185
N220 X2.125 Y17.231
N225 X1.776 Y17.27
N230 X1.425 Y17.302
N235 X1.071 Y17.327
N240 X.716 Y17.345
N245 X.359 Y17.356
N250 X0 Y17.36
N255 X-.306 Y17.357
N260 X-.611 Y17.349
N265 X-.811 Y17.341
N270 X-1.08 Y17.327
N275 X-1.439 Y17.301
N280 X-1.639 Y17.284
N285 X-1.87 Y17.26
N290 X-2.133 Y17.23
N295 X-2.431 Y17.191
N300 X-2.773 Y17.14
N305 X-2.951 Y17.11
N310 X-3.142 Y17.076
N315 X-3.346 Y17.038
N320 X-3.562 Y16.994
N325 X-3.791 Y16.945
N330 X-4.034 Y16.889
N335 X-4.292 Y16.825
N340 X-4.566 Y16.754
N345 X-4.856 Y16.672
N350 X-5.162 Y16.58
N355 X-5.487 Y16.475
N360 X-5.809 Y16.364
N365 X-6.128 Y16.248
N370 X-6.444 Y16.125
N375 X-6.757 Y15.996
N380 X-7.067 Y15.861
N385 X-7.374 Y15.721
N390 X-7.677 Y15.575
N395 X-7.977 Y15.423
N400 X-8.274 Y15.265
N405 X-8.568 Y15.102
N410 X-8.858 Y14.933
N415 X-9.144 Y14.76
N420 X-9.427 Y14.58
N425 X-9.706 Y14.396
N430 X-9.981 Y14.206
N435 X-10.252 Y14.011
N440 X-10.519 Y13.811
N445 X-10.783 Y13.606
N450 X-11.042 Y13.396
N455 X-11.297 Y13.181
N460 X-11.548 Y12.962
N465 X-11.795 Y12.738
N470 X-12.037 Y12.509
N475 X-12.275 Y12.275
N480 X-12.509 Y12.037
N485 X-12.738 Y11.795
N490 X-12.962 Y11.548
N495 X-13.181 Y11.297
N500 X-13.396 Y11.042
N505 X-13.606 Y10.783
N510 X-13.811 Y10.52
N515 X-14.011 Y10.252
N520 X-14.206 Y9.981
N525 X-14.396 Y9.706
N530 X-14.58 Y9.427
N535 X-14.759 Y9.144
N540 X-14.933 Y8.858
N545 X-15.102 Y8.568
N550 X-15.265 Y8.274
N555 X-15.423 Y7.977
N560 X-15.575 Y7.677
N565 X-15.721 Y7.374
N570 X-15.861 Y7.067
N575 X-15.996 Y6.757
N580 X-16.125 Y6.444
N585 X-16.248 Y6.128
N590 X-16.364 Y5.809
N595 X-16.475 Y5.487
N600 X-16.58 Y5.163
N605 X-16.678 Y4.835
N610 X-16.77 Y4.505
N615 X-16.855 Y4.172
N620 X-16.935 Y3.837
N625 X-17.007 Y3.499
N630 X-17.073 Y3.159
N635 X-17.133 Y2.817
N640 X-17.185 Y2.472
N645 X-17.231 Y2.125
N650 X-17.27 Y1.776
N655 X-17.302 Y1.425
N660 X-17.327 Y1.071
N665 X-17.345 Y.716
N670 X-17.356 Y.359
N675 X-17.36 Y0
N680 X-17.357 Y-.306
N685 X-17.349 Y-.611
N690 X-17.341 Y-.811
N695 X-17.327 Y-1.08
N700 X-17.301 Y-1.439
N705 X-17.284 Y-1.639
N710 X-17.26 Y-1.87
N715 X-17.23 Y-2.133
N720 X-17.191 Y-2.431
N725 X-17.14 Y-2.773
N730 X-17.11 Y-2.951
N735 X-17.076 Y-3.142
N740 X-17.038 Y-3.346
N745 X-16.994 Y-3.562
N750 X-16.945 Y-3.791
N755 X-16.889 Y-4.034
N760 X-16.825 Y-4.292
N765 X-16.754 Y-4.566
N770 X-16.672 Y-4.856
N775 X-16.58 Y-5.162
N780 X-16.475 Y-5.487
N785 X-16.364 Y-5.809
N790 X-16.248 Y-6.128
N795 X-16.125 Y-6.444
N800 X-15.996 Y-6.757
N805 X-15.861 Y-7.067
N810 X-15.721 Y-7.374
N815 X-15.575 Y-7.677
N820 X-15.423 Y-7.977
N825 X-15.265 Y-8.274
N830 X-15.102 Y-8.568
N835 X-14.933 Y-8.858
N840 X-14.76 Y-9.144
N845 X-14.58 Y-9.427
N850 X-14.396 Y-9.706
N855 X-14.206 Y-9.981
N860 X-14.011 Y-10.252
N865 X-13.811 Y-10.519
N870 X-13.606 Y-10.783
N875 X-13.396 Y-11.042
N880 X-13.181 Y-11.297
N885 X-12.962 Y-11.548
N890 X-12.738 Y-11.795
N895 X-12.509 Y-12.037
N900 X-12.275 Y-12.275
N905 X-12.037 Y-12.509
N910 X-11.795 Y-12.738
N915 X-11.548 Y-12.962
N920 X-11.297 Y-13.181
N925 X-11.042 Y-13.396
N930 X-10.783 Y-13.606
N935 X-10.52 Y-13.811
N940 X-10.252 Y-14.011
N945 X-9.981 Y-14.206
N950 X-9.706 Y-14.396
N955 X-9.427 Y-14.58
N960 X-9.144 Y-14.759
N965 X-8.858 Y-14.933
N970 X-8.568 Y-15.102
N975 X-8.274 Y-15.265
N980 X-7.977 Y-15.423
N985 X-7.677 Y-15.575
N990 X-7.374 Y-15.721
N995 X-7.067 Y-15.861
N1000 X-6.757 Y-15.996
N1005 X-6.444 Y-16.125
N1010 X-6.128 Y-16.248
N1015 X-5.809 Y-16.364
N1020 X-5.487 Y-16.475
N1025 X-5.163 Y-16.58
N1030 X-4.835 Y-16.678
N1035 X-4.505 Y-16.77
N1040 X-4.172 Y-16.855
N1045 X-3.837 Y-16.935
N1050 X-3.499 Y-17.007
N1055 X-3.159 Y-17.073
N1060 X-2.817 Y-17.133
N1065 X-2.472 Y-17.185
N1070 X-2.125 Y-17.231
N1075 X-1.776 Y-17.27
N1080 X-1.425 Y-17.302
N1085 X-1.071 Y-17.327
N1090 X-.716 Y-17.345
N1095 X-.359 Y-17.356
N1100 X0 Y-17.36
N1105 X.306 Y-17.357
N1110 X.611 Y-17.349
N1115 X.811 Y-17.341
N1120 X1.08 Y-17.327
N1125 X1.439 Y-17.301
N1130 X1.639 Y-17.284
N1135 X1.87 Y-17.26
N1140 X2.133 Y-17.23
N1145 X2.431 Y-17.191
N1150 X2.773 Y-17.14
N1155 X2.951 Y-17.11
N1160 X3.142 Y-17.076
N1165 X3.346 Y-17.038
N1170 X3.562 Y-16.994
N1175 X3.791 Y-16.945
N1180 X4.034 Y-16.889
N1185 X4.292 Y-16.825
N1190 X4.566 Y-16.754
N1195 X4.856 Y-16.672
N1200 X5.162 Y-16.58
N1205 X5.487 Y-16.475
N1210 X5.809 Y-16.364
N1215 X6.128 Y-16.248
N1220 X6.444 Y-16.125
N1225 X6.757 Y-15.996
N1230 X7.067 Y-15.861
N1235 X7.374 Y-15.721
N1240 X7.677 Y-15.575
N1245 X7.977 Y-15.423
N1250 X8.274 Y-15.265
N1255 X8.568 Y-15.102
N1260 X8.858 Y-14.933
N1265 X9.144 Y-14.76
N1270 X9.427 Y-14.58
N1275 X9.706 Y-14.396
N1280 X9.981 Y-14.206
N1285 X10.252 Y-14.011
N1290 X10.519 Y-13.811
N1295 X10.783 Y-13.606
N1300 X11.042 Y-13.396
N1305 X11.297 Y-13.181
N1310 X11.548 Y-12.962
N1315 X11.795 Y-12.738
N1320 X12.037 Y-12.509
N1325 X12.275 Y-12.275
N1330 X12.509 Y-12.037
N1335 X12.738 Y-11.795
N1340 X12.962 Y-11.548
N1345 X13.181 Y-11.297
N1350 X13.396 Y-11.042
N1355 X13.606 Y-10.783
N1360 X13.811 Y-10.52
N1365 X14.011 Y-10.252
N1370 X14.206 Y-9.981
N1375 X14.396 Y-9.706
N1380 X14.58 Y-9.427
N1385 X14.759 Y-9.144
N1390 X14.933 Y-8.858
N1395 X15.102 Y-8.568
N1400 X15.265 Y-8.274
N1405 X15.423 Y-7.977
N1410 X15.575 Y-7.677
N1415 X15.721 Y-7.374
N1420 X15.861 Y-7.067
N1425 X15.996 Y-6.757
N1430 X16.125 Y-6.444
N1435 X16.248 Y-6.128
N1440 X16.364 Y-5.809
N1445 X16.475 Y-5.487
N1450 X16.58 Y-5.163
N1455 X16.678 Y-4.835
N1460 X16.77 Y-4.505
N1465 X16.855 Y-4.172
N1470 X16.935 Y-3.837
N1475 X17.007 Y-3.5
N1480 X17.073 Y-3.159
N1485 X17.133 Y-2.817
N1490 X17.185 Y-2.472
N1495 X17.231 Y-2.125
N1500 X17.27 Y-1.776
N1505 X17.302 Y-1.425
N1510 X17.327 Y-1.071
N1515 X17.345 Y-.716
N1520 X17.356 Y-.359
N1525 X17.36 Y0
N1530 X17.357 Y.306
N1535 X17.349 Y.611
N1540 X17.341 Y.811
N1545 X17.327 Y1.08
N1550 X17.301 Y1.438
N1555 X17.284 Y1.639
N1560 X17.26 Y1.87
N1565 X17.23 Y2.133
N1570 X17.191 Y2.431
N1575 X17.14 Y2.773
N1580 X17.11 Y2.951
N1585 X17.076 Y3.142
N1590 X17.038 Y3.346
N1595 X16.994 Y3.562
N1600 X16.945 Y3.791
N1605 X16.889 Y4.034
N1610 X16.825 Y4.292
N1615 X16.754 Y4.566
N1620 X16.672 Y4.855
N1625 X16.58 Y5.162
N1630 X16.475 Y5.487
N1635 X16.364 Y5.809
N1640 X16.248 Y6.128
N1645 X16.125 Y6.444
N1650 X15.996 Y6.757
N1655 X15.861 Y7.067
N1660 X15.721 Y7.374
N1665 X15.575 Y7.677
N1670 X15.423 Y7.977
N1675 X15.265 Y8.274
N1680 X15.102 Y8.568
N1685 X14.933 Y8.858
N1690 X14.76 Y9.144
N1695 X14.58 Y9.427
N1700 X14.396 Y9.706
N1705 X14.206 Y9.981
N1710 X14.011 Y10.252
N1715 X13.811 Y10.519
N1720 X13.606 Y10.783
N1725 X13.396 Y11.042
N1730 X13.181 Y11.297
N1735 X12.962 Y11.548
N1740 X12.738 Y11.795
N1745 X12.509 Y12.037
N1750 X12.287 Y12.263
N1755 G03 X12.181 Y12.308 I-.107 J-.105
N1760 G01 X11.401 Y12.316
N1765 G00 Z3.
N1770 G90 G54 X12.533 Y11.163
N1775 Z2.8
N1780 G01 Z-.4 F750.
N1785 X12.54 Y11.943 F2250.
N1790 G03 X12.497 Y12.049 I-.15 J.001
N1795 G01 X12.275 Y12.275 F3000.
N1800 X12.037 Y12.509
N1805 X11.795 Y12.738
N1810 X11.548 Y12.962
N1815 X11.297 Y13.181
N1820 X11.042 Y13.396
N1825 X10.783 Y13.606
N1830 X10.52 Y13.811
N1835 X10.252 Y14.011
N1840 X9.981 Y14.206
N1845 X9.706 Y14.396
N1850 X9.427 Y14.58
N1855 X9.144 Y14.759
N1860 X8.858 Y14.933
N1865 X8.568 Y15.102
N1870 X8.274 Y15.265
N1875 X7.977 Y15.423
N1880 X7.677 Y15.575
N1885 X7.374 Y15.721
N1890 X7.067 Y15.861
N1895 X6.757 Y15.996
N1900 X6.444 Y16.125
N1905 X6.128 Y16.248
N1910 X5.809 Y16.364
N1915 X5.487 Y16.475
N1920 X5.163 Y16.58
N1925 X4.835 Y16.678
N1930 X4.505 Y16.77
N1935 X4.172 Y16.855
N1940 X3.837 Y16.935
N1945 X3.5 Y17.007
N1950 X3.159 Y17.073
N1955 X2.817 Y17.133
N1960 X2.472 Y17.185
N1965 X2.125 Y17.231
N1970 X1.776 Y17.27
N1975 X1.425 Y17.302
N1980 X1.071 Y17.327
N1985 X.716 Y17.345
N1990 X.359 Y17.356
N1995 X0 Y17.36
N2000 X-.306 Y17.357
N2005 X-.611 Y17.349
N2010 X-.811 Y17.341
N2015 X-1.08 Y17.327
N2020 X-1.439 Y17.301
N2025 X-1.639 Y17.284
N2030 X-1.87 Y17.26
N2035 X-2.133 Y17.23
N2040 X-2.431 Y17.191
N2045 X-2.773 Y17.14
N2050 X-2.951 Y17.11
N2055 X-3.142 Y17.076
N2060 X-3.346 Y17.038
N2065 X-3.562 Y16.994
N2070 X-3.791 Y16.945
N2075 X-4.034 Y16.889
N2080 X-4.292 Y16.825
N2085 X-4.566 Y16.754
N2090 X-4.856 Y16.672
N2095 X-5.162 Y16.58
N2100 X-5.487 Y16.475
N2105 X-5.809 Y16.364
N2110 X-6.128 Y16.248
N2115 X-6.444 Y16.125
N2120 X-6.757 Y15.996
N2125 X-7.067 Y15.861
N2130 X-7.374 Y15.721
N2135 X-7.677 Y15.575
N2140 X-7.977 Y15.423
N2145 X-8.274 Y15.265
N2150 X-8.568 Y15.102
N2155 X-8.858 Y14.933
N2160 X-9.144 Y14.76
N2165 X-9.427 Y14.58
N2170 X-9.706 Y14.396
N2175 X-9.981 Y14.206
N2180 X-10.252 Y14.011
N2185 X-10.519 Y13.811
N2190 X-10.783 Y13.606
N2195 X-11.042 Y13.396
N2200 X-11.297 Y13.181
N2205 X-11.548 Y12.962
N2210 X-11.795 Y12.738
N2215 X-12.037 Y12.509
N2220 X-12.275 Y12.275
N2225 X-12.509 Y12.037
N2230 X-12.738 Y11.795
N2235 X-12.962 Y11.548
N2240 X-13.181 Y11.297
N2245 X-13.396 Y11.042
N2250 X-13.606 Y10.783
N2255 X-13.811 Y10.52
N2260 X-14.011 Y10.252
N2265 X-14.206 Y9.981
N2270 X-14.396 Y9.706
N2275 X-14.58 Y9.427
N2280 X-14.759 Y9.144
N2285 X-14.933 Y8.858
N2290 X-15.102 Y8.568
N2295 X-15.265 Y8.274
N2300 X-15.423 Y7.977
N2305 X-15.575 Y7.677
N2310 X-15.721 Y7.374
N2315 X-15.861 Y7.067
N2320 X-15.996 Y6.757
N2325 X-16.125 Y6.444
N2330 X-16.248 Y6.128
N2335 X-16.364 Y5.809
N2340 X-16.475 Y5.487
N2345 X-16.58 Y5.163
N2350 X-16.678 Y4.835
N2355 X-16.77 Y4.505
N2360 X-16.855 Y4.172
N2365 X-16.935 Y3.837
N2370 X-17.007 Y3.499
N2375 X-17.073 Y3.159
N2380 X-17.133 Y2.817
N2385 X-17.185 Y2.472
N2390 X-17.231 Y2.125
N2395 X-17.27 Y1.776
N2400 X-17.302 Y1.425
N2405 X-17.327 Y1.071
N2410 X-17.345 Y.716
N2415 X-17.356 Y.359
N2420 X-17.36 Y0
N2425 X-17.357 Y-.306
N2430 X-17.349 Y-.611
N2435 X-17.341 Y-.811
N2440 X-17.327 Y-1.08
N2445 X-17.301 Y-1.439
N2450 X-17.284 Y-1.639
N2455 X-17.26 Y-1.87
N2460 X-17.23 Y-2.133
N2465 X-17.191 Y-2.431
N2470 X-17.14 Y-2.773
N2475 X-17.11 Y-2.951
N2480 X-17.076 Y-3.142
N2485 X-17.038 Y-3.346
N2490 X-16.994 Y-3.562
N2495 X-16.945 Y-3.791
N2500 X-16.889 Y-4.034
N2505 X-16.825 Y-4.292
N2510 X-16.754 Y-4.566
N2515 X-16.672 Y-4.856
N2520 X-16.58 Y-5.162
N2525 X-16.475 Y-5.487
N2530 X-16.364 Y-5.809
N2535 X-16.248 Y-6.128
N2540 X-16.125 Y-6.444
N2545 X-15.996 Y-6.757
N2550 X-15.861 Y-7.067
N2555 X-15.721 Y-7.374
N2560 X-15.575 Y-7.677
N2565 X-15.423 Y-7.977
N2570 X-15.265 Y-8.274
N2575 X-15.102 Y-8.568
N2580 X-14.933 Y-8.858
N2585 X-14.76 Y-9.144
N2590 X-14.58 Y-9.427
N2595 X-14.396 Y-9.706
N2600 X-14.206 Y-9.981
N2605 X-14.011 Y-10.252
N2610 X-13.811 Y-10.519
N2615 X-13.606 Y-10.783
N2620 X-13.396 Y-11.042
N2625 X-13.181 Y-11.297
N2630 X-12.962 Y-11.548
N2635 X-12.738 Y-11.795
N2640 X-12.509 Y-12.037
N2645 X-12.275 Y-12.275
N2650 X-12.037 Y-12.509
N2655 X-11.795 Y-12.738
N2660 X-11.548 Y-12.962
N2665 X-11.297 Y-13.181
N2670 X-11.042 Y-13.396
N2675 X-10.783 Y-13.606
N2680 X-10.52 Y-13.811
N2685 X-10.252 Y-14.011
N2690 X-9.981 Y-14.206
N2695 X-9.706 Y-14.396
N2700 X-9.427 Y-14.58
N2705 X-9.144 Y-14.759
N2710 X-8.858 Y-14.933
N2715 X-8.568 Y-15.102
N2720 X-8.274 Y-15.265
N2725 X-7.977 Y-15.423
N2730 X-7.677 Y-15.575
N2735 X-7.374 Y-15.721
N2740 X-7.067 Y-15.861
N2745 X-6.757 Y-15.996
N2750 X-6.444 Y-16.125
N2755 X-6.128 Y-16.248
N2760 X-5.809 Y-16.364
N2765 X-5.487 Y-16.475
N2770 X-5.163 Y-16.58
N2775 X-4.835 Y-16.678
N2780 X-4.505 Y-16.77
N2785 X-4.172 Y-16.855
N2790 X-3.837 Y-16.935
N2795 X-3.499 Y-17.007
N2800 X-3.159 Y-17.073
N2805 X-2.817 Y-17.133
N2810 X-2.472 Y-17.185
N2815 X-2.125 Y-17.231
N2820 X-1.776 Y-17.27
N2825 X-1.425 Y-17.302
N2830 X-1.071 Y-17.327
N2835 X-.716 Y-17.345
N2840 X-.359 Y-17.356
N2845 X0 Y-17.36
N2850 X.306 Y-17.357
N2855 X.611 Y-17.349
N2860 X.811 Y-17.341
N2865 X1.08 Y-17.327
N2870 X1.439 Y-17.301
N2875 X1.639 Y-17.284
N2880 X1.87 Y-17.26
N2885 X2.133 Y-17.23
N2890 X2.431 Y-17.191
N2895 X2.773 Y-17.14
N2900 X2.951 Y-17.11
N2905 X3.142 Y-17.076
N2910 X3.346 Y-17.038
N2915 X3.562 Y-16.994
N2920 X3.791 Y-16.945
N2925 X4.034 Y-16.889
N2930 X4.292 Y-16.825
N2935 X4.566 Y-16.754
N2940 X4.856 Y-16.672
N2945 X5.162 Y-16.58
N2950 X5.487 Y-16.475
N2955 X5.809 Y-16.364
N2960 X6.128 Y-16.248
N2965 X6.444 Y-16.125
N2970 X6.757 Y-15.996
N2975 X7.067 Y-15.861
N2980 X7.374 Y-15.721
N2985 X7.677 Y-15.575
N2990 X7.977 Y-15.423
N2995 X8.274 Y-15.265
N3000 X8.568 Y-15.102
N3005 X8.858 Y-14.933
N3010 X9.144 Y-14.76
N3015 X9.427 Y-14.58
N3020 X9.706 Y-14.396
N3025 X9.981 Y-14.206
N3030 X10.252 Y-14.011
N3035 X10.519 Y-13.811
N3040 X10.783 Y-13.606
N3045 X11.042 Y-13.396
N3050 X11.297 Y-13.181
N3055 X11.548 Y-12.962
N3060 X11.795 Y-12.738
N3065 X12.037 Y-12.509
N3070 X12.275 Y-12.275
N3075 X12.509 Y-12.037
N3080 X12.738 Y-11.795
N3085 X12.962 Y-11.548
N3090 X13.181 Y-11.297
N3095 X13.396 Y-11.042
N3100 X13.606 Y-10.783
N3105 X13.811 Y-10.52
N3110 X14.011 Y-10.252
N3115 X14.206 Y-9.981
N3120 X14.396 Y-9.706
N3125 X14.58 Y-9.427
N3130 X14.759 Y-9.144
N3135 X14.933 Y-8.858
N3140 X15.102 Y-8.568
N3145 X15.265 Y-8.274
N3150 X15.423 Y-7.977
N3155 X15.575 Y-7.677
N3160 X15.721 Y-7.374
N3165 X15.861 Y-7.067
N3170 X15.996 Y-6.757
N3175 X16.125 Y-6.444
N3180 X16.248 Y-6.128
N3185 X16.364 Y-5.809
N3190 X16.475 Y-5.487
N3195 X16.58 Y-5.163
N3200 X16.678 Y-4.835
N3205 X16.77 Y-4.505
N3210 X16.855 Y-4.172
N3215 X16.935 Y-3.837
N3220 X17.007 Y-3.5
N3225 X17.073 Y-3.159
N3230 X17.133 Y-2.817
N3235 X17.185 Y-2.472
N3240 X17.231 Y-2.125
N3245 X17.27 Y-1.776
N3250 X17.302 Y-1.425
N3255 X17.327 Y-1.071
N3260 X17.345 Y-.716
N3265 X17.356 Y-.359
N3270 X17.36 Y0
N3275 X17.357 Y.306
N3280 X17.349 Y.611
N3285 X17.341 Y.811
N3290 X17.327 Y1.08
N3295 X17.301 Y1.438
N3300 X17.284 Y1.639
N3305 X17.26 Y1.87
N3310 X17.23 Y2.133
N3315 X17.191 Y2.431
N3320 X17.14 Y2.773
N3325 X17.11 Y2.951
N3330 X17.076 Y3.142
N3335 X17.038 Y3.346
N3340 X16.994 Y3.562
N3345 X16.945 Y3.791
N3350 X16.889 Y4.034
N3355 X16.825 Y4.292
N3360 X16.754 Y4.566
N3365 X16.672 Y4.855
N3370 X16.58 Y5.162
N3375 X16.475 Y5.487
N3380 X16.364 Y5.809
N3385 X16.248 Y6.128
N3390 X16.125 Y6.444
N3395 X15.996 Y6.757
N3400 X15.861 Y7.067
N3405 X15.721 Y7.374
N3410 X15.575 Y7.677
N3415 X15.423 Y7.977
N3420 X15.265 Y8.274
N3425 X15.102 Y8.568
N3430 X14.933 Y8.858
N3435 X14.76 Y9.144
N3440 X14.58 Y9.427
N3445 X14.396 Y9.706
N3450 X14.206 Y9.981
N3455 X14.011 Y10.252
N3460 X13.811 Y10.519
N3465 X13.606 Y10.783
N3470 X13.396 Y11.042
N3475 X13.181 Y11.297
N3480 X12.962 Y11.548
N3485 X12.738 Y11.795
N3490 X12.509 Y12.037
N3495 X12.287 Y12.263
N3500 G03 X12.181 Y12.308 I-.107 J-.105
N3505 G01 X11.401 Y12.316
N3510 G00 Z3.
N3515 G90 G54 X12.533 Y11.163
N3520 Z2.6
N3525 G01 Z-.6 F750.
N3530 X12.54 Y11.943 F2250.
N3535 G03 X12.497 Y12.049 I-.15 J.001
N3540 G01 X12.275 Y12.275 F3000.
N3545 X12.037 Y12.509
N3550 X11.795 Y12.738
N3555 X11.548 Y12.962
N3560 X11.297 Y13.181
N3565 X11.042 Y13.396
N3570 X10.783 Y13.606
N3575 X10.52 Y13.811
N3580 X10.252 Y14.011
N3585 X9.981 Y14.206
N3590 X9.706 Y14.396
N3595 X9.427 Y14.58
N3600 X9.144 Y14.759
N3605 X8.858 Y14.933
N3610 X8.568 Y15.102
N3615 X8.274 Y15.265
N3620 X7.977 Y15.423
N3625 X7.677 Y15.575
N3630 X7.374 Y15.721
N3635 X7.067 Y15.861
N3640 X6.757 Y15.996
N3645 X6.444 Y16.125
N3650 X6.128 Y16.248
N3655 X5.809 Y16.364
N3660 X5.487 Y16.475
N3665 X5.163 Y16.58
N3670 X4.835 Y16.678
N3675 X4.505 Y16.77
N3680 X4.172 Y16.855
N3685 X3.837 Y16.935
N3690 X3.5 Y17.007
N3695 X3.159 Y17.073
N3700 X2.817 Y17.133
N3705 X2.472 Y17.185
N3710 X2.125 Y17.231
N3715 X1.776 Y17.27
N3720 X1.425 Y17.302
N3725 X1.071 Y17.327
N3730 X.716 Y17.345
N3735 X.359 Y17.356
N3740 X0 Y17.36
N3745 X-.306 Y17.357
N3750 X-.611 Y17.349
N3755 X-.811 Y17.341
N3760 X-1.08 Y17.327
N3765 X-1.439 Y17.301
N3770 X-1.639 Y17.284
N3775 X-1.87 Y17.26
N3780 X-2.133 Y17.23
N3785 X-2.431 Y17.191
N3790 X-2.773 Y17.14
N3795 X-2.951 Y17.11
N3800 X-3.142 Y17.076
N3805 X-3.346 Y17.038
N3810 X-3.562 Y16.994
N3815 X-3.791 Y16.945
N3820 X-4.034 Y16.889
N3825 X-4.292 Y16.825
N3830 X-4.566 Y16.754
N3835 X-4.856 Y16.672
N3840 X-5.162 Y16.58
N3845 X-5.487 Y16.475
N3850 X-5.809 Y16.364
N3855 X-6.128 Y16.248
N3860 X-6.444 Y16.125
N3865 X-6.757 Y15.996
N3870 X-7.067 Y15.861
N3875 X-7.374 Y15.721
N3880 X-7.677 Y15.575
N3885 X-7.977 Y15.423
N3890 X-8.274 Y15.265
N3895 X-8.568 Y15.102
N3900 X-8.858 Y14.933
N3905 X-9.144 Y14.76
N3910 X-9.427 Y14.58
N3915 X-9.706 Y14.396
N3920 X-9.981 Y14.206
N3925 X-10.252 Y14.011
N3930 X-10.519 Y13.811
N3935 X-10.783 Y13.606
N3940 X-11.042 Y13.396
N3945 X-11.297 Y13.181
N3950 X-11.548 Y12.962
N3955 X-11.795 Y12.738
N3960 X-12.037 Y12.509
N3965 X-12.275 Y12.275
N3970 X-12.509 Y12.037
N3975 X-12.738 Y11.795
N3980 X-12.962 Y11.548
N3985 X-13.181 Y11.297
N3990 X-13.396 Y11.042
N3995 X-13.606 Y10.783
N4000 X-13.811 Y10.52
N4005 X-14.011 Y10.252
N4010 X-14.206 Y9.981
N4015 X-14.396 Y9.706
N4020 X-14.58 Y9.427
N4025 X-14.759 Y9.144
N4030 X-14.933 Y8.858
N4035 X-15.102 Y8.568
N4040 X-15.265 Y8.274
N4045 X-15.423 Y7.977
N4050 X-15.575 Y7.677
N4055 X-15.721 Y7.374
N4060 X-15.861 Y7.067
N4065 X-15.996 Y6.757
N4070 X-16.125 Y6.444
N4075 X-16.248 Y6.128
N4080 X-16.364 Y5.809
N4085 X-16.475 Y5.487
N4090 X-16.58 Y5.163
N4095 X-16.678 Y4.835
N4100 X-16.77 Y4.505
N4105 X-16.855 Y4.172
N4110 X-16.935 Y3.837
N4115 X-17.007 Y3.499
N4120 X-17.073 Y3.159
N4125 X-17.133 Y2.817
N4130 X-17.185 Y2.472
N4135 X-17.231 Y2.125
N4140 X-17.27 Y1.776
N4145 X-17.302 Y1.425
N4150 X-17.327 Y1.071
N4155 X-17.345 Y.716
N4160 X-17.356 Y.359
N4165 X-17.36 Y0
N4170 X-17.357 Y-.306
N4175 X-17.349 Y-.611
N4180 X-17.341 Y-.811
N4185 X-17.327 Y-1.08
N4190 X-17.301 Y-1.439
N4195 X-17.284 Y-1.639
N4200 X-17.26 Y-1.87
N4205 X-17.23 Y-2.133
N4210 X-17.191 Y-2.431
N4215 X-17.14 Y-2.773
N4220 X-17.11 Y-2.951
N4225 X-17.076 Y-3.142
N4230 X-17.038 Y-3.346
N4235 X-16.994 Y-3.562
N4240 X-16.945 Y-3.791
N4245 X-16.889 Y-4.034
N4250 X-16.825 Y-4.292
N4255 X-16.754 Y-4.566
N4260 X-16.672 Y-4.856
N4265 X-16.58 Y-5.162
N4270 X-16.475 Y-5.487
N4275 X-16.364 Y-5.809
N4280 X-16.248 Y-6.128
N4285 X-16.125 Y-6.444
N4290 X-15.996 Y-6.757
N4295 X-15.861 Y-7.067
N4300 X-15.721 Y-7.374
N4305 X-15.575 Y-7.677
N4310 X-15.423 Y-7.977
N4315 X-15.265 Y-8.274
N4320 X-15.102 Y-8.568
N4325 X-14.933 Y-8.858
N4330 X-14.76 Y-9.144
N4335 X-14.58 Y-9.427
N4340 X-14.396 Y-9.706
N4345 X-14.206 Y-9.981
N4350 X-14.011 Y-10.252
N4355 X-13.811 Y-10.519
N4360 X-13.606 Y-10.783
N4365 X-13.396 Y-11.042
N4370 X-13.181 Y-11.297
N4375 X-12.962 Y-11.548
N4380 X-12.738 Y-11.795
N4385 X-12.509 Y-12.037
N4390 X-12.275 Y-12.275
N4395 X-12.037 Y-12.509
N4400 X-11.795 Y-12.738
N4405 X-11.548 Y-12.962
N4410 X-11.297 Y-13.181
N4415 X-11.042 Y-13.396
N4420 X-10.783 Y-13.606
N4425 X-10.52 Y-13.811
N4430 X-10.252 Y-14.011
N4435 X-9.981 Y-14.206
N4440 X-9.706 Y-14.396
N4445 X-9.427 Y-14.58
N4450 X-9.144 Y-14.759
N4455 X-8.858 Y-14.933
N4460 X-8.568 Y-15.102
N4465 X-8.274 Y-15.265
N4470 X-7.977 Y-15.423
N4475 X-7.677 Y-15.575
N4480 X-7.374 Y-15.721
N4485 X-7.067 Y-15.861
N4490 X-6.757 Y-15.996
N4495 X-6.444 Y-16.125
N4500 X-6.128 Y-16.248
N4505 X-5.809 Y-16.364
N4510 X-5.487 Y-16.475
N4515 X-5.163 Y-16.58
N4520 X-4.835 Y-16.678
N4525 X-4.505 Y-16.77
N4530 X-4.172 Y-16.855
N4535 X-3.837 Y-16.935
N4540 X-3.499 Y-17.007
N4545 X-3.159 Y-17.073
N4550 X-2.817 Y-17.133
N4555 X-2.472 Y-17.185
N4560 X-2.125 Y-17.231
N4565 X-1.776 Y-17.27
N4570 X-1.425 Y-17.302
N4575 X-1.071 Y-17.327
N4580 X-.716 Y-17.345
N4585 X-.359 Y-17.356
N4590 X0 Y-17.36
N4595 X.306 Y-17.357
N4600 X.611 Y-17.349
N4605 X.811 Y-17.341
N4610 X1.08 Y-17.327
N4615 X1.439 Y-17.301
N4620 X1.639 Y-17.284
N4625 X1.87 Y-17.26
N4630 X2.133 Y-17.23
N4635 X2.431 Y-17.191
N4640 X2.773 Y-17.14
N4645 X2.951 Y-17.11
N4650 X3.142 Y-17.076
N4655 X3.346 Y-17.038
N4660 X3.562 Y-16.994
N4665 X3.791 Y-16.945
N4670 X4.034 Y-16.889
N4675 X4.292 Y-16.825
N4680 X4.566 Y-16.754
N4685 X4.856 Y-16.672
N4690 X5.162 Y-16.58
N4695 X5.487 Y-16.475
N4700 X5.809 Y-16.364
N4705 X6.128 Y-16.248
N4710 X6.444 Y-16.125
N4715 X6.757 Y-15.996
N4720 X7.067 Y-15.861
N4725 X7.374 Y-15.721
N4730 X7.677 Y-15.575
N4735 X7.977 Y-15.423
N4740 X8.274 Y-15.265
N4745 X8.568 Y-15.102
N4750 X8.858 Y-14.933
N4755 X9.144 Y-14.76
N4760 X9.427 Y-14.58
N4765 X9.706 Y-14.396
N4770 X9.981 Y-14.206
N4775 X10.252 Y-14.011
N4780 X10.519 Y-13.811
N4785 X10.783 Y-13.606
N4790 X11.042 Y-13.396
N4795 X11.297 Y-13.181
N4800 X11.548 Y-12.962
N4805 X11.795 Y-12.738
N4810 X12.037 Y-12.509
N4815 X12.275 Y-12.275
N4820 X12.509 Y-12.037
N4825 X12.738 Y-11.795
N4830 X12.962 Y-11.548
N4835 X13.181 Y-11.297
N4840 X13.396 Y-11.042
N4845 X13.606 Y-10.783
N4850 X13.811 Y-10.52
N4855 X14.011 Y-10.252
N4860 X14.206 Y-9.981
N4865 X14.396 Y-9.706
N4870 X14.58 Y-9.427
N4875 X14.759 Y-9.144
N4880 X14.933 Y-8.858
N4885 X15.102 Y-8.568
N4890 X15.265 Y-8.274
N4895 X15.423 Y-7.977
N4900 X15.575 Y-7.677
N4905 X15.721 Y-7.374
N4910 X15.861 Y-7.067
N4915 X15.996 Y-6.757
N4920 X16.125 Y-6.444
N4925 X16.248 Y-6.128
N4930 X16.364 Y-5.809
N4935 X16.475 Y-5.487
N4940 X16.58 Y-5.163
N4945 X16.678 Y-4.835
N4950 X16.77 Y-4.505
N4955 X16.855 Y-4.172
N4960 X16.935 Y-3.837
N4965 X17.007 Y-3.5
N4970 X17.073 Y-3.159
N4975 X17.133 Y-2.817
N4980 X17.185 Y-2.472
N4985 X17.231 Y-2.125
N4990 X17.27 Y-1.776
N4995 X17.302 Y-1.425
N5000 X17.327 Y-1.071
N5005 X17.345 Y-.716
N5010 X17.356 Y-.359
N5015 X17.36 Y0
N5020 X17.357 Y.306
N5025 X17.349 Y.611
N5030 X17.341 Y.811
N5035 X17.327 Y1.08
N5040 X17.301 Y1.438
N5045 X17.284 Y1.639
N5050 X17.26 Y1.87
N5055 X17.23 Y2.133
N5060 X17.191 Y2.431
N5065 X17.14 Y2.773
N5070 X17.11 Y2.951
N5075 X17.076 Y3.142
N5080 X17.038 Y3.346
N5085 X16.994 Y3.562
N5090 X16.945 Y3.791
N5095 X16.889 Y4.034
N5100 X16.825 Y4.292
N5105 X16.754 Y4.566
N5110 X16.672 Y4.855
N5115 X16.58 Y5.162
N5120 X16.475 Y5.487
N5125 X16.364 Y5.809
N5130 X16.248 Y6.128
N5135 X16.125 Y6.444
N5140 X15.996 Y6.757
N5145 X15.861 Y7.067
N5150 X15.721 Y7.374
N5155 X15.575 Y7.677
N5160 X15.423 Y7.977
N5165 X15.265 Y8.274
N5170 X15.102 Y8.568
N5175 X14.933 Y8.858
N5180 X14.76 Y9.144
N5185 X14.58 Y9.427
N5190 X14.396 Y9.706
N5195 X14.206 Y9.981
N5200 X14.011 Y10.252
N5205 X13.811 Y10.519
N5210 X13.606 Y10.783
N5215 X13.396 Y11.042
N5220 X13.181 Y11.297
N5225 X12.962 Y11.548
N5230 X12.738 Y11.795
N5235 X12.509 Y12.037
N5240 X12.287 Y12.263
N5245 G03 X12.181 Y12.308 I-.107 J-.105
N5250 G01 X11.401 Y12.316
N5255 G00 Z3.
N5260 G90 G54 X12.533 Y11.163
N5265 Z2.4
N5270 G01 Z-.8 F750.
N5275 X12.54 Y11.943 F2250.
N5280 G03 X12.497 Y12.049 I-.15 J.001
N5285 G01 X12.275 Y12.275 F3000.
N5290 X12.037 Y12.509
N5295 X11.795 Y12.738
N5300 X11.548 Y12.962
N5305 X11.297 Y13.181
N5310 X11.042 Y13.396
N5315 X10.783 Y13.606
N5320 X10.52 Y13.811
N5325 X10.252 Y14.011
N5330 X9.981 Y14.206
N5335 X9.706 Y14.396
N5340 X9.427 Y14.58
N5345 X9.144 Y14.759
N5350 X8.858 Y14.933
N5355 X8.568 Y15.102
N5360 X8.274 Y15.265
N5365 X7.977 Y15.423
N5370 X7.677 Y15.575
N5375 X7.374 Y15.721
N5380 X7.067 Y15.861
N5385 X6.757 Y15.996
N5390 X6.444 Y16.125
N5395 X6.128 Y16.248
N5400 X5.809 Y16.364
N5405 X5.487 Y16.475
N5410 X5.163 Y16.58
N5415 X4.835 Y16.678
N5420 X4.505 Y16.77
N5425 X4.172 Y16.855
N5430 X3.837 Y16.935
N5435 X3.5 Y17.007
N5440 X3.159 Y17.073
N5445 X2.817 Y17.133
N5450 X2.472 Y17.185
N5455 X2.125 Y17.231
N5460 X1.776 Y17.27
N5465 X1.425 Y17.302
N5470 X1.071 Y17.327
N5475 X.716 Y17.345
N5480 X.359 Y17.356
N5485 X0 Y17.36
N5490 X-.306 Y17.357
N5495 X-.611 Y17.349
N5500 X-.811 Y17.341
N5505 X-1.08 Y17.327
N5510 X-1.439 Y17.301
N5515 X-1.639 Y17.284
N5520 X-1.87 Y17.26
N5525 X-2.133 Y17.23
N5530 X-2.431 Y17.191
N5535 X-2.773 Y17.14
N5540 X-2.951 Y17.11
N5545 X-3.142 Y17.076
N5550 X-3.346 Y17.038
N5555 X-3.562 Y16.994
N5560 X-3.791 Y16.945
N5565 X-4.034 Y16.889
N5570 X-4.292 Y16.825
N5575 X-4.566 Y16.754
N5580 X-4.856 Y16.672
N5585 X-5.162 Y16.58
N5590 X-5.487 Y16.475
N5595 X-5.809 Y16.364
N5600 X-6.128 Y16.248
N5605 X-6.444 Y16.125
N5610 X-6.757 Y15.996
N5615 X-7.067 Y15.861
N5620 X-7.374 Y15.721
N5625 X-7.677 Y15.575
N5630 X-7.977 Y15.423
N5635 X-8.274 Y15.265
N5640 X-8.568 Y15.102
N5645 X-8.858 Y14.933
N5650 X-9.144 Y14.76
N5655 X-9.427 Y14.58
N5660 X-9.706 Y14.396
N5665 X-9.981 Y14.206
N5670 X-10.252 Y14.011
N5675 X-10.519 Y13.811
N5680 X-10.783 Y13.606
N5685 X-11.042 Y13.396
N5690 X-11.297 Y13.181
N5695 X-11.548 Y12.962
N5700 X-11.795 Y12.738
N5705 X-12.037 Y12.509
N5710 X-12.275 Y12.275
N5715 X-12.509 Y12.037
N5720 X-12.738 Y11.795
N5725 X-12.962 Y11.548
N5730 X-13.181 Y11.297
N5735 X-13.396 Y11.042
N5740 X-13.606 Y10.783
N5745 X-13.811 Y10.52
N5750 X-14.011 Y10.252
N5755 X-14.206 Y9.981
N5760 X-14.396 Y9.706
N5765 X-14.58 Y9.427
N5770 X-14.759 Y9.144
N5775 X-14.933 Y8.858
N5780 X-15.102 Y8.568
N5785 X-15.265 Y8.274
N5790 X-15.423 Y7.977
N5795 X-15.575 Y7.677
N5800 X-15.721 Y7.374
N5805 X-15.861 Y7.067
N5810 X-15.996 Y6.757
N5815 X-16.125 Y6.444
N5820 X-16.248 Y6.128
N5825 X-16.364 Y5.809
N5830 X-16.475 Y5.487
N5835 X-16.58 Y5.163
N5840 X-16.678 Y4.835
N5845 X-16.77 Y4.505
N5850 X-16.855 Y4.172
N5855 X-16.935 Y3.837
N5860 X-17.007 Y3.499
N5865 X-17.073 Y3.159
N5870 X-17.133 Y2.817
N5875 X-17.185 Y2.472
N5880 X-17.231 Y2.125
N5885 X-17.27 Y1.776
N5890 X-17.302 Y1.425
N5895 X-17.327 Y1.071
N5900 X-17.345 Y.716
N5905 X-17.356 Y.359
N5910 X-17.36 Y0
N5915 X-17.357 Y-.306
N5920 X-17.349 Y-.611
N5925 X-17.341 Y-.811
N5930 X-17.327 Y-1.08
N5935 X-17.301 Y-1.439
N5940 X-17.284 Y-1.639
N5945 X-17.26 Y-1.87
N5950 X-17.23 Y-2.133
N5955 X-17.191 Y-2.431
N5960 X-17.14 Y-2.773
N5965 X-17.11 Y-2.951
N5970 X-17.076 Y-3.142
N5975 X-17.038 Y-3.346
N5980 X-16.994 Y-3.562
N5985 X-16.945 Y-3.791
N5990 X-16.889 Y-4.034
N5995 X-16.825 Y-4.292
N6000 X-16.754 Y-4.566
N6005 X-16.672 Y-4.856
N6010 X-16.58 Y-5.162
N6015 X-16.475 Y-5.487
N6020 X-16.364 Y-5.809
N6025 X-16.248 Y-6.128
N6030 X-16.125 Y-6.444
N6035 X-15.996 Y-6.757
N6040 X-15.861 Y-7.067
N6045 X-15.721 Y-7.374
N6050 X-15.575 Y-7.677
N6055 X-15.423 Y-7.977
N6060 X-15.265 Y-8.274
N6065 X-15.102 Y-8.568
N6070 X-14.933 Y-8.858
N6075 X-14.76 Y-9.144
N6080 X-14.58 Y-9.427
N6085 X-14.396 Y-9.706
N6090 X-14.206 Y-9.981
N6095 X-14.011 Y-10.252
N6100 X-13.811 Y-10.519
N6105 X-13.606 Y-10.783
N6110 X-13.396 Y-11.042
N6115 X-13.181 Y-11.297
N6120 X-12.962 Y-11.548
N6125 X-12.738 Y-11.795
N6130 X-12.509 Y-12.037
N6135 X-12.275 Y-12.275
N6140 X-12.037 Y-12.509
N6145 X-11.795 Y-12.738
N6150 X-11.548 Y-12.962
N6155 X-11.297 Y-13.181
N6160 X-11.042 Y-13.396
N6165 X-10.783 Y-13.606
N6170 X-10.52 Y-13.811
N6175 X-10.252 Y-14.011
N6180 X-9.981 Y-14.206
N6185 X-9.706 Y-14.396
N6190 X-9.427 Y-14.58
N6195 X-9.144 Y-14.759
N6200 X-8.858 Y-14.933
N6205 X-8.568 Y-15.102
N6210 X-8.274 Y-15.265
N6215 X-7.977 Y-15.423
N6220 X-7.677 Y-15.575
N6225 X-7.374 Y-15.721
N6230 X-7.067 Y-15.861
N6235 X-6.757 Y-15.996
N6240 X-6.444 Y-16.125
N6245 X-6.128 Y-16.248
N6250 X-5.809 Y-16.364
N6255 X-5.487 Y-16.475
N6260 X-5.163 Y-16.58
N6265 X-4.835 Y-16.678
N6270 X-4.505 Y-16.77
N6275 X-4.172 Y-16.855
N6280 X-3.837 Y-16.935
N6285 X-3.499 Y-17.007
N6290 X-3.159 Y-17.073
N6295 X-2.817 Y-17.133
N6300 X-2.472 Y-17.185
N6305 X-2.125 Y-17.231
N6310 X-1.776 Y-17.27
N6315 X-1.425 Y-17.302
N6320 X-1.071 Y-17.327
N6325 X-.716 Y-17.345
N6330 X-.359 Y-17.356
N6335 X0 Y-17.36
N6340 X.306 Y-17.357
N6345 X.611 Y-17.349
N6350 X.811 Y-17.341
N6355 X1.08 Y-17.327
N6360 X1.439 Y-17.301
N6365 X1.639 Y-17.284
N6370 X1.87 Y-17.26
N6375 X2.133 Y-17.23
N6380 X2.431 Y-17.191
N6385 X2.773 Y-17.14
N6390 X2.951 Y-17.11
N6395 X3.142 Y-17.076
N6400 X3.346 Y-17.038
N6405 X3.562 Y-16.994
N6410 X3.791 Y-16.945
N6415 X4.034 Y-16.889
N6420 X4.292 Y-16.825
N6425 X4.566 Y-16.754
N6430 X4.856 Y-16.672
N6435 X5.162 Y-16.58
N6440 X5.487 Y-16.475
N6445 X5.809 Y-16.364
N6450 X6.128 Y-16.248
N6455 X6.444 Y-16.125
N6460 X6.757 Y-15.996
N6465 X7.067 Y-15.861
N6470 X7.374 Y-15.721
N6475 X7.677 Y-15.575
N6480 X7.977 Y-15.423
N6485 X8.274 Y-15.265
N6490 X8.568 Y-15.102
N6495 X8.858 Y-14.933
N6500 X9.144 Y-14.76
N6505 X9.427 Y-14.58
N6510 X9.706 Y-14.396
N6515 X9.981 Y-14.206
N6520 X10.252 Y-14.011
N6525 X10.519 Y-13.811
N6530 X10.783 Y-13.606
N6535 X11.042 Y-13.396
N6540 X11.297 Y-13.181
N6545 X11.548 Y-12.962
N6550 X11.795 Y-12.738
N6555 X12.037 Y-12.509
N6560 X12.275 Y-12.275
N6565 X12.509 Y-12.037
N6570 X12.738 Y-11.795
N6575 X12.962 Y-11.548
N6580 X13.181 Y-11.297
N6585 X13.396 Y-11.042
N6590 X13.606 Y-10.783
N6595 X13.811 Y-10.52
N6600 X14.011 Y-10.252
N6605 X14.206 Y-9.981
N6610 X14.396 Y-9.706
N6615 X14.58 Y-9.427
N6620 X14.759 Y-9.144
N6625 X14.933 Y-8.858
N6630 X15.102 Y-8.568
N6635 X15.265 Y-8.274
N6640 X15.423 Y-7.977
N6645 X15.575 Y-7.677
N6650 X15.721 Y-7.374
N6655 X15.861 Y-7.067
N6660 X15.996 Y-6.757
N6665 X16.125 Y-6.444
N6670 X16.248 Y-6.128
N6675 X16.364 Y-5.809
N6680 X16.475 Y-5.487
N6685 X16.58 Y-5.163
N6690 X16.678 Y-4.835
N6695 X16.77 Y-4.505
N6700 X16.855 Y-4.172
N6705 X16.935 Y-3.837
N6710 X17.007 Y-3.5
N6715 X17.073 Y-3.159
N6720 X17.133 Y-2.817
N6725 X17.185 Y-2.472
N6730 X17.231 Y-2.125
N6735 X17.27 Y-1.776
N6740 X17.302 Y-1.425
N6745 X17.327 Y-1.071
N6750 X17.345 Y-.716
N6755 X17.356 Y-.359
N6760 X17.36 Y0
N6765 X17.357 Y.306
N6770 X17.349 Y.611
N6775 X17.341 Y.811
N6780 X17.327 Y1.08
N6785 X17.301 Y1.438
N6790 X17.284 Y1.639
N6795 X17.26 Y1.87
N6800 X17.23 Y2.133
N6805 X17.191 Y2.431
N6810 X17.14 Y2.773
N6815 X17.11 Y2.951
N6820 X17.076 Y3.142
N6825 X17.038 Y3.346
N6830 X16.994 Y3.562
N6835 X16.945 Y3.791
N6840 X16.889 Y4.034
N6845 X16.825 Y4.292
N6850 X16.754 Y4.566
N6855 X16.672 Y4.855
N6860 X16.58 Y5.162
N6865 X16.475 Y5.487
N6870 X16.364 Y5.809
N6875 X16.248 Y6.128
N6880 X16.125 Y6.444
N6885 X15.996 Y6.757
N6890 X15.861 Y7.067
N6895 X15.721 Y7.374
N6900 X15.575 Y7.677
N6905 X15.423 Y7.977
N6910 X15.265 Y8.274
N6915 X15.102 Y8.568
N6920 X14.933 Y8.858
N6925 X14.76 Y9.144
N6930 X14.58 Y9.427
N6935 X14.396 Y9.706
N6940 X14.206 Y9.981
N6945 X14.011 Y10.252
N6950 X13.811 Y10.519
N6955 X13.606 Y10.783
N6960 X13.396 Y11.042
N6965 X13.181 Y11.297
N6970 X12.962 Y11.548
N6975 X12.738 Y11.795
N6980 X12.509 Y12.037
N6985 X12.287 Y12.263
N6990 G03 X12.181 Y12.308 I-.107 J-.105
N6995 G01 X11.401 Y12.316
N7000 G00 Z3.
N7005 G90 G54 X-9.502 Y6.24
N7010 G01 Z-.2 F750.
N7015 X-9.371 Y6.239 F3000.
N7020 X-9.243 Y6.235
N7025 X-9.116 Y6.228
N7030 X-8.989 Y6.219
N7035 X-8.863 Y6.208
N7040 X-8.737 Y6.194
N7045 X-8.613 Y6.177
N7050 X-8.489 Y6.158
N7055 X-8.366 Y6.137
N7060 X-8.243 Y6.113
N7065 X-8.122 Y6.087
N7070 X-8.001 Y6.059
N7075 X-7.881 Y6.028
N7080 X-7.763 Y5.995
N7085 X-7.645 Y5.959
N7090 X-7.528 Y5.922
N7095 X-7.412 Y5.882
N7100 X-7.297 Y5.84
N7105 X-7.183 Y5.796
N7110 X-7.071 Y5.749
N7115 X-6.959 Y5.701
N7120 X-6.849 Y5.65
N7125 X-6.74 Y5.598
N7130 X-6.632 Y5.543
N7135 X-6.525 Y5.486
N7140 X-6.42 Y5.428
N7145 X-6.315 Y5.367
N7150 X-6.212 Y5.305
N7155 X-6.111 Y5.24
N7160 X-6.011 Y5.174
N7165 X-5.912 Y5.106
N7170 X-5.814 Y5.036
N7175 X-5.718 Y4.964
N7180 X-5.624 Y4.89
N7185 X-5.53 Y4.815
N7190 X-5.439 Y4.738
N7195 X-5.349 Y4.659
N7200 X-5.26 Y4.578
N7205 X-5.173 Y4.496
N7210 X-5.088 Y4.412
N7215 X-5.004 Y4.327
N7220 X-4.922 Y4.24
N7225 X-4.841 Y4.151
N7230 X-4.762 Y4.061
N7235 X-4.685 Y3.97
N7240 X-4.61 Y3.876
N7245 X-4.536 Y3.782
N7250 X-4.464 Y3.686
N7255 X-4.394 Y3.588
N7260 X-4.326 Y3.489
N7265 X-4.26 Y3.389
N7270 X-4.195 Y3.287
N7275 X-4.133 Y3.185
N7280 X-4.072 Y3.08
N7285 X-4.014 Y2.975
N7290 X-3.957 Y2.868
N7295 X-3.902 Y2.76
N7300 X-3.85 Y2.651
N7305 X-3.799 Y2.541
N7310 X-3.751 Y2.429
N7315 X-3.704 Y2.316
N7320 X-3.66 Y2.203
N7325 X-3.618 Y2.088
N7330 X-3.578 Y1.972
N7335 X-3.54 Y1.852
N7340 X-3.476 Y1.634
N7345 X-3.426 Y1.438
N7350 X-3.388 Y1.263
N7355 X-3.358 Y1.11
N7360 X-3.336 Y.974
N7365 X-3.318 Y.851
N7370 X-3.293 Y.645
N7375 X-3.279 Y.485
N7380 X-3.27 Y.362
N7385 X-3.263 Y.182
N7390 X-3.26 Y.002
N7395 X-3.261 Y-.129
N7400 X-3.265 Y-.257
N7405 X-3.272 Y-.384
N7410 X-3.281 Y-.511
N7415 X-3.292 Y-.637
N7420 X-3.306 Y-.763
N7425 X-3.323 Y-.887
N7430 X-3.342 Y-1.011
N7435 X-3.363 Y-1.134
N7440 X-3.387 Y-1.257
N7445 X-3.413 Y-1.378
N7450 X-3.441 Y-1.499
N7455 X-3.472 Y-1.619
N7460 X-3.505 Y-1.737
N7465 X-3.541 Y-1.855
N7470 X-3.578 Y-1.972
N7475 X-3.618 Y-2.088
N7480 X-3.66 Y-2.203
N7485 X-3.704 Y-2.317
N7490 X-3.751 Y-2.429
N7495 X-3.799 Y-2.541
N7500 X-3.85 Y-2.651
N7505 X-3.902 Y-2.76
N7510 X-3.957 Y-2.868
N7515 X-4.014 Y-2.975
N7520 X-4.072 Y-3.08
N7525 X-4.133 Y-3.185
N7530 X-4.195 Y-3.288
N7535 X-4.26 Y-3.389
N7540 X-4.326 Y-3.489
N7545 X-4.394 Y-3.588
N7550 X-4.464 Y-3.686
N7555 X-4.536 Y-3.782
N7560 X-4.61 Y-3.876
N7565 X-4.685 Y-3.97
N7570 X-4.762 Y-4.061
N7575 X-4.841 Y-4.151
N7580 X-4.922 Y-4.24
N7585 X-5.004 Y-4.327
N7590 X-5.088 Y-4.412
N7595 X-5.173 Y-4.496
N7600 X-5.26 Y-4.578
N7605 X-5.349 Y-4.659
N7610 X-5.439 Y-4.738
N7615 X-5.53 Y-4.815
N7620 X-5.624 Y-4.89
N7625 X-5.718 Y-4.964
N7630 X-5.814 Y-5.036
N7635 X-5.912 Y-5.106
N7640 X-6.011 Y-5.174
N7645 X-6.111 Y-5.24
N7650 X-6.213 Y-5.305
N7655 X-6.315 Y-5.367
N7660 X-6.42 Y-5.428
N7665 X-6.525 Y-5.486
N7670 X-6.632 Y-5.543
N7675 X-6.74 Y-5.598
N7680 X-6.849 Y-5.65
N7685 X-6.959 Y-5.701
N7690 X-7.071 Y-5.749
N7695 X-7.184 Y-5.796
N7700 X-7.297 Y-5.84
N7705 X-7.412 Y-5.882
N7710 X-7.528 Y-5.922
N7715 X-7.648 Y-5.96
N7720 X-7.866 Y-6.024
N7725 X-8.062 Y-6.074
N7730 X-8.237 Y-6.112
N7735 X-8.39 Y-6.142
N7740 X-8.526 Y-6.164
N7745 X-8.649 Y-6.182
N7750 X-8.855 Y-6.207
N7755 X-9.015 Y-6.221
N7760 X-9.138 Y-6.23
N7765 X-9.318 Y-6.237
N7770 X-9.498 Y-6.24
N7775 X-9.629 Y-6.239
N7780 X-9.757 Y-6.235
N7785 X-9.884 Y-6.228
N7790 X-10.011 Y-6.219
N7795 X-10.137 Y-6.208
N7800 X-10.263 Y-6.194
N7805 X-10.387 Y-6.177
N7810 X-10.511 Y-6.158
N7815 X-10.634 Y-6.137
N7820 X-10.757 Y-6.113
N7825 X-10.878 Y-6.087
N7830 X-10.999 Y-6.059
N7835 X-11.119 Y-6.028
N7840 X-11.237 Y-5.995
N7845 X-11.355 Y-5.959
N7850 X-11.472 Y-5.922
N7855 X-11.588 Y-5.882
N7860 X-11.703 Y-5.84
N7865 X-11.817 Y-5.796
N7870 X-11.929 Y-5.749
N7875 X-12.041 Y-5.701
N7880 X-12.151 Y-5.65
N7885 X-12.26 Y-5.598
N7890 X-12.368 Y-5.543
N7895 X-12.475 Y-5.486
N7900 X-12.58 Y-5.428
N7905 X-12.685 Y-5.367
N7910 X-12.788 Y-5.305
N7915 X-12.889 Y-5.24
N7920 X-12.989 Y-5.174
N7925 X-13.088 Y-5.106
N7930 X-13.186 Y-5.036
N7935 X-13.282 Y-4.964
N7940 X-13.376 Y-4.89
N7945 X-13.47 Y-4.815
N7950 X-13.561 Y-4.738
N7955 X-13.651 Y-4.659
N7960 X-13.74 Y-4.578
N7965 X-13.827 Y-4.496
N7970 X-13.912 Y-4.412
N7975 X-13.996 Y-4.327
N7980 X-14.078 Y-4.24
N7985 X-14.159 Y-4.151
N7990 X-14.238 Y-4.061
N7995 X-14.315 Y-3.97
N8000 X-14.39 Y-3.876
N8005 X-14.464 Y-3.782
N8010 X-14.536 Y-3.686
N8015 X-14.606 Y-3.588
N8020 X-14.674 Y-3.489
N8025 X-14.74 Y-3.389
N8030 X-14.805 Y-3.288
N8035 X-14.867 Y-3.185
N8040 X-14.928 Y-3.08
N8045 X-14.986 Y-2.975
N8050 X-15.043 Y-2.868
N8055 X-15.098 Y-2.76
N8060 X-15.15 Y-2.651
N8065 X-15.201 Y-2.541
N8070 X-15.249 Y-2.429
N8075 X-15.296 Y-2.317
N8080 X-15.34 Y-2.203
N8085 X-15.382 Y-2.088
N8090 X-15.422 Y-1.972
N8095 X-15.46 Y-1.852
N8100 X-15.524 Y-1.634
N8105 X-15.574 Y-1.438
N8110 X-15.612 Y-1.263
N8115 X-15.642 Y-1.11
N8120 X-15.664 Y-.974
N8125 X-15.682 Y-.851
N8130 X-15.707 Y-.645
N8135 X-15.721 Y-.485
N8140 X-15.73 Y-.362
N8145 X-15.737 Y-.182
N8150 X-15.74 Y-.002
N8155 X-15.739 Y.129
N8160 X-15.735 Y.257
N8165 X-15.728 Y.384
N8170 X-15.719 Y.511
N8175 X-15.708 Y.637
N8180 X-15.694 Y.763
N8185 X-15.677 Y.887
N8190 X-15.658 Y1.011
N8195 X-15.637 Y1.134
N8200 X-15.613 Y1.257
N8205 X-15.587 Y1.378
N8210 X-15.559 Y1.499
N8215 X-15.528 Y1.619
N8220 X-15.495 Y1.737
N8225 X-15.459 Y1.855
N8230 X-15.422 Y1.972
N8235 X-15.382 Y2.088
N8240 X-15.34 Y2.203
N8245 X-15.296 Y2.317
N8250 X-15.249 Y2.429
N8255 X-15.201 Y2.541
N8260 X-15.15 Y2.651
N8265 X-15.098 Y2.76
N8270 X-15.043 Y2.868
N8275 X-14.986 Y2.975
N8280 X-14.928 Y3.08
N8285 X-14.867 Y3.185
N8290 X-14.805 Y3.288
N8295 X-14.74 Y3.389
N8300 X-14.674 Y3.489
N8305 X-14.606 Y3.588
N8310 X-14.536 Y3.686
N8315 X-14.464 Y3.782
N8320 X-14.39 Y3.876
N8325 X-14.315 Y3.97
N8330 X-14.238 Y4.061
N8335 X-14.159 Y4.151
N8340 X-14.078 Y4.24
N8345 X-13.996 Y4.327
N8350 X-13.912 Y4.412
N8355 X-13.827 Y4.496
N8360 X-13.74 Y4.578
N8365 X-13.651 Y4.659
N8370 X-13.561 Y4.738
N8375 X-13.47 Y4.815
N8380 X-13.376 Y4.89
N8385 X-13.282 Y4.964
N8390 X-13.186 Y5.036
N8395 X-13.088 Y5.106
N8400 X-12.989 Y5.174
N8405 X-12.889 Y5.24
N8410 X-12.788 Y5.305
N8415 X-12.685 Y5.367
N8420 X-12.58 Y5.428
N8425 X-12.475 Y5.486
N8430 X-12.368 Y5.543
N8435 X-12.26 Y5.598
N8440 X-12.151 Y5.65
N8445 X-12.041 Y5.701
N8450 X-11.929 Y5.749
N8455 X-11.817 Y5.796
N8460 X-11.703 Y5.84
N8465 X-11.588 Y5.882
N8470 X-11.472 Y5.922
N8475 X-11.352 Y5.96
N8480 X-11.134 Y6.024
N8485 X-10.938 Y6.074
N8490 X-10.763 Y6.112
N8495 X-10.61 Y6.142
N8500 X-10.474 Y6.164
N8505 X-10.351 Y6.182
N8510 X-10.145 Y6.207
N8515 X-9.985 Y6.221
N8520 X-9.862 Y6.23
N8525 X-9.682 Y6.237
N8530 X-9.502 Y6.24
N8535 G00 Z3.
N8540 Z2.8
N8545 G01 Z-.4 F750.
N8550 X-9.371 Y6.239 F3000.
N8555 X-9.243 Y6.235
N8560 X-9.116 Y6.228
N8565 X-8.989 Y6.219
N8570 X-8.863 Y6.208
N8575 X-8.737 Y6.194
N8580 X-8.613 Y6.177
N8585 X-8.489 Y6.158
N8590 X-8.366 Y6.137
N8595 X-8.243 Y6.113
N8600 X-8.122 Y6.087
N8605 X-8.001 Y6.059
N8610 X-7.881 Y6.028
N8615 X-7.763 Y5.995
N8620 X-7.645 Y5.959
N8625 X-7.528 Y5.922
N8630 X-7.412 Y5.882
N8635 X-7.297 Y5.84
N8640 X-7.183 Y5.796
N8645 X-7.071 Y5.749
N8650 X-6.959 Y5.701
N8655 X-6.849 Y5.65
N8660 X-6.74 Y5.598
N8665 X-6.632 Y5.543
N8670 X-6.525 Y5.486
N8675 X-6.42 Y5.428
N8680 X-6.315 Y5.367
N8685 X-6.212 Y5.305
N8690 X-6.111 Y5.24
N8695 X-6.011 Y5.174
N8700 X-5.912 Y5.106
N8705 X-5.814 Y5.036
N8710 X-5.718 Y4.964
N8715 X-5.624 Y4.89
N8720 X-5.53 Y4.815
N8725 X-5.439 Y4.738
N8730 X-5.349 Y4.659
N8735 X-5.26 Y4.578
N8740 X-5.173 Y4.496
N8745 X-5.088 Y4.412
N8750 X-5.004 Y4.327
N8755 X-4.922 Y4.24
N8760 X-4.841 Y4.151
N8765 X-4.762 Y4.061
N8770 X-4.685 Y3.97
N8775 X-4.61 Y3.876
N8780 X-4.536 Y3.782
N8785 X-4.464 Y3.686
N8790 X-4.394 Y3.588
N8795 X-4.326 Y3.489
N8800 X-4.26 Y3.389
N8805 X-4.195 Y3.287
N8810 X-4.133 Y3.185
N8815 X-4.072 Y3.08
N8820 X-4.014 Y2.975
N8825 X-3.957 Y2.868
N8830 X-3.902 Y2.76
N8835 X-3.85 Y2.651
N8840 X-3.799 Y2.541
N8845 X-3.751 Y2.429
N8850 X-3.704 Y2.316
N8855 X-3.66 Y2.203
N8860 X-3.618 Y2.088
N8865 X-3.578 Y1.972
N8870 X-3.54 Y1.852
N8875 X-3.476 Y1.634
N8880 X-3.426 Y1.438
N8885 X-3.388 Y1.263
N8890 X-3.358 Y1.11
N8895 X-3.336 Y.974
N8900 X-3.318 Y.851
N8905 X-3.293 Y.645
N8910 X-3.279 Y.485
N8915 X-3.27 Y.362
N8920 X-3.263 Y.182
N8925 X-3.26 Y.002
N8930 X-3.261 Y-.129
N8935 X-3.265 Y-.257
N8940 X-3.272 Y-.384
N8945 X-3.281 Y-.511
N8950 X-3.292 Y-.637
N8955 X-3.306 Y-.763
N8960 X-3.323 Y-.887
N8965 X-3.342 Y-1.011
N8970 X-3.363 Y-1.134
N8975 X-3.387 Y-1.257
N8980 X-3.413 Y-1.378
N8985 X-3.441 Y-1.499
N8990 X-3.472 Y-1.619
N8995 X-3.505 Y-1.737
N9000 X-3.541 Y-1.855
N9005 X-3.578 Y-1.972
N9010 X-3.618 Y-2.088
N9015 X-3.66 Y-2.203
N9020 X-3.704 Y-2.317
N9025 X-3.751 Y-2.429
N9030 X-3.799 Y-2.541
N9035 X-3.85 Y-2.651
N9040 X-3.902 Y-2.76
N9045 X-3.957 Y-2.868
N9050 X-4.014 Y-2.975
N9055 X-4.072 Y-3.08
N9060 X-4.133 Y-3.185
N9065 X-4.195 Y-3.288
N9070 X-4.26 Y-3.389
N9075 X-4.326 Y-3.489
N9080 X-4.394 Y-3.588
N9085 X-4.464 Y-3.686
N9090 X-4.536 Y-3.782
N9095 X-4.61 Y-3.876
N9100 X-4.685 Y-3.97
N9105 X-4.762 Y-4.061
N9110 X-4.841 Y-4.151
N9115 X-4.922 Y-4.24
N9120 X-5.004 Y-4.327
N9125 X-5.088 Y-4.412
N9130 X-5.173 Y-4.496
N9135 X-5.26 Y-4.578
N9140 X-5.349 Y-4.659
N9145 X-5.439 Y-4.738
N9150 X-5.53 Y-4.815
N9155 X-5.624 Y-4.89
N9160 X-5.718 Y-4.964
N9165 X-5.814 Y-5.036
N9170 X-5.912 Y-5.106
N9175 X-6.011 Y-5.174
N9180 X-6.111 Y-5.24
N9185 X-6.213 Y-5.305
N9190 X-6.315 Y-5.367
N9195 X-6.42 Y-5.428
N9200 X-6.525 Y-5.486
N9205 X-6.632 Y-5.543
N9210 X-6.74 Y-5.598
N9215 X-6.849 Y-5.65
N9220 X-6.959 Y-5.701
N9225 X-7.071 Y-5.749
N9230 X-7.184 Y-5.796
N9235 X-7.297 Y-5.84
N9240 X-7.412 Y-5.882
N9245 X-7.528 Y-5.922
N9250 X-7.648 Y-5.96
N9255 X-7.866 Y-6.024
N9260 X-8.062 Y-6.074
N9265 X-8.237 Y-6.112
N9270 X-8.39 Y-6.142
N9275 X-8.526 Y-6.164
N9280 X-8.649 Y-6.182
N9285 X-8.855 Y-6.207
N9290 X-9.015 Y-6.221
N9295 X-9.138 Y-6.23
N9300 X-9.318 Y-6.237
N9305 X-9.498 Y-6.24
N9310 X-9.629 Y-6.239
N9315 X-9.757 Y-6.235
N9320 X-9.884 Y-6.228
N9325 X-10.011 Y-6.219
N9330 X-10.137 Y-6.208
N9335 X-10.263 Y-6.194
N9340 X-10.387 Y-6.177
N9345 X-10.511 Y-6.158
N9350 X-10.634 Y-6.137
N9355 X-10.757 Y-6.113
N9360 X-10.878 Y-6.087
N9365 X-10.999 Y-6.059
N9370 X-11.119 Y-6.028
N9375 X-11.237 Y-5.995
N9380 X-11.355 Y-5.959
N9385 X-11.472 Y-5.922
N9390 X-11.588 Y-5.882
N9395 X-11.703 Y-5.84
N9400 X-11.817 Y-5.796
N9405 X-11.929 Y-5.749
N9410 X-12.041 Y-5.701
N9415 X-12.151 Y-5.65
N9420 X-12.26 Y-5.598
N9425 X-12.368 Y-5.543
N9430 X-12.475 Y-5.486
N9435 X-12.58 Y-5.428
N9440 X-12.685 Y-5.367
N9445 X-12.788 Y-5.305
N9450 X-12.889 Y-5.24
N9455 X-12.989 Y-5.174
N9460 X-13.088 Y-5.106
N9465 X-13.186 Y-5.036
N9470 X-13.282 Y-4.964
N9475 X-13.376 Y-4.89
N9480 X-13.47 Y-4.815
N9485 X-13.561 Y-4.738
N9490 X-13.651 Y-4.659
N9495 X-13.74 Y-4.578
N9500 X-13.827 Y-4.496
N9505 X-13.912 Y-4.412
N9510 X-13.996 Y-4.327
N9515 X-14.078 Y-4.24
N9520 X-14.159 Y-4.151
N9525 X-14.238 Y-4.061
N9530 X-14.315 Y-3.97
N9535 X-14.39 Y-3.876
N9540 X-14.464 Y-3.782
N9545 X-14.536 Y-3.686
N9550 X-14.606 Y-3.588
N9555 X-14.674 Y-3.489
N9560 X-14.74 Y-3.389
N9565 X-14.805 Y-3.288
N9570 X-14.867 Y-3.185
N9575 X-14.928 Y-3.08
N9580 X-14.986 Y-2.975
N9585 X-15.043 Y-2.868
N9590 X-15.098 Y-2.76
N9595 X-15.15 Y-2.651
N9600 X-15.201 Y-2.541
N9605 X-15.249 Y-2.429
N9610 X-15.296 Y-2.317
N9615 X-15.34 Y-2.203
N9620 X-15.382 Y-2.088
N9625 X-15.422 Y-1.972
N9630 X-15.46 Y-1.852
N9635 X-15.524 Y-1.634
N9640 X-15.574 Y-1.438
N9645 X-15.612 Y-1.263
N9650 X-15.642 Y-1.11
N9655 X-15.664 Y-.974
N9660 X-15.682 Y-.851
N9665 X-15.707 Y-.645
N9670 X-15.721 Y-.485
N9675 X-15.73 Y-.362
N9680 X-15.737 Y-.182
N9685 X-15.74 Y-.002
N9690 X-15.739 Y.129
N9695 X-15.735 Y.257
N9700 X-15.728 Y.384
N9705 X-15.719 Y.511
N9710 X-15.708 Y.637
N9715 X-15.694 Y.763
N9720 X-15.677 Y.887
N9725 X-15.658 Y1.011
N9730 X-15.637 Y1.134
N9735 X-15.613 Y1.257
N9740 X-15.587 Y1.378
N9745 X-15.559 Y1.499
N9750 X-15.528 Y1.619
N9755 X-15.495 Y1.737
N9760 X-15.459 Y1.855
N9765 X-15.422 Y1.972
N9770 X-15.382 Y2.088
N9775 X-15.34 Y2.203
N9780 X-15.296 Y2.317
N9785 X-15.249 Y2.429
N9790 X-15.201 Y2.541
N9795 X-15.15 Y2.651
N9800 X-15.098 Y2.76
N9805 X-15.043 Y2.868
N9810 X-14.986 Y2.975
N9815 X-14.928 Y3.08
N9820 X-14.867 Y3.185
N9825 X-14.805 Y3.288
N9830 X-14.74 Y3.389
N9835 X-14.674 Y3.489
N9840 X-14.606 Y3.588
N9845 X-14.536 Y3.686
N9850 X-14.464 Y3.782
N9855 X-14.39 Y3.876
N9860 X-14.315 Y3.97
N9865 X-14.238 Y4.061
N9870 X-14.159 Y4.151
N9875 X-14.078 Y4.24
N9880 X-13.996 Y4.327
N9885 X-13.912 Y4.412
N9890 X-13.827 Y4.496
N9895 X-13.74 Y4.578
N9900 X-13.651 Y4.659
N9905 X-13.561 Y4.738
N9910 X-13.47 Y4.815
N9915 X-13.376 Y4.89
N9920 X-13.282 Y4.964
N9925 X-13.186 Y5.036
N9930 X-13.088 Y5.106
N9935 X-12.989 Y5.174
N9940 X-12.889 Y5.24
N9945 X-12.788 Y5.305
N9950 X-12.685 Y5.367
N9955 X-12.58 Y5.428
N9960 X-12.475 Y5.486
N9965 X-12.368 Y5.543
N9970 X-12.26 Y5.598
N9975 X-12.151 Y5.65
N9980 X-12.041 Y5.701
N9985 X-11.929 Y5.749
N9990 X-11.817 Y5.796
N9995 X-11.703 Y5.84
N5 X-11.588 Y5.882
N10 X-11.472 Y5.922
N15 X-11.352 Y5.96
N20 X-11.134 Y6.024
N25 X-10.938 Y6.074
N30 X-10.763 Y6.112
N35 X-10.61 Y6.142
N40 X-10.474 Y6.164
N45 X-10.351 Y6.182
N50 X-10.145 Y6.207
N55 X-9.985 Y6.221
N60 X-9.862 Y6.23
N65 X-9.682 Y6.237
N70 X-9.502 Y6.24
N75 G00 Z3.
N80 Z2.6
N85 G01 Z-.6 F750.
N90 X-9.371 Y6.239 F3000.
N95 X-9.243 Y6.235
N100 X-9.116 Y6.228
N105 X-8.989 Y6.219
N110 X-8.863 Y6.208
N115 X-8.737 Y6.194
N120 X-8.613 Y6.177
N125 X-8.489 Y6.158
N130 X-8.366 Y6.137
N135 X-8.243 Y6.113
N140 X-8.122 Y6.087
N145 X-8.001 Y6.059
N150 X-7.881 Y6.028
N155 X-7.763 Y5.995
N160 X-7.645 Y5.959
N165 X-7.528 Y5.922
N170 X-7.412 Y5.882
N175 X-7.297 Y5.84
N180 X-7.183 Y5.796
N185 X-7.071 Y5.749
N190 X-6.959 Y5.701
N195 X-6.849 Y5.65
N200 X-6.74 Y5.598
N205 X-6.632 Y5.543
N210 X-6.525 Y5.486
N215 X-6.42 Y5.428
N220 X-6.315 Y5.367
N225 X-6.212 Y5.305
N230 X-6.111 Y5.24
N235 X-6.011 Y5.174
N240 X-5.912 Y5.106
N245 X-5.814 Y5.036
N250 X-5.718 Y4.964
N255 X-5.624 Y4.89
N260 X-5.53 Y4.815
N265 X-5.439 Y4.738
N270 X-5.349 Y4.659
N275 X-5.26 Y4.578
N280 X-5.173 Y4.496
N285 X-5.088 Y4.412
N290 X-5.004 Y4.327
N295 X-4.922 Y4.24
N300 X-4.841 Y4.151
N305 X-4.762 Y4.061
N310 X-4.685 Y3.97
N315 X-4.61 Y3.876
N320 X-4.536 Y3.782
N325 X-4.464 Y3.686
N330 X-4.394 Y3.588
N335 X-4.326 Y3.489
N340 X-4.26 Y3.389
N345 X-4.195 Y3.287
N350 X-4.133 Y3.185
N355 X-4.072 Y3.08
N360 X-4.014 Y2.975
N365 X-3.957 Y2.868
N370 X-3.902 Y2.76
N375 X-3.85 Y2.651
N380 X-3.799 Y2.541
N385 X-3.751 Y2.429
N390 X-3.704 Y2.316
N395 X-3.66 Y2.203
N400 X-3.618 Y2.088
N405 X-3.578 Y1.972
N410 X-3.54 Y1.852
N415 X-3.476 Y1.634
N420 X-3.426 Y1.438
N425 X-3.388 Y1.263
N430 X-3.358 Y1.11
N435 X-3.336 Y.974
N440 X-3.318 Y.851
N445 X-3.293 Y.645
N450 X-3.279 Y.485
N455 X-3.27 Y.362
N460 X-3.263 Y.182
N465 X-3.26 Y.002
N470 X-3.261 Y-.129
N475 X-3.265 Y-.257
N480 X-3.272 Y-.384
N485 X-3.281 Y-.511
N490 X-3.292 Y-.637
N495 X-3.306 Y-.763
N500 X-3.323 Y-.887
N505 X-3.342 Y-1.011
N510 X-3.363 Y-1.134
N515 X-3.387 Y-1.257
N520 X-3.413 Y-1.378
N525 X-3.441 Y-1.499
N530 X-3.472 Y-1.619
N535 X-3.505 Y-1.737
N540 X-3.541 Y-1.855
N545 X-3.578 Y-1.972
N550 X-3.618 Y-2.088
N555 X-3.66 Y-2.203
N560 X-3.704 Y-2.317
N565 X-3.751 Y-2.429
N570 X-3.799 Y-2.541
N575 X-3.85 Y-2.651
N580 X-3.902 Y-2.76
N585 X-3.957 Y-2.868
N590 X-4.014 Y-2.975
N595 X-4.072 Y-3.08
N600 X-4.133 Y-3.185
N605 X-4.195 Y-3.288
N610 X-4.26 Y-3.389
N615 X-4.326 Y-3.489
N620 X-4.394 Y-3.588
N625 X-4.464 Y-3.686
N630 X-4.536 Y-3.782
N635 X-4.61 Y-3.876
N640 X-4.685 Y-3.97
N645 X-4.762 Y-4.061
N650 X-4.841 Y-4.151
N655 X-4.922 Y-4.24
N660 X-5.004 Y-4.327
N665 X-5.088 Y-4.412
N670 X-5.173 Y-4.496
N675 X-5.26 Y-4.578
N680 X-5.349 Y-4.659
N685 X-5.439 Y-4.738
N690 X-5.53 Y-4.815
N695 X-5.624 Y-4.89
N700 X-5.718 Y-4.964
N705 X-5.814 Y-5.036
N710 X-5.912 Y-5.106
N715 X-6.011 Y-5.174
N720 X-6.111 Y-5.24
N725 X-6.213 Y-5.305
N730 X-6.315 Y-5.367
N735 X-6.42 Y-5.428
N740 X-6.525 Y-5.486
N745 X-6.632 Y-5.543
N750 X-6.74 Y-5.598
N755 X-6.849 Y-5.65
N760 X-6.959 Y-5.701
N765 X-7.071 Y-5.749
N770 X-7.184 Y-5.796
N775 X-7.297 Y-5.84
N780 X-7.412 Y-5.882
N785 X-7.528 Y-5.922
N790 X-7.648 Y-5.96
N795 X-7.866 Y-6.024
N800 X-8.062 Y-6.074
N805 X-8.237 Y-6.112
N810 X-8.39 Y-6.142
N815 X-8.526 Y-6.164
N820 X-8.649 Y-6.182
N825 X-8.855 Y-6.207
N830 X-9.015 Y-6.221
N835 X-9.138 Y-6.23
N840 X-9.318 Y-6.237
N845 X-9.498 Y-6.24
N850 X-9.629 Y-6.239
N855 X-9.757 Y-6.235
N860 X-9.884 Y-6.228
N865 X-10.011 Y-6.219
N870 X-10.137 Y-6.208
N875 X-10.263 Y-6.194
N880 X-10.387 Y-6.177
N885 X-10.511 Y-6.158
N890 X-10.634 Y-6.137
N895 X-10.757 Y-6.113
N900 X-10.878 Y-6.087
N905 X-10.999 Y-6.059
N910 X-11.119 Y-6.028
N915 X-11.237 Y-5.995
N920 X-11.355 Y-5.959
N925 X-11.472 Y-5.922
N930 X-11.588 Y-5.882
N935 X-11.703 Y-5.84
N940 X-11.817 Y-5.796
N945 X-11.929 Y-5.749
N950 X-12.041 Y-5.701
N955 X-12.151 Y-5.65
N960 X-12.26 Y-5.598
N965 X-12.368 Y-5.543
N970 X-12.475 Y-5.486
N975 X-12.58 Y-5.428
N980 X-12.685 Y-5.367
N985 X-12.788 Y-5.305
N990 X-12.889 Y-5.24
N995 X-12.989 Y-5.174
N1000 X-13.088 Y-5.106
N1005 X-13.186 Y-5.036
N1010 X-13.282 Y-4.964
N1015 X-13.376 Y-4.89
N1020 X-13.47 Y-4.815
N1025 X-13.561 Y-4.738
N1030 X-13.651 Y-4.659
N1035 X-13.74 Y-4.578
N1040 X-13.827 Y-4.496
N1045 X-13.912 Y-4.412
N1050 X-13.996 Y-4.327
N1055 X-14.078 Y-4.24
N1060 X-14.159 Y-4.151
N1065 X-14.238 Y-4.061
N1070 X-14.315 Y-3.97
N1075 X-14.39 Y-3.876
N1080 X-14.464 Y-3.782
N1085 X-14.536 Y-3.686
N1090 X-14.606 Y-3.588
N1095 X-14.674 Y-3.489
N1100 X-14.74 Y-3.389
N1105 X-14.805 Y-3.288
N1110 X-14.867 Y-3.185
N1115 X-14.928 Y-3.08
N1120 X-14.986 Y-2.975
N1125 X-15.043 Y-2.868
N1130 X-15.098 Y-2.76
N1135 X-15.15 Y-2.651
N1140 X-15.201 Y-2.541
N1145 X-15.249 Y-2.429
N1150 X-15.296 Y-2.317
N1155 X-15.34 Y-2.203
N1160 X-15.382 Y-2.088
N1165 X-15.422 Y-1.972
N1170 X-15.46 Y-1.852
N1175 X-15.524 Y-1.634
N1180 X-15.574 Y-1.438
N1185 X-15.612 Y-1.263
N1190 X-15.642 Y-1.11
N1195 X-15.664 Y-.974
N1200 X-15.682 Y-.851
N1205 X-15.707 Y-.645
N1210 X-15.721 Y-.485
N1215 X-15.73 Y-.362
N1220 X-15.737 Y-.182
N1225 X-15.74 Y-.002
N1230 X-15.739 Y.129
N1235 X-15.735 Y.257
N1240 X-15.728 Y.384
N1245 X-15.719 Y.511
N1250 X-15.708 Y.637
N1255 X-15.694 Y.763
N1260 X-15.677 Y.887
N1265 X-15.658 Y1.011
N1270 X-15.637 Y1.134
N1275 X-15.613 Y1.257
N1280 X-15.587 Y1.378
N1285 X-15.559 Y1.499
N1290 X-15.528 Y1.619
N1295 X-15.495 Y1.737
N1300 X-15.459 Y1.855
N1305 X-15.422 Y1.972
N1310 X-15.382 Y2.088
N1315 X-15.34 Y2.203
N1320 X-15.296 Y2.317
N1325 X-15.249 Y2.429
N1330 X-15.201 Y2.541
N1335 X-15.15 Y2.651
N1340 X-15.098 Y2.76
N1345 X-15.043 Y2.868
N1350 X-14.986 Y2.975
N1355 X-14.928 Y3.08
N1360 X-14.867 Y3.185
N1365 X-14.805 Y3.288
N1370 X-14.74 Y3.389
N1375 X-14.674 Y3.489
N1380 X-14.606 Y3.588
N1385 X-14.536 Y3.686
N1390 X-14.464 Y3.782
N1395 X-14.39 Y3.876
N1400 X-14.315 Y3.97
N1405 X-14.238 Y4.061
N1410 X-14.159 Y4.151
N1415 X-14.078 Y4.24
N1420 X-13.996 Y4.327
N1425 X-13.912 Y4.412
N1430 X-13.827 Y4.496
N1435 X-13.74 Y4.578
N1440 X-13.651 Y4.659
N1445 X-13.561 Y4.738
N1450 X-13.47 Y4.815
N1455 X-13.376 Y4.89
N1460 X-13.282 Y4.964
N1465 X-13.186 Y5.036
N1470 X-13.088 Y5.106
N1475 X-12.989 Y5.174
N1480 X-12.889 Y5.24
N1485 X-12.788 Y5.305
N1490 X-12.685 Y5.367
N1495 X-12.58 Y5.428
N1500 X-12.475 Y5.486
N1505 X-12.368 Y5.543
N1510 X-12.26 Y5.598
N1515 X-12.151 Y5.65
N1520 X-12.041 Y5.701
N1525 X-11.929 Y5.749
N1530 X-11.817 Y5.796
N1535 X-11.703 Y5.84
N1540 X-11.588 Y5.882
N1545 X-11.472 Y5.922
N1550 X-11.352 Y5.96
N1555 X-11.134 Y6.024
N1560 X-10.938 Y6.074
N1565 X-10.763 Y6.112
N1570 X-10.61 Y6.142
N1575 X-10.474 Y6.164
N1580 X-10.351 Y6.182
N1585 X-10.145 Y6.207
N1590 X-9.985 Y6.221
N1595 X-9.862 Y6.23
N1600 X-9.682 Y6.237
N1605 X-9.502 Y6.24
N1610 G00 Z3.
N1615 Z2.4
N1620 G01 Z-.8 F750.
N1625 X-9.371 Y6.239 F3000.
N1630 X-9.243 Y6.235
N1635 X-9.116 Y6.228
N1640 X-8.989 Y6.219
N1645 X-8.863 Y6.208
N1650 X-8.737 Y6.194
N1655 X-8.613 Y6.177
N1660 X-8.489 Y6.158
N1665 X-8.366 Y6.137
N1670 X-8.243 Y6.113
N1675 X-8.122 Y6.087
N1680 X-8.001 Y6.059
N1685 X-7.881 Y6.028
N1690 X-7.763 Y5.995
N1695 X-7.645 Y5.959
N1700 X-7.528 Y5.922
N1705 X-7.412 Y5.882
N1710 X-7.297 Y5.84
N1715 X-7.183 Y5.796
N1720 X-7.071 Y5.749
N1725 X-6.959 Y5.701
N1730 X-6.849 Y5.65
N1735 X-6.74 Y5.598
N1740 X-6.632 Y5.543
N1745 X-6.525 Y5.486
N1750 X-6.42 Y5.428
N1755 X-6.315 Y5.367
N1760 X-6.212 Y5.305
N1765 X-6.111 Y5.24
N1770 X-6.011 Y5.174
N1775 X-5.912 Y5.106
N1780 X-5.814 Y5.036
N1785 X-5.718 Y4.964
N1790 X-5.624 Y4.89
N1795 X-5.53 Y4.815
N1800 X-5.439 Y4.738
N1805 X-5.349 Y4.659
N1810 X-5.26 Y4.578
N1815 X-5.173 Y4.496
N1820 X-5.088 Y4.412
N1825 X-5.004 Y4.327
N1830 X-4.922 Y4.24
N1835 X-4.841 Y4.151
N1840 X-4.762 Y4.061
N1845 X-4.685 Y3.97
N1850 X-4.61 Y3.876
N1855 X-4.536 Y3.782
N1860 X-4.464 Y3.686
N1865 X-4.394 Y3.588
N1870 X-4.326 Y3.489
N1875 X-4.26 Y3.389
N1880 X-4.195 Y3.287
N1885 X-4.133 Y3.185
N1890 X-4.072 Y3.08
N1895 X-4.014 Y2.975
N1900 X-3.957 Y2.868
N1905 X-3.902 Y2.76
N1910 X-3.85 Y2.651
N1915 X-3.799 Y2.541
N1920 X-3.751 Y2.429
N1925 X-3.704 Y2.316
N1930 X-3.66 Y2.203
N1935 X-3.618 Y2.088
N1940 X-3.578 Y1.972
N1945 X-3.54 Y1.852
N1950 X-3.476 Y1.634
N1955 X-3.426 Y1.438
N1960 X-3.388 Y1.263
N1965 X-3.358 Y1.11
N1970 X-3.336 Y.974
N1975 X-3.318 Y.851
N1980 X-3.293 Y.645
N1985 X-3.279 Y.485
N1990 X-3.27 Y.362
N1995 X-3.263 Y.182
N2000 X-3.26 Y.002
N2005 X-3.261 Y-.129
N2010 X-3.265 Y-.257
N2015 X-3.272 Y-.384
N2020 X-3.281 Y-.511
N2025 X-3.292 Y-.637
N2030 X-3.306 Y-.763
N2035 X-3.323 Y-.887
N2040 X-3.342 Y-1.011
N2045 X-3.363 Y-1.134
N2050 X-3.387 Y-1.257
N2055 X-3.413 Y-1.378
N2060 X-3.441 Y-1.499
N2065 X-3.472 Y-1.619
N2070 X-3.505 Y-1.737
N2075 X-3.541 Y-1.855
N2080 X-3.578 Y-1.972
N2085 X-3.618 Y-2.088
N2090 X-3.66 Y-2.203
N2095 X-3.704 Y-2.317
N2100 X-3.751 Y-2.429
N2105 X-3.799 Y-2.541
N2110 X-3.85 Y-2.651
N2115 X-3.902 Y-2.76
N2120 X-3.957 Y-2.868
N2125 X-4.014 Y-2.975
N2130 X-4.072 Y-3.08
N2135 X-4.133 Y-3.185
N2140 X-4.195 Y-3.288
N2145 X-4.26 Y-3.389
N2150 X-4.326 Y-3.489
N2155 X-4.394 Y-3.588
N2160 X-4.464 Y-3.686
N2165 X-4.536 Y-3.782
N2170 X-4.61 Y-3.876
N2175 X-4.685 Y-3.97
N2180 X-4.762 Y-4.061
N2185 X-4.841 Y-4.151
N2190 X-4.922 Y-4.24
N2195 X-5.004 Y-4.327
N2200 X-5.088 Y-4.412
N2205 X-5.173 Y-4.496
N2210 X-5.26 Y-4.578
N2215 X-5.349 Y-4.659
N2220 X-5.439 Y-4.738
N2225 X-5.53 Y-4.815
N2230 X-5.624 Y-4.89
N2235 X-5.718 Y-4.964
N2240 X-5.814 Y-5.036
N2245 X-5.912 Y-5.106
N2250 X-6.011 Y-5.174
N2255 X-6.111 Y-5.24
N2260 X-6.213 Y-5.305
N2265 X-6.315 Y-5.367
N2270 X-6.42 Y-5.428
N2275 X-6.525 Y-5.486
N2280 X-6.632 Y-5.543
N2285 X-6.74 Y-5.598
N2290 X-6.849 Y-5.65
N2295 X-6.959 Y-5.701
N2300 X-7.071 Y-5.749
N2305 X-7.184 Y-5.796
N2310 X-7.297 Y-5.84
N2315 X-7.412 Y-5.882
N2320 X-7.528 Y-5.922
N2325 X-7.648 Y-5.96
N2330 X-7.866 Y-6.024
N2335 X-8.062 Y-6.074
N2340 X-8.237 Y-6.112
N2345 X-8.39 Y-6.142
N2350 X-8.526 Y-6.164
N2355 X-8.649 Y-6.182
N2360 X-8.855 Y-6.207
N2365 X-9.015 Y-6.221
N2370 X-9.138 Y-6.23
N2375 X-9.318 Y-6.237
N2380 X-9.498 Y-6.24
N2385 X-9.629 Y-6.239
N2390 X-9.757 Y-6.235
N2395 X-9.884 Y-6.228
N2400 X-10.011 Y-6.219
N2405 X-10.137 Y-6.208
N2410 X-10.263 Y-6.194
N2415 X-10.387 Y-6.177
N2420 X-10.511 Y-6.158
N2425 X-10.634 Y-6.137
N2430 X-10.757 Y-6.113
N2435 X-10.878 Y-6.087
N2440 X-10.999 Y-6.059
N2445 X-11.119 Y-6.028
N2450 X-11.237 Y-5.995
N2455 X-11.355 Y-5.959
N2460 X-11.472 Y-5.922
N2465 X-11.588 Y-5.882
N2470 X-11.703 Y-5.84
N2475 X-11.817 Y-5.796
N2480 X-11.929 Y-5.749
N2485 X-12.041 Y-5.701
N2490 X-12.151 Y-5.65
N2495 X-12.26 Y-5.598
N2500 X-12.368 Y-5.543
N2505 X-12.475 Y-5.486
N2510 X-12.58 Y-5.428
N2515 X-12.685 Y-5.367
N2520 X-12.788 Y-5.305
N2525 X-12.889 Y-5.24
N2530 X-12.989 Y-5.174
N2535 X-13.088 Y-5.106
N2540 X-13.186 Y-5.036
N2545 X-13.282 Y-4.964
N2550 X-13.376 Y-4.89
N2555 X-13.47 Y-4.815
N2560 X-13.561 Y-4.738
N2565 X-13.651 Y-4.659
N2570 X-13.74 Y-4.578
N2575 X-13.827 Y-4.496
N2580 X-13.912 Y-4.412
N2585 X-13.996 Y-4.327
N2590 X-14.078 Y-4.24
N2595 X-14.159 Y-4.151
N2600 X-14.238 Y-4.061
N2605 X-14.315 Y-3.97
N2610 X-14.39 Y-3.876
N2615 X-14.464 Y-3.782
N2620 X-14.536 Y-3.686
N2625 X-14.606 Y-3.588
N2630 X-14.674 Y-3.489
N2635 X-14.74 Y-3.389
N2640 X-14.805 Y-3.288
N2645 X-14.867 Y-3.185
N2650 X-14.928 Y-3.08
N2655 X-14.986 Y-2.975
N2660 X-15.043 Y-2.868
N2665 X-15.098 Y-2.76
N2670 X-15.15 Y-2.651
N2675 X-15.201 Y-2.541
N2680 X-15.249 Y-2.429
N2685 X-15.296 Y-2.317
N2690 X-15.34 Y-2.203
N2695 X-15.382 Y-2.088
N2700 X-15.422 Y-1.972
N2705 X-15.46 Y-1.852
N2710 X-15.524 Y-1.634
N2715 X-15.574 Y-1.438
N2720 X-15.612 Y-1.263
N2725 X-15.642 Y-1.11
N2730 X-15.664 Y-.974
N2735 X-15.682 Y-.851
N2740 X-15.707 Y-.645
N2745 X-15.721 Y-.485
N2750 X-15.73 Y-.362
N2755 X-15.737 Y-.182
N2760 X-15.74 Y-.002
N2765 X-15.739 Y.129
N2770 X-15.735 Y.257
N2775 X-15.728 Y.384
N2780 X-15.719 Y.511
N2785 X-15.708 Y.637
N2790 X-15.694 Y.763
N2795 X-15.677 Y.887
N2800 X-15.658 Y1.011
N2805 X-15.637 Y1.134
N2810 X-15.613 Y1.257
N2815 X-15.587 Y1.378
N2820 X-15.559 Y1.499
N2825 X-15.528 Y1.619
N2830 X-15.495 Y1.737
N2835 X-15.459 Y1.855
N2840 X-15.422 Y1.972
N2845 X-15.382 Y2.088
N2850 X-15.34 Y2.203
N2855 X-15.296 Y2.317
N2860 X-15.249 Y2.429
N2865 X-15.201 Y2.541
N2870 X-15.15 Y2.651
N2875 X-15.098 Y2.76
N2880 X-15.043 Y2.868
N2885 X-14.986 Y2.975
N2890 X-14.928 Y3.08
N2895 X-14.867 Y3.185
N2900 X-14.805 Y3.288
N2905 X-14.74 Y3.389
N2910 X-14.674 Y3.489
N2915 X-14.606 Y3.588
N2920 X-14.536 Y3.686
N2925 X-14.464 Y3.782
N2930 X-14.39 Y3.876
N2935 X-14.315 Y3.97
N2940 X-14.238 Y4.061
N2945 X-14.159 Y4.151
N2950 X-14.078 Y4.24
N2955 X-13.996 Y4.327
N2960 X-13.912 Y4.412
N2965 X-13.827 Y4.496
N2970 X-13.74 Y4.578
N2975 X-13.651 Y4.659
N2980 X-13.561 Y4.738
N2985 X-13.47 Y4.815
N2990 X-13.376 Y4.89
N2995 X-13.282 Y4.964
N3000 X-13.186 Y5.036
N3005 X-13.088 Y5.106
N3010 X-12.989 Y5.174
N3015 X-12.889 Y5.24
N3020 X-12.788 Y5.305
N3025 X-12.685 Y5.367
N3030 X-12.58 Y5.428
N3035 X-12.475 Y5.486
N3040 X-12.368 Y5.543
N3045 X-12.26 Y5.598
N3050 X-12.151 Y5.65
N3055 X-12.041 Y5.701
N3060 X-11.929 Y5.749
N3065 X-11.817 Y5.796
N3070 X-11.703 Y5.84
N3075 X-11.588 Y5.882
N3080 X-11.472 Y5.922
N3085 X-11.352 Y5.96
N3090 X-11.134 Y6.024
N3095 X-10.938 Y6.074
N3100 X-10.763 Y6.112
N3105 X-10.61 Y6.142
N3110 X-10.474 Y6.164
N3115 X-10.351 Y6.182
N3120 X-10.145 Y6.207
N3125 X-9.985 Y6.221
N3130 X-9.862 Y6.23
N3135 X-9.682 Y6.237
N3140 X-9.502 Y6.24
N3145 G00 Z3.
N3150 Z25.
N3155 G90 G54 X-15.859 Y-7.047
N3160 Z3.
N3165 G01 Z-.95 F750.
N3170 X-15.976 Y-6.775 F300.
N3175 X-16.116 Y-6.432
N3180 X-16.248 Y-6.086
N3185 X-16.373 Y-5.738
N3190 X-16.49 Y-5.387
N3195 X-16.6 Y-5.033
N3200 X-16.702 Y-4.678
N3205 X-16.796 Y-4.32
N3210 X-16.883 Y-3.96
N3215 X-16.962 Y-3.599
N3220 X-17.034 Y-3.235
N3225 X-17.098 Y-2.871
N3230 X-17.153 Y-2.505
N3235 X-17.201 Y-2.138
N3240 X-17.242 Y-1.77
N3245 X-17.274 Y-1.402
N3250 X-17.298 Y-1.033
N3255 X-17.315 Y-.663
N3260 X-17.324 Y-.293
N3265 X-17.325 Y.077
N3270 X-17.317 Y.446
N3275 X-17.302 Y.816
N3280 X-17.28 Y1.185
N3285 X-17.249 Y1.554
N3290 X-17.21 Y1.921
N3295 X-17.164 Y2.288
N3300 X-17.109 Y2.654
N3305 X-17.047 Y3.019
N3310 X-16.977 Y3.382
N3315 X-16.9 Y3.743
N3320 X-16.815 Y4.103
N3325 X-16.722 Y4.461
N3330 X-16.621 Y4.817
N3335 X-16.513 Y5.17
N3340 X-16.397 Y5.521
N3345 X-16.274 Y5.87
N3350 X-16.143 Y6.215
N3355 X-16.006 Y6.558
N3360 X-15.86 Y6.898
N3365 X-15.708 Y7.235
N3370 X-15.548 Y7.568
N3375 X-15.382 Y7.898
N3380 X-15.208 Y8.224
N3385 X-15.028 Y8.547
N3390 X-14.84 Y8.865
N3395 X-14.646 Y9.18
N3400 X-14.445 Y9.49
N3405 X-14.238 Y9.795
N3410 X-14.024 Y10.097
N3415 X-13.804 Y10.393
N3420 X-13.577 Y10.685
N3425 X-13.344 Y10.972
N3430 X-13.106 Y11.254
N3435 X-12.861 Y11.53
N3440 X-12.61 Y11.801
N3445 X-12.354 Y12.067
N3450 X-12.092 Y12.328
N3455 X-11.825 Y12.582
N3460 X-11.552 Y12.831
N3465 X-11.274 Y13.074
N3470 X-10.99 Y13.311
N3475 X-10.702 Y13.542
N3480 X-10.409 Y13.766
N3485 X-10.112 Y13.985
N3490 X-9.809 Y14.197
N3495 X-9.502 Y14.402
N3500 X-9.191 Y14.601
N3505 X-8.876 Y14.793
N3510 X-8.557 Y14.978
N3515 X-8.234 Y15.156
N3520 X-7.907 Y15.327
N3525 X-7.576 Y15.492
N3530 X-7.242 Y15.649
N3535 X-6.905 Y15.799
N3540 X-6.565 Y15.942
N3545 X-6.222 Y16.077
N3550 X-5.876 Y16.205
N3555 X-5.527 Y16.326
N3560 X-5.176 Y16.439
N3565 X-4.822 Y16.544
N3570 X-4.467 Y16.642
N3575 X-4.109 Y16.733
N3580 X-3.75 Y16.815
N3585 X-3.388 Y16.89
N3590 X-3.026 Y16.957
N3595 X-2.662 Y17.017
N3600 X-2.297 Y17.068
N3605 X-1.93 Y17.112
N3610 X-1.563 Y17.148
N3615 X-1.196 Y17.176
N3620 X-.828 Y17.196
N3625 X-.459 Y17.208
N3630 X-.09 Y17.213
N3635 X.278 Y17.209
N3640 X.647 Y17.198
N3645 X1.015 Y17.178
N3650 X1.382 Y17.151
N3655 X1.749 Y17.116
N3660 X2.116 Y17.073
N3665 X2.481 Y17.022
N3670 X2.844 Y16.964
N3675 X3.207 Y16.897
N3680 X3.568 Y16.823
N3685 X3.927 Y16.742
N3690 X4.285 Y16.652
N3695 X4.64 Y16.555
N3700 X4.994 Y16.45
N3705 X5.344 Y16.338
N3710 X5.693 Y16.218
N3715 X6.039 Y16.091
N3720 X6.382 Y15.956
N3725 X6.722 Y15.815
N3730 X7.058 Y15.665
N3735 X7.392 Y15.509
N3740 X7.722 Y15.346
N3745 X8.049 Y15.175
N3750 X8.371 Y14.998
N3755 X8.69 Y14.814
N3760 X9.005 Y14.623
N3765 X9.316 Y14.425
N3770 X9.622 Y14.221
N3775 X9.924 Y14.01
N3780 X10.221 Y13.792
N3785 X10.514 Y13.569
N3790 X10.801 Y13.339
N3795 X11.084 Y13.103
N3800 X11.361 Y12.861
N3805 X11.634 Y12.613
N3810 X11.9 Y12.36
N3815 X12.162 Y12.101
N3820 X12.417 Y11.836
N3825 X12.667 Y11.566
N3830 X12.911 Y11.29
N3835 X13.149 Y11.01
N3840 X13.381 Y10.724
N3845 X13.607 Y10.433
N3850 X13.827 Y10.138
N3855 X14.04 Y9.838
N3860 X14.247 Y9.534
N3865 X14.447 Y9.225
N3870 X14.64 Y8.912
N3875 X14.827 Y8.595
N3880 X15.006 Y8.274
N3885 X15.179 Y7.949
N3890 X15.345 Y7.621
N3895 X15.503 Y7.289
N3900 X15.655 Y6.954
N3905 X15.799 Y6.616
N3910 X15.936 Y6.274
N3915 X16.066 Y5.93
N3920 X16.188 Y5.583
N3925 X16.303 Y5.234
N3930 X16.41 Y4.882
N3935 X16.509 Y4.528
N3940 X16.601 Y4.172
N3945 X16.686 Y3.814
N3950 X16.762 Y3.455
N3955 X16.831 Y3.094
N3960 X16.892 Y2.731
N3965 X16.945 Y2.368
N3970 X16.991 Y2.003
N3975 X17.028 Y1.637
N3980 X17.058 Y1.271
N3985 X17.08 Y.904
N3990 X17.094 Y.537
N3995 X17.1 Y.169
N4000 X17.098 Y-.198
N4005 X17.088 Y-.565
N4010 X17.071 Y-.932
N4015 X17.045 Y-1.299
N4020 X17.012 Y-1.665
N4025 X16.971 Y-2.03
N4030 X16.921 Y-2.394
N4035 X16.865 Y-2.757
N4040 X16.8 Y-3.118
N4045 X16.727 Y-3.479
N4050 X16.647 Y-3.837
N4055 X16.559 Y-4.194
N4060 X16.464 Y-4.548
N4065 X16.361 Y-4.901
N4070 X16.25 Y-5.251
N4075 X16.132 Y-5.599
N4080 X16.007 Y-5.944
N4085 X15.874 Y-6.286
N4090 X15.733 Y-6.625
N4095 X15.586 Y-6.961
N4100 X15.431 Y-7.294
N4105 X15.269 Y-7.624
N4110 X15.1 Y-7.95
N4115 X14.925 Y-8.272
N4120 X14.742 Y-8.59
N4125 X14.552 Y-8.905
N4130 X14.356 Y-9.215
N4135 X14.153 Y-9.521
N4140 X13.944 Y-9.822
N4145 X13.728 Y-10.119
N4150 X13.506 Y-10.411
N4155 X13.278 Y-10.698
N4160 X13.043 Y-10.981
N4165 X12.803 Y-11.258
N4170 X12.556 Y-11.53
N4175 X12.304 Y-11.796
N4180 X12.046 Y-12.057
N4185 X11.783 Y-12.312
N4190 X11.514 Y-12.562
N4195 X11.24 Y-12.806
N4200 X10.961 Y-13.044
N4205 X10.677 Y-13.275
N4210 X10.387 Y-13.501
N4215 X10.093 Y-13.72
N4220 X9.795 Y-13.933
N4225 X9.492 Y-14.139
N4230 X9.184 Y-14.339
N4235 X8.873 Y-14.532
N4240 X8.557 Y-14.719
N4245 X8.237 Y-14.898
N4250 X7.914 Y-15.071
N4255 X7.587 Y-15.236
N4260 X7.256 Y-15.395
N4265 X6.922 Y-15.546
N4270 X6.585 Y-15.69
N4275 X6.245 Y-15.827
N4280 X5.902 Y-15.956
N4285 X5.556 Y-16.078
N4290 X5.208 Y-16.193
N4295 X4.858 Y-16.3
N4300 X4.505 Y-16.399
N4305 X4.15 Y-16.491
N4310 X3.794 Y-16.575
N4315 X3.435 Y-16.651
N4320 X3.075 Y-16.72
N4325 X2.714 Y-16.781
N4330 X2.352 Y-16.834
N4335 X1.988 Y-16.879
N4340 X1.624 Y-16.917
N4345 X1.259 Y-16.946
N4350 X.893 Y-16.968
N4355 X.527 Y-16.982
N4360 X.161 Y-16.987
N4365 X-.205 Y-16.985
N4370 X-.572 Y-16.975
N4375 X-.937 Y-16.958
N4380 X-1.303 Y-16.932
N4385 X-1.667 Y-16.898
N4390 X-2.031 Y-16.857
N4395 X-2.394 Y-16.808
N4400 X-2.755 Y-16.751
N4405 X-3.116 Y-16.686
N4410 X-3.475 Y-16.613
N4415 X-3.832 Y-16.533
N4420 X-4.187 Y-16.445
N4425 X-4.54 Y-16.349
N4430 X-4.892 Y-16.246
N4435 X-5.24 Y-16.135
N4440 X-5.587 Y-16.017
N4445 X-5.93 Y-15.891
N4450 X-6.271 Y-15.758
N4455 X-6.609 Y-15.618
N4460 X-6.944 Y-15.47
N4465 X-7.276 Y-15.315
N4470 X-7.604 Y-15.154
N4475 X-7.928 Y-14.985
N4480 X-8.249 Y-14.809
N4485 X-8.566 Y-14.626
N4490 X-8.879 Y-14.436
N4495 X-9.187 Y-14.24
N4500 X-9.492 Y-14.037
N4505 X-9.792 Y-13.828
N4510 X-10.087 Y-13.612
N4515 X-10.377 Y-13.39
N4520 X-10.663 Y-13.161
N4525 X-10.944 Y-12.927
N4530 X-11.219 Y-12.686
N4535 X-11.489 Y-12.44
N4540 X-11.754 Y-12.188
N4545 X-12.014 Y-11.93
N4550 X-12.267 Y-11.667
N4555 X-12.515 Y-11.398
N4560 X-12.757 Y-11.124
N4565 X-12.993 Y-10.845
N4570 X-13.223 Y-10.561
N4575 X-13.447 Y-10.272
N4580 X-13.665 Y-9.978
N4585 X-13.876 Y-9.68
N4590 X-14.08 Y-9.377
N4595 X-14.278 Y-9.07
N4600 X-14.47 Y-8.759
N4605 X-14.654 Y-8.443
N4610 X-14.832 Y-8.124
N4615 X-15.002 Y-7.801
N4620 X-15.166 Y-7.474
N4625 X-15.323 Y-7.144
N4630 X-15.472 Y-6.811
N4635 X-15.614 Y-6.474
N4640 X-15.749 Y-6.135
N4645 X-15.876 Y-5.792
N4650 X-15.996 Y-5.447
N4655 X-16.109 Y-5.1
N4660 X-16.214 Y-4.75
N4665 X-16.311 Y-4.398
N4670 X-16.401 Y-4.044
N4675 X-16.483 Y-3.688
N4680 X-16.558 Y-3.331
N4685 X-16.624 Y-2.972
N4690 X-16.683 Y-2.611
N4695 X-16.734 Y-2.25
N4700 X-16.777 Y-1.887
N4705 X-16.813 Y-1.524
N4710 X-16.84 Y-1.16
N4715 X-16.86 Y-.795
N4720 X-16.871 Y-.43
N4725 X-16.875 Y-.065
N4730 X-16.871 Y.3
N4735 X-16.859 Y.664
N4740 X-16.839 Y1.029
N4745 X-16.811 Y1.393
N4750 X-16.776 Y1.756
N4755 X-16.732 Y2.118
N4760 X-16.681 Y2.479
N4765 X-16.622 Y2.84
N4770 X-16.555 Y3.198
N4775 X-16.481 Y3.555
N4780 X-16.398 Y3.911
N4785 X-16.308 Y4.264
N4790 X-16.211 Y4.616
N4795 X-16.106 Y4.965
N4800 X-15.993 Y5.312
N4805 X-15.873 Y5.656
N4810 X-15.745 Y5.998
N4815 X-15.61 Y6.337
N4820 X-15.468 Y6.673
N4825 X-15.318 Y7.005
N4830 X-15.162 Y7.335
N4835 X-14.998 Y7.66
N4840 X-14.827 Y7.983
N4845 X-14.65 Y8.301
N4850 X-14.465 Y8.616
N4855 X-14.274 Y8.926
N4860 X-14.076 Y9.232
N4865 X-13.872 Y9.534
N4870 X-13.661 Y9.831
N4875 X-13.443 Y10.124
N4880 X-13.22 Y10.412
N4885 X-12.99 Y10.694
N4890 X-12.754 Y10.972
N4895 X-12.512 Y11.245
N4900 X-12.264 Y11.512
N4905 X-12.011 Y11.774
N4910 X-11.752 Y12.03
N4915 X-11.488 Y12.281
N4920 X-11.218 Y12.526
N4925 X-10.943 Y12.765
N4930 X-10.663 Y12.998
N4935 X-10.377 Y13.225
N4940 X-10.088 Y13.445
N4945 X-9.793 Y13.659
N4950 X-9.494 Y13.867
N4955 X-9.19 Y14.068
N4960 X-8.882 Y14.263
N4965 X-8.57 Y14.451
N4970 X-8.254 Y14.632
N4975 X-7.934 Y14.806
N4980 X-7.611 Y14.973
N4985 X-7.284 Y15.133
N4990 X-6.953 Y15.286
N4995 X-6.62 Y15.432
N5000 X-6.283 Y15.57
N5005 X-5.943 Y15.701
N5010 X-5.601 Y15.825
N5015 X-5.256 Y15.941
N5020 X-4.909 Y16.05
N5025 X-4.559 Y16.151
N5030 X-4.207 Y16.245
N5035 X-3.853 Y16.331
N5040 X-3.498 Y16.409
N5045 X-3.141 Y16.479
N5050 X-2.782 Y16.542
N5055 X-2.423 Y16.597
N5060 X-2.062 Y16.644
N5065 X-1.7 Y16.683
N5070 X-1.338 Y16.715
N5075 X-.975 Y16.738
N5080 X-.611 Y16.754
N5085 X-.248 Y16.762
N5090 X.116
N5095 X.48 Y16.754
N5100 X.843 Y16.738
N5105 X1.206 Y16.714
N5110 X1.569 Y16.682
N5115 X1.93 Y16.643
N5120 X2.291 Y16.595
N5125 X2.65 Y16.54
N5130 X3.008 Y16.477
N5135 X3.365 Y16.406
N5140 X3.72 Y16.328
N5145 X4.073 Y16.242
N5150 X4.425 Y16.148
N5155 X4.774 Y16.047
N5160 X5.12 Y15.938
N5165 X5.465 Y15.821
N5170 X5.807 Y15.698
N5175 X6.146 Y15.566
N5180 X6.482 Y15.428
N5185 X6.814 Y15.282
N5190 X7.144 Y15.129
N5195 X7.47 Y14.969
N5200 X7.793 Y14.802
N5205 X8.112 Y14.627
N5210 X8.427 Y14.446
N5215 X8.738 Y14.259
N5220 X9.045 Y14.064
N5225 X9.347 Y13.863
N5230 X9.646 Y13.655
N5235 X9.939 Y13.441
N5240 X10.228 Y13.221
N5245 X10.512 Y12.994
N5250 X10.791 Y12.762
N5255 X11.064 Y12.523
N5260 X11.333 Y12.278
N5265 X11.596 Y12.028
N5270 X11.854 Y11.772
N5275 X12.106 Y11.511
N5280 X12.352 Y11.244
N5285 X12.592 Y10.971
N5290 X12.826 Y10.694
N5295 X13.055 Y10.412
N5300 X13.277 Y10.125
N5305 X13.493 Y9.833
N5310 X13.702 Y9.536
N5315 X13.905 Y9.235
N5320 X14.101 Y8.93
N5325 X14.29 Y8.62
N5330 X14.473 Y8.306
N5335 X14.649 Y7.989
N5340 X14.818 Y7.668
N5345 X14.98 Y7.343
N5350 X15.135 Y7.015
N5355 X15.282 Y6.683
N5360 X15.422 Y6.349
N5365 X15.555 Y6.011
N5370 X15.681 Y5.671
N5375 X15.799 Y5.328
N5380 X15.91 Y4.982
N5385 X16.013 Y4.634
N5390 X16.109 Y4.284
N5395 X16.197 Y3.932
N5400 X16.277 Y3.579
N5405 X16.349 Y3.223
N5410 X16.414 Y2.866
N5415 X16.471 Y2.508
N5420 X16.52 Y2.149
N5425 X16.561 Y1.789
N5430 X16.595 Y1.428
N5435 X16.62 Y1.066
N5440 X16.638 Y.704
N5445 X16.648 Y.341
N5450 X16.65 Y-.021
N5455 X16.644 Y-.384
N5460 X16.63 Y-.746
N5465 X16.608 Y-1.108
N5470 X16.579 Y-1.469
N5475 X16.541 Y-1.829
N5480 X16.496 Y-2.189
N5485 X16.443 Y-2.547
N5490 X16.382 Y-2.905
N5495 X16.313 Y-3.261
N5500 X16.237 Y-3.615
N5505 X16.153 Y-3.967
N5510 X16.061 Y-4.318
N5515 X15.962 Y-4.666
N5520 X15.855 Y-5.012
N5525 X15.74 Y-5.356
N5530 X15.618 Y-5.697
N5535 X15.489 Y-6.036
N5540 X15.352 Y-6.371
N5545 X15.208 Y-6.703
N5550 X15.057 Y-7.033
N5555 X14.899 Y-7.358
N5560 X14.734 Y-7.681
N5565 X14.562 Y-7.999
N5570 X14.382 Y-8.314
N5575 X14.196 Y-8.625
N5580 X14.004 Y-8.931
N5585 X13.804 Y-9.233
N5590 X13.599 Y-9.531
N5595 X13.386 Y-9.825
N5600 X13.168 Y-10.113
N5605 X12.943 Y-10.397
N5610 X12.712 Y-10.676
N5615 X12.475 Y-10.949
N5620 X12.232 Y-11.218
N5625 X11.983 Y-11.481
N5630 X11.729 Y-11.738
N5635 X11.469 Y-11.99
N5640 X11.204 Y-12.236
N5645 X10.933 Y-12.476
N5650 X10.658 Y-12.711
N5655 X10.377 Y-12.939
N5660 X10.091 Y-13.161
N5665 X9.801 Y-13.377
N5670 X9.506 Y-13.586
N5675 X9.206 Y-13.789
N5680 X8.902 Y-13.985
N5685 X8.594 Y-14.175
N5690 X8.282 Y-14.357
N5695 X7.966 Y-14.533
N5700 X7.646 Y-14.702
N5705 X7.323 Y-14.864
N5710 X6.996 Y-15.019
N5715 X6.666 Y-15.167
N5720 X6.333 Y-15.307
N5725 X5.997 Y-15.44
N5730 X5.658 Y-15.566
N5735 X5.316 Y-15.685
N5740 X4.972 Y-15.795
N5745 X4.625 Y-15.899
N5750 X4.277 Y-15.994
N5755 X3.926 Y-16.082
N5760 X3.574 Y-16.163
N5765 X3.22 Y-16.235
N5770 X2.864 Y-16.3
N5775 X2.507 Y-16.357
N5780 X2.149 Y-16.407
N5785 X1.79 Y-16.448
N5790 X1.43 Y-16.482
N5795 X1.07 Y-16.507
N5800 X.709 Y-16.525
N5805 X.348 Y-16.535
N5810 X-.013 Y-16.537
N5815 X-.375 Y-16.532
N5820 X-.736 Y-16.518
N5825 X-1.096 Y-16.496
N5830 X-1.456 Y-16.467
N5835 X-1.816 Y-16.43
N5840 X-2.174 Y-16.384
N5845 X-2.531 Y-16.332
N5850 X-2.887 Y-16.271
N5855 X-3.242 Y-16.202
N5860 X-3.595 Y-16.126
N5865 X-3.946 Y-16.042
N5870 X-4.295 Y-15.95
N5875 X-4.642 Y-15.851
N5880 X-4.987 Y-15.745
N5885 X-5.33 Y-15.63
N5890 X-5.67 Y-15.509
N5895 X-6.007 Y-15.379
N5900 X-6.341 Y-15.243
N5905 X-6.672 Y-15.099
N5910 X-7. Y-14.948
N5915 X-7.324 Y-14.79
N5920 X-7.645 Y-14.625
N5925 X-7.963 Y-14.453
N5930 X-8.276 Y-14.274
N5935 X-8.585 Y-14.088
N5940 X-8.891 Y-13.896
N5945 X-9.192 Y-13.697
N5950 X-9.488 Y-13.491
N5955 X-9.78 Y-13.279
N5960 X-10.067 Y-13.061
N5965 X-10.35 Y-12.836
N5970 X-10.627 Y-12.606
N5975 X-10.899 Y-12.369
N5980 X-11.166 Y-12.126
N5985 X-11.428 Y-11.878
N5990 X-11.684 Y-11.624
N5995 X-11.934 Y-11.364
N6000 X-12.179 Y-11.1
N6005 X-12.418 Y-10.829
N6010 X-12.65 Y-10.554
N6015 X-12.877 Y-10.274
N6020 X-13.098 Y-9.988
N6025 X-13.312 Y-9.698
N6030 X-13.52 Y-9.404
N6035 X-13.721 Y-9.105
N6040 X-13.916 Y-8.801
N6045 X-14.104 Y-8.494
N6050 X-14.285 Y-8.182
N6055 X-14.459 Y-7.867
N6060 X-14.627 Y-7.547
N6065 X-14.787 Y-7.225
N6070 X-14.94 Y-6.898
N6075 X-15.086 Y-6.569
N6080 X-15.225 Y-6.236
N6085 X-15.357 Y-5.901
N6090 X-15.481 Y-5.563
N6095 X-15.597 Y-5.222
N6100 X-15.706 Y-4.878
N6105 X-15.808 Y-4.533
N6110 X-15.902 Y-4.185
N6115 X-15.988 Y-3.835
N6120 X-16.067 Y-3.484
N6125 X-16.138 Y-3.13
N6130 X-16.201 Y-2.776
N6135 X-16.256 Y-2.42
N6140 X-16.304 Y-2.063
N6145 X-16.344 Y-1.705
N6150 X-16.376 Y-1.346
N6155 X-16.4 Y-.987
N6160 X-16.416 Y-.627
N6165 X-16.424 Y-.267
N6170 Y.093
N6175 X-16.417 Y.453
N6180 X-16.401 Y.812
N6185 X-16.378 Y1.172
N6190 X-16.347 Y1.53
N6195 X-16.308 Y1.888
N6200 X-16.261 Y2.245
N6205 X-16.206 Y2.601
N6210 X-16.144 Y2.955
N6215 X-16.074 Y3.308
N6220 X-15.996 Y3.659
N6225 X-15.91 Y4.009
N6230 X-15.817 Y4.356
N6235 X-15.716 Y4.702
N6240 X-15.608 Y5.045
N6245 X-15.492 Y5.385
N6250 X-15.368 Y5.723
N6255 X-15.238 Y6.059
N6260 X-15.1 Y6.391
N6265 X-14.954 Y6.72
N6270 X-14.802 Y7.046
N6275 X-14.642 Y7.368
N6280 X-14.476 Y7.687
N6285 X-14.302 Y8.002
N6290 X-14.122 Y8.313
N6295 X-13.935 Y8.62
N6300 X-13.741 Y8.923
N6305 X-13.54 Y9.221
N6310 X-13.333 Y9.515
N6315 X-13.12 Y9.805
N6320 X-12.901 Y10.089
N6325 X-12.675 Y10.369
N6330 X-12.443 Y10.644
N6335 X-12.205 Y10.913
N6340 X-11.961 Y11.178
N6345 X-11.712 Y11.437
N6350 X-11.457 Y11.69
N6355 X-11.196 Y11.937
N6360 X-10.931 Y12.179
N6365 X-10.659 Y12.415
N6370 X-10.383 Y12.645
N6375 X-10.102 Y12.869
N6380 X-9.816 Y13.086
N6385 X-9.525 Y13.297
N6390 X-9.23 Y13.502
N6395 X-8.93 Y13.7
N6400 X-8.627 Y13.892
N6405 X-8.318 Y14.077
N6410 X-8.006 Y14.255
N6415 X-7.691 Y14.426
N6420 X-7.371 Y14.59
N6425 X-7.048 Y14.747
N6430 X-6.722 Y14.897
N6435 X-6.392 Y15.039
N6440 X-6.06 Y15.175
N6445 X-5.724 Y15.303
N6450 X-5.386 Y15.423
N6455 X-5.045 Y15.536
N6460 X-4.702 Y15.642
N6465 X-4.357 Y15.74
N6470 X-4.009 Y15.83
N6475 X-3.66 Y15.913
N6480 X-3.309 Y15.988
N6485 X-2.956 Y16.056
N6490 X-2.602 Y16.115
N6495 X-2.247 Y16.167
N6500 X-1.891 Y16.211
N6505 X-1.534 Y16.247
N6510 X-1.176 Y16.275
N6515 X-.818 Y16.296
N6520 X-.459 Y16.308
N6525 X-.101 Y16.313
N6530 X.258 Y16.309
N6535 X.617 Y16.298
N6540 X.975 Y16.279
N6545 X1.333 Y16.252
N6550 X1.69 Y16.217
N6555 X2.046 Y16.175
N6560 X2.401 Y16.124
N6565 X2.755 Y16.066
N6570 X3.107 Y16.
N6575 X3.458 Y15.926
N6580 X3.808 Y15.845
N6585 X4.155 Y15.755
N6590 X4.5 Y15.659
N6595 X4.843 Y15.554
N6600 X5.184 Y15.442
N6605 X5.522 Y15.323
N6610 X5.857 Y15.196
N6615 X6.19 Y15.062
N6620 X6.519 Y14.921
N6625 X6.845 Y14.772
N6630 X7.168 Y14.617
N6635 X7.488 Y14.454
N6640 X7.803 Y14.284
N6645 X8.115 Y14.108
N6650 X8.423 Y13.924
N6655 X8.727 Y13.734
N6660 X9.026 Y13.537
N6665 X9.321 Y13.334
N6670 X9.612 Y13.124
N6675 X9.897 Y12.908
N6680 X10.178 Y12.686
N6685 X10.454 Y12.457
N6690 X10.725 Y12.223
N6695 X10.991 Y11.982
N6700 X11.251 Y11.736
N6705 X11.505 Y11.484
N6710 X11.755 Y11.227
N6715 X11.998 Y10.964
N6720 X12.235 Y10.696
N6725 X12.467 Y10.423
N6730 X12.692 Y10.145
N6735 X12.911 Y9.861
N6740 X13.124 Y9.574
N6745 X13.331 Y9.281
N6750 X13.531 Y8.984
N6755 X13.724 Y8.683
N6760 X13.911 Y8.378
N6765 X14.091 Y8.068
N6770 X14.264 Y7.755
N6775 X14.43 Y7.438
N6780 X14.589 Y7.117
N6785 X14.741 Y6.793
N6790 X14.886 Y6.466
N6795 X15.023 Y6.135
N6800 X15.153 Y5.802
N6805 X15.276 Y5.466
N6810 X15.392 Y5.127
N6815 X15.499 Y4.786
N6820 X15.6 Y4.443
N6825 X15.692 Y4.097
N6830 X15.777 Y3.75
N6835 X15.855 Y3.4
N6840 X15.924 Y3.05
N6845 X15.986 Y2.697
N6850 X16.04 Y2.344
N6855 X16.086 Y1.989
N6860 X16.125 Y1.633
N6865 X16.155 Y1.277
N6870 X16.178 Y.92
N6875 X16.193 Y.563
N6880 X16.2 Y.206
N6885 X16.199 Y-.152
N6890 X16.19 Y-.509
N6895 X16.173 Y-.866
N6900 X16.148 Y-1.223
N6905 X16.116 Y-1.579
N6910 X16.075 Y-1.934
N6915 X16.027 Y-2.288
N6920 X15.971 Y-2.641
N6925 X15.908 Y-2.993
N6930 X15.836 Y-3.343
N6935 X15.757 Y-3.692
N6940 X15.67 Y-4.038
N6945 X15.575 Y-4.383
N6950 X15.473 Y-4.725
N6955 X15.364 Y-5.065
N6960 X15.247 Y-5.403
N6965 X15.122 Y-5.738
N6970 X14.99 Y-6.07
N6975 X14.851 Y-6.399
N6980 X14.705 Y-6.725
N6985 X14.551 Y-7.047
N6990 X14.39 Y-7.366
N6995 X14.223 Y-7.681
N7000 X14.048 Y-7.993
N7005 X13.867 Y-8.301
N7010 X13.679 Y-8.604
N7015 X13.484 Y-8.903
N7020 X13.283 Y-9.198
N7025 X13.075 Y-9.489
N7030 X12.861 Y-9.774
N7035 X12.64 Y-10.055
N7040 X12.414 Y-10.331
N7045 X12.181 Y-10.602
N7050 X11.943 Y-10.867
N7055 X11.698 Y-11.128
N7060 X11.448 Y-11.382
N7065 X11.193 Y-11.632
N7070 X10.932 Y-11.875
N7075 X10.666 Y-12.113
N7080 X10.394 Y-12.344
N7085 X10.118 Y-12.57
N7090 X9.836 Y-12.789
N7095 X9.55 Y-13.002
N7100 X9.26 Y-13.209
N7105 X8.964 Y-13.409
N7110 X8.665 Y-13.603
N7115 X8.361 Y-13.79
N7120 X8.053 Y-13.97
N7125 X7.741 Y-14.143
N7130 X7.426 Y-14.31
N7135 X7.107 Y-14.469
N7140 X6.784 Y-14.621
N7145 X6.458 Y-14.766
N7150 X6.13 Y-14.904
N7155 X5.798 Y-15.035
N7160 X5.463 Y-15.158
N7165 X5.126 Y-15.274
N7170 X4.786 Y-15.382
N7175 X4.444 Y-15.482
N7180 X4.1 Y-15.575
N7185 X3.754 Y-15.661
N7190 X3.406 Y-15.738
N7195 X3.056 Y-15.808
N7200 X2.706 Y-15.871
N7205 X2.353 Y-15.925
N7210 X2. Y-15.972
N7215 X1.646 Y-16.01
N7220 X1.291 Y-16.041
N7225 X.935 Y-16.064
N7230 X.579 Y-16.08
N7235 X.223 Y-16.087
N7240 X-.133 Y-16.086
N7245 X-.489 Y-16.078
N7250 X-.845 Y-16.062
N7255 X-1.201 Y-16.037
N7260 X-1.555 Y-16.005
N7265 X-1.909 Y-15.965
N7270 X-2.262 Y-15.917
N7275 X-2.614 Y-15.862
N7280 X-2.965 Y-15.798
N7285 X-3.314 Y-15.727
N7290 X-3.661 Y-15.649
N7295 X-4.006 Y-15.562
N7300 X-4.35 Y-15.468
N7305 X-4.691 Y-15.366
N7310 X-5.03 Y-15.257
N7315 X-5.366 Y-15.14
N7320 X-5.7 Y-15.016
N7325 X-6.03 Y-14.885
N7330 X-6.358 Y-14.746
N7335 X-6.683 Y-14.6
N7340 X-7.004 Y-14.447
N7345 X-7.322 Y-14.287
N7350 X-7.636 Y-14.119
N7355 X-7.946 Y-13.945
N7360 X-8.253 Y-13.764
N7365 X-8.555 Y-13.577
N7370 X-8.853 Y-13.382
N7375 X-9.147 Y-13.181
N7380 X-9.436 Y-12.974
N7385 X-9.72 Y-12.76
N7390 X-10. Y-12.54
N7395 X-10.275 Y-12.314
N7400 X-10.544 Y-12.082
N7405 X-10.808 Y-11.844
N7410 X-11.067 Y-11.6
N7415 X-11.321 Y-11.351
N7420 X-11.569 Y-11.096
N7425 X-11.811 Y-10.835
N7430 X-12.047 Y-10.57
N7435 X-12.277 Y-10.299
N7440 X-12.502 Y-10.023
N7445 X-12.72 Y-9.742
N7450 X-12.932 Y-9.456
N7455 X-13.137 Y-9.166
N7460 X-13.336 Y-8.872
N7465 X-13.528 Y-8.573
N7470 X-13.714 Y-8.269
N7475 X-13.892 Y-7.962
N7480 X-14.064 Y-7.651
N7485 X-14.229 Y-7.336
N7490 X-14.387 Y-7.018
N7495 X-14.538 Y-6.696
N7500 X-14.682 Y-6.371
N7505 X-14.818 Y-6.043
N7510 X-14.947 Y-5.712
N7515 X-15.069 Y-5.378
N7520 X-15.183 Y-5.042
N7525 X-15.289 Y-4.703
N7530 X-15.389 Y-4.362
N7535 X-15.48 Y-4.018
N7540 X-15.564 Y-3.673
N7545 X-15.64 Y-3.326
N7550 X-15.709 Y-2.978
N7555 X-15.769 Y-2.628
N7560 X-15.822 Y-2.277
N7565 X-15.867 Y-1.925
N7570 X-15.905 Y-1.571
N7575 X-15.934 Y-1.218
N7580 X-15.956 Y-.863
N7585 X-15.969 Y-.508
N7590 X-15.975 Y-.153
N7595 X-15.973 Y.202
N7600 X-15.963 Y.556
N7605 X-15.945 Y.911
N7610 X-15.919 Y1.265
N7615 X-15.886 Y1.618
N7620 X-15.844 Y1.971
N7625 X-15.795 Y2.322
N7630 X-15.738 Y2.672
N7635 X-15.673 Y3.021
N7640 X-15.6 Y3.369
N7645 X-15.52 Y3.714
N7650 X-15.432 Y4.058
N7655 X-15.336 Y4.4
N7660 X-15.233 Y4.739
N7665 X-15.123 Y5.076
N7670 X-15.004 Y5.411
N7675 X-14.879 Y5.742
N7680 X-14.746 Y6.071
N7685 X-14.606 Y6.397
N7690 X-14.459 Y6.72
N7695 X-14.304 Y7.039
N7700 X-14.143 Y7.355
N7705 X-13.974 Y7.667
N7710 X-13.799 Y7.975
N7715 X-13.616 Y8.279
N7720 X-13.428 Y8.579
N7725 X-13.232 Y8.875
N7730 X-13.03 Y9.166
N7735 X-12.822 Y9.453
N7740 X-12.607 Y9.735
N7745 X-12.386 Y10.012
N7750 X-12.159 Y10.284
N7755 X-11.926 Y10.551
N7760 X-11.687 Y10.813
N7765 X-11.442 Y11.069
N7770 X-11.191 Y11.32
N7775 X-10.936 Y11.565
N7780 X-10.674 Y11.805
N7785 X-10.408 Y12.038
N7790 X-10.136 Y12.266
N7795 X-9.86 Y12.487
N7800 X-9.578 Y12.702
N7805 X-9.292 Y12.911
N7810 X-9.001 Y13.113
N7815 X-8.706 Y13.309
N7820 X-8.407 Y13.499
N7825 X-8.103 Y13.681
N7830 X-7.796 Y13.857
N7835 X-7.484 Y14.026
N7840 X-7.169 Y14.187
N7845 X-6.851 Y14.342
N7850 X-6.529 Y14.49
N7855 X-6.204 Y14.63
N7860 X-5.876 Y14.763
N7865 X-5.545 Y14.889
N7870 X-5.211 Y15.007
N7875 X-4.875 Y15.118
N7880 X-4.537 Y15.222
N7885 X-4.196 Y15.317
N7890 X-3.853 Y15.406
N7895 X-3.508 Y15.486
N7900 X-3.162 Y15.559
N7905 X-2.814 Y15.624
N7910 X-2.465 Y15.681
N7915 X-2.115 Y15.731
N7920 X-1.763 Y15.772
N7925 X-1.411 Y15.806
N7930 X-1.058 Y15.832
N7935 X-.705 Y15.85
N7940 X-.351 Y15.86
N7945 X.002 Y15.862
N7950 X.356 Y15.857
N7955 X.71 Y15.843
N7960 X1.063 Y15.822
N7965 X1.415 Y15.793
N7970 X1.767 Y15.756
N7975 X2.118 Y15.711
N7980 X2.467 Y15.658
N7985 X2.816 Y15.598
N7990 X3.163 Y15.529
N7995 X3.508 Y15.453
N8000 X3.851 Y15.37
N8005 X4.193 Y15.278
N8010 X4.532 Y15.18
N8015 X4.869 Y15.073
N8020 X5.204 Y14.959
N8025 X5.536 Y14.838
N8030 X5.865 Y14.709
N8035 X6.191 Y14.573
N8040 X6.514 Y14.43
N8045 X6.834 Y14.279
N8050 X7.15 Y14.122
N8055 X7.463 Y13.957
N8060 X7.772 Y13.786
N8065 X8.077 Y13.607
N8070 X8.378 Y13.422
N8075 X8.675 Y13.231
N8080 X8.967 Y13.032
N8085 X9.255 Y12.828
N8090 X9.538 Y12.616
N8095 X9.816 Y12.399
N8100 X10.09 Y12.175
N8105 X10.358 Y11.946
N8110 X10.621 Y11.71
N8115 X10.879 Y11.469
N8120 X11.132 Y11.222
N8125 X11.378 Y10.969
N8130 X11.619 Y10.711
N8135 X11.855 Y10.448
N8140 X12.084 Y10.18
N8145 X12.307 Y9.906
N8150 X12.524 Y9.628
N8155 X12.735 Y9.345
N8160 X12.939 Y9.057
N8165 X13.137 Y8.764
N8170 X13.328 Y8.468
N8175 X13.513 Y8.167
N8180 X13.69 Y7.862
N8185 X13.861 Y7.553
N8190 X14.025 Y7.241
N8195 X14.182 Y6.925
N8200 X14.332 Y6.605
N8205 X14.475 Y6.283
N8210 X14.61 Y5.957
N8215 X14.738 Y5.628
N8220 X14.859 Y5.297
N8225 X14.972 Y4.963
N8230 X15.078 Y4.626
N8235 X15.176 Y4.287
N8240 X15.266 Y3.947
N8245 X15.349 Y3.604
N8250 X15.424 Y3.259
N8255 X15.492 Y2.913
N8260 X15.551 Y2.566
N8265 X15.603 Y2.217
N8270 X15.648 Y1.867
N8275 X15.684 Y1.516
N8280 X15.712 Y1.165
N8285 X15.733 Y.813
N8290 X15.745 Y.461
N8295 X15.75 Y.108
N8300 X15.747 Y-.244
N8305 X15.736 Y-.596
N8310 X15.717 Y-.948
N8315 X15.69 Y-1.3
N8320 X15.656 Y-1.65
N8325 X15.613 Y-2.
N8330 X15.563 Y-2.349
N8335 X15.505 Y-2.696
N8340 X15.439 Y-3.042
N8345 X15.366 Y-3.387
N8350 X15.284 Y-3.73
N8355 X15.195 Y-4.071
N8360 X15.099 Y-4.409
N8365 X14.995 Y-4.746
N8370 X14.883 Y-5.08
N8375 X14.764 Y-5.411
N8380 X14.638 Y-5.74
N8385 X14.504 Y-6.066
N8390 X14.363 Y-6.389
N8395 X14.215 Y-6.708
N8400 X14.06 Y-7.024
N8405 X13.898 Y-7.337
N8410 X13.728 Y-7.645
N8415 X13.552 Y-7.95
N8420 X13.369 Y-8.251
N8425 X13.18 Y-8.547
N8430 X12.984 Y-8.84
N8435 X12.781 Y-9.127
N8440 X12.572 Y-9.411
N8445 X12.357 Y-9.689
N8450 X12.135 Y-9.962
N8455 X11.908 Y-10.231
N8460 X11.674 Y-10.494
N8465 X11.435 Y-10.752
N8470 X11.19 Y-11.005
N8475 X10.939 Y-11.252
N8480 X10.683 Y-11.493
N8485 X10.422 Y-11.728
N8490 X10.155 Y-11.958
N8495 X9.883 Y-12.181
N8500 X9.607 Y-12.398
N8505 X9.325 Y-12.609
N8510 X9.039 Y-12.814
N8515 X8.749 Y-13.012
N8520 X8.454 Y-13.204
N8525 X8.155 Y-13.389
N8530 X7.852 Y-13.567
N8535 X7.545 Y-13.738
N8540 X7.234 Y-13.902
N8545 X6.92 Y-14.06
N8550 X6.602 Y-14.21
N8555 X6.281 Y-14.353
N8560 X5.956 Y-14.489
N8565 X5.629 Y-14.617
N8570 X5.299 Y-14.738
N8575 X4.967 Y-14.852
N8580 X4.632 Y-14.958
N8585 X4.294 Y-15.057
N8590 X3.955 Y-15.148
N8595 X3.614 Y-15.231
N8600 X3.271 Y-15.307
N8605 X2.926 Y-15.375
N8610 X2.58 Y-15.435
N8615 X2.232 Y-15.488
N8620 X1.884 Y-15.532
N8625 X1.534 Y-15.569
N8630 X1.184 Y-15.598
N8635 X.834 Y-15.619
N8640 X.483 Y-15.632
N8645 X.132 Y-15.638
N8650 X-.219 Y-15.635
N8655 X-.57 Y-15.624
N8660 X-.921 Y-15.606
N8665 X-1.271 Y-15.58
N8670 X-1.621 Y-15.546
N8675 X-1.969 Y-15.504
N8680 X-2.317 Y-15.454
N8685 X-2.663 Y-15.397
N8690 X-3.008 Y-15.331
N8695 X-3.351 Y-15.258
N8700 X-3.693 Y-15.178
N8705 X-4.033 Y-15.089
N8710 X-4.37 Y-14.993
N8715 X-4.706 Y-14.89
N8720 X-5.038 Y-14.779
N8725 X-5.369 Y-14.66
N8730 X-5.696 Y-14.534
N8735 X-6.021 Y-14.401
N8740 X-6.342 Y-14.261
N8745 X-6.661 Y-14.113
N8750 X-6.976 Y-13.958
N8755 X-7.287 Y-13.797
N8760 X-7.594 Y-13.628
N8765 X-7.898 Y-13.452
N8770 X-8.198 Y-13.27
N8775 X-8.493 Y-13.081
N8780 X-8.784 Y-12.885
N8785 X-9.071 Y-12.683
N8790 X-9.353 Y-12.475
N8795 X-9.63 Y-12.26
N8800 X-9.902 Y-12.039
N8805 X-10.169 Y-11.812
N8810 X-10.431 Y-11.579
N8815 X-10.688 Y-11.34
N8820 X-10.939 Y-11.096
N8825 X-11.185 Y-10.846
N8830 X-11.425 Y-10.59
N8835 X-11.659 Y-10.33
N8840 X-11.888 Y-10.064
N8845 X-12.11 Y-9.793
N8850 X-12.326 Y-9.517
N8855 X-12.535 Y-9.236
N8860 X-12.739 Y-8.951
N8865 X-12.936 Y-8.661
N8870 X-13.126 Y-8.367
N8875 X-13.31 Y-8.068
N8880 X-13.486 Y-7.766
N8885 X-13.656 Y-7.459
N8890 X-13.819 Y-7.149
N8895 X-13.975 Y-6.836
N8900 X-14.124 Y-6.519
N8905 X-14.266 Y-6.198
N8910 X-14.4 Y-5.875
N8915 X-14.528 Y-5.549
N8920 X-14.647 Y-5.22
N8925 X-14.76 Y-4.888
N8930 X-14.864 Y-4.554
N8935 X-14.962 Y-4.217
N8940 X-15.051 Y-3.879
N8945 X-15.133 Y-3.539
N8950 X-15.208 Y-3.196
N8955 X-15.274 Y-2.853
N8960 X-15.333 Y-2.508
N8965 X-15.384 Y-2.161
N8970 X-15.393 Y-2.086
N8975 G03 X-15.389 Y-2.098 I.709 J.245
N8980 G01 X-15.352 Y-2.199
N8985 G03 X-15.347 Y-2.213 I.704 J.258
N8990 G01 X-15.308 Y-2.313
N8995 G03 X-15.302 Y-2.327 I.699 J.272
N9000 G01 X-15.261 Y-2.426
N9005 G03 X-15.256 Y-2.44 I.694 J.285
N9010 G01 X-15.213 Y-2.538
N9015 G03 X-15.207 Y-2.551 I.688 J.299
N9020 G01 X-15.162 Y-2.649
N9025 G03 X-15.156 Y-2.662 I.682 J.312
N9030 G01 X-15.11 Y-2.758
N9035 G03 X-15.103 Y-2.771 I.676 J.326
N9040 G01 X-15.055 Y-2.866
N9045 G03 X-15.049 Y-2.879 I.669 J.339
N9050 G01 X-14.999 Y-2.973
N9055 G03 X-14.992 Y-2.986 I.662 J.352
N9060 G01 X-14.94 Y-3.079
N9065 G03 X-14.933 Y-3.092 I.656 J.364
N9070 G01 X-14.879 Y-3.183
N9075 G03 X-14.872 Y-3.196 I.648 J.377
N9080 G01 X-14.817 Y-3.287
N9085 G03 X-14.809 Y-3.299 I.641 J.389
N9090 G01 X-14.753 Y-3.388
N9095 G03 X-14.745 Y-3.401 I.633 J.402
N9100 G01 X-14.686 Y-3.489
N9105 G03 X-14.678 Y-3.501 I.625 J.414
N9110 G01 X-14.618 Y-3.588
N9115 G03 X-14.61 Y-3.6 I.617 J.426
N9120 G01 X-14.548 Y-3.686
N9125 G03 X-14.539 Y-3.697 I.609 J.438
N9130 G01 X-14.476 Y-3.782
N9135 G03 X-14.467 Y-3.794 I.601 J.449
N9140 G01 X-14.402 Y-3.877
N9145 G03 X-14.394 Y-3.888 I.592 J.461
N9150 G01 X-14.327 Y-3.97
N9155 G03 X-14.318 Y-3.981 I.583 J.472
N9160 G01 X-14.25 Y-4.062
N9165 G03 X-14.241 Y-4.073 I.574 J.483
N9170 G01 X-14.171 Y-4.153
N9175 G03 X-14.162 Y-4.163 I.565 J.494
N9180 G01 X-14.091 Y-4.241
N9185 G03 X-14.081 Y-4.252 I.555 J.504
N9190 G01 X-14.008 Y-4.329
N9195 G03 X-13.998 Y-4.339 I.545 J.515
N9200 G01 X-13.924 Y-4.414
N9205 G03 X-13.914 Y-4.424 I.535 J.525
N9210 G01 X-13.839 Y-4.498
N9215 G03 X-13.829 Y-4.508 I.525 J.535
N9220 G01 X-13.752 Y-4.581
N9225 G03 X-13.741 Y-4.591 I.515 J.545
N9230 G01 X-13.663 Y-4.662
N9235 G03 X-13.653 Y-4.671 I.504 J.555
N9240 G01 X-13.573 Y-4.741
N9245 G03 X-13.562 Y-4.75 I.494 J.565
N9250 G01 X-13.481 Y-4.818
N9255 G03 X-13.47 Y-4.827 I.483 J.574
N9260 G01 X-13.388 Y-4.894
N9265 G03 X-13.377 Y-4.902 I.472 J.583
N9270 G01 X-13.294 Y-4.967
N9275 G03 X-13.282 Y-4.976 I.461 J.592
N9280 G01 X-13.197 Y-5.039
N9285 G03 X-13.186 Y-5.048 I.449 J.601
N9290 G01 X-13.1 Y-5.11
N9295 G03 X-13.088 Y-5.118 I.438 J.609
N9300 G01 X-13.001 Y-5.178
N9305 G03 X-12.989 Y-5.186 I.426 J.617
N9310 G01 X-12.901 Y-5.245
N9315 G03 X-12.888 Y-5.253 I.414 J.625
N9320 G01 X-12.799 Y-5.309
N9325 G03 X-12.787 Y-5.317 I.402 J.633
N9330 G01 X-12.696 Y-5.372
N9335 G03 X-12.683 Y-5.379 I.389 J.641
N9340 G01 X-12.592 Y-5.433
N9345 G03 X-12.579 Y-5.44 I.377 J.648
N9350 G01 X-12.486 Y-5.492
N9355 G03 X-12.473 Y-5.499 I.364 J.656
N9360 G01 X-12.379 Y-5.549
N9365 G03 X-12.366 Y-5.555 I.352 J.662
N9370 G01 X-12.271 Y-5.603
N9375 G03 X-12.258 Y-5.61 I.339 J.669
N9380 G01 X-12.162 Y-5.656
N9385 G03 X-12.149 Y-5.662 I.326 J.676
N9390 G01 X-12.051 Y-5.707
N9395 G03 X-12.038 Y-5.713 I.312 J.682
N9400 G01 X-11.94 Y-5.756
N9405 G03 X-11.926 Y-5.761 I.299 J.688
N9410 G01 X-11.827 Y-5.802
N9415 G03 X-11.813 Y-5.808 I.285 J.694
N9420 G01 X-11.713 Y-5.847
N9425 G03 X-11.699 Y-5.852 I.272 J.699
N9430 G01 X-11.598 Y-5.889
N9435 G03 X-11.584 Y-5.894 I.258 J.704
N9440 G01 X-11.482 Y-5.929
N9445 G03 X-11.468 Y-5.934 I.244 J.709
N9450 G01 X-11.365 Y-5.967
N9455 G03 X-11.351 Y-5.971 I.23 J.714
N9460 G01 X-11.247 Y-6.002
N9465 G03 X-11.233 Y-6.006 I.216 J.718
N9470 G01 X-11.128 Y-6.036
N9475 G03 X-11.114 Y-6.039 I.201 J.722
N9480 G01 X-11.009 Y-6.067
N9485 G03 X-10.994 Y-6.07 I.187 J.726
N9490 G01 X-10.888 Y-6.095
N9495 G03 X-10.873 Y-6.098 I.172 J.73
N9500 G01 X-10.766 Y-6.121
N9505 G03 X-10.751 Y-6.125 I.158 J.733
N9510 G01 X-10.644 Y-6.145
N9515 G03 X-10.629 Y-6.148 I.143 J.736
N9520 G01 X-10.52 Y-6.167
N9525 G03 X-10.505 Y-6.169 I.128 J.739
N9530 G01 X-10.396 Y-6.186
N9535 G03 X-10.381 Y-6.188 I.113 J.741
N9540 G01 X-10.271 Y-6.203
N9545 G03 X-10.256 Y-6.205 I.098 J.744
N9550 G01 X-10.146 Y-6.217
N9555 G03 X-10.131 Y-6.218 I.083 J.745
N9560 G01 X-10.019 Y-6.229
N9565 G03 X-10.004 Y-6.23 I.068 J.747
N9570 G01 X-9.892 Y-6.238
N9575 G03 X-9.877 Y-6.239 I.053 J.748
N9580 G01 X-9.765 Y-6.244
N9585 G03 X-9.749 Y-6.245 I.038 J.749
N9590 G01 X-9.636 Y-6.249
N9595 G03 X-9.621 I.023 J.75
N9600 G01 X-9.508 Y-6.25
N9605 G03 X-9.489 I.008 J.75
N9610 G01 X-9.328 Y-6.248
N9615 G03 X-9.306 Y-6.247 I-.011 J.75
N9620 G01 X-9.146 Y-6.24
N9625 G03 X-9.128 Y-6.239 I-.032 J.749
N9630 G01 X-9.022 Y-6.232
N9635 G03 X-9.006 Y-6.231 I-.05 J.748
N9640 G01 X-8.865 Y-6.218
N9645 G03 X-8.843 Y-6.216 I-.067 J.747
N9650 G01 X-8.657 Y-6.193
N9655 G03 X-8.638 Y-6.191 I-.089 J.745
N9660 G01 X-8.532 Y-6.175
N9665 G03 X-8.517 Y-6.173 I-.109 J.742
N9670 G01 X-8.397 Y-6.153
N9675 G03 X-8.38 Y-6.15 I-.124 J.74
N9680 G01 X-8.245 Y-6.124
N9685 G03 X-8.225 Y-6.12 I-.142 J.736
N9690 G01 X-8.071 Y-6.086
N9695 G03 X-8.049 Y-6.08 I-.162 J.732
N9700 G01 X-7.876 Y-6.037
N9705 G03 X-7.85 Y-6.03 I-.184 J.727
N9710 G01 X-7.655 Y-5.973
N9715 G03 X-7.635 Y-5.967 I-.209 J.72
N9720 G01 X-7.532 Y-5.934
N9725 G03 X-7.518 Y-5.929 I-.23 J.714
N9730 G01 X-7.416 Y-5.894
N9735 G03 X-7.402 Y-5.889 I-.244 J.709
N9740 G01 X-7.301 Y-5.852
N9745 G03 X-7.287 Y-5.847 I-.258 J.704
N9750 G01 X-7.187 Y-5.808
N9755 G03 X-7.173 Y-5.802 I-.272 J.699
N9760 G01 X-7.074 Y-5.761
N9765 G03 X-7.06 Y-5.756 I-.285 J.694
N9770 G01 X-6.962 Y-5.713
N9775 G03 X-6.949 Y-5.707 I-.299 J.688
N9780 G01 X-6.851 Y-5.662
N9785 G03 X-6.838 Y-5.656 I-.312 J.682
N9790 G01 X-6.742 Y-5.61
N9795 G03 X-6.729 Y-5.603 I-.326 J.676
N9800 G01 X-6.634 Y-5.555
N9805 G03 X-6.621 Y-5.549 I-.339 J.669
N9810 G01 X-6.527 Y-5.499
N9815 G03 X-6.514 Y-5.492 I-.352 J.662
N9820 G01 X-6.421 Y-5.44
N9825 G03 X-6.408 Y-5.433 I-.364 J.656
N9830 G01 X-6.317 Y-5.379
N9835 G03 X-6.304 Y-5.372 I-.377 J.648
N9840 G01 X-6.213 Y-5.317
N9845 G03 X-6.201 Y-5.309 I-.389 J.641
N9850 G01 X-6.112 Y-5.253
N9855 G03 X-6.099 Y-5.245 I-.402 J.633
N9860 G01 X-6.011 Y-5.186
N9865 G03 X-5.999 Y-5.178 I-.414 J.625
N9870 G01 X-5.912 Y-5.118
N9875 G03 X-5.9 Y-5.11 I-.426 J.617
N9880 G01 X-5.814 Y-5.048
N9885 G03 X-5.803 Y-5.039 I-.438 J.609
N9890 G01 X-5.718 Y-4.976
N9895 G03 X-5.707 Y-4.967 I-.449 J.601
N9900 G01 X-5.623 Y-4.902
N9905 G03 X-5.612 Y-4.894 I-.461 J.592
N9910 G01 X-5.53 Y-4.827
N9915 G03 X-5.519 Y-4.818 I-.472 J.583
N9920 G01 X-5.438 Y-4.75
N9925 G03 X-5.427 Y-4.741 I-.483 J.574
N9930 G01 X-5.347 Y-4.671
N9935 G03 X-5.337 Y-4.662 I-.494 J.565
N9940 G01 X-5.259 Y-4.591
N9945 G03 X-5.248 Y-4.581 I-.504 J.555
N9950 G01 X-5.171 Y-4.508
N9955 G03 X-5.161 Y-4.498 I-.515 J.545
N9960 G01 X-5.086 Y-4.424
N9965 G03 X-5.076 Y-4.414 I-.525 J.535
N9970 G01 X-5.002 Y-4.339
N9975 G03 X-4.992 Y-4.329 I-.535 J.525
N9980 G01 X-4.919 Y-4.252
N9985 G03 X-4.91 Y-4.241 I-.545 J.515
N9990 G01 X-4.838 Y-4.163
N9995 G03 X-4.829 Y-4.153 I-.555 J.504
N5 G01 X-4.759 Y-4.073
N10 G03 X-4.75 Y-4.062 I-.565 J.494
N15 G01 X-4.682 Y-3.981
N20 G03 X-4.673 Y-3.97 I-.574 J.483
N25 G01 X-4.606 Y-3.888
N30 G03 X-4.598 Y-3.877 I-.583 J.472
N35 G01 X-4.533 Y-3.794
N40 G03 X-4.524 Y-3.782 I-.592 J.461
N45 G01 X-4.461 Y-3.697
N50 G03 X-4.452 Y-3.686 I-.601 J.449
N55 G01 X-4.39 Y-3.6
N60 G03 X-4.382 Y-3.588 I-.609 J.438
N65 G01 X-4.322 Y-3.501
N70 G03 X-4.314 Y-3.489 I-.617 J.426
N75 G01 X-4.255 Y-3.401
N80 G03 X-4.248 Y-3.388 I-.625 J.414
N85 G01 X-4.191 Y-3.299
N90 G03 X-4.183 Y-3.287 I-.633 J.402
N95 G01 X-4.128 Y-3.196
N100 G03 X-4.121 Y-3.183 I-.641 J.389
N105 G01 X-4.067 Y-3.092
N110 G03 X-4.06 Y-3.079 I-.648 J.377
N115 G01 X-4.008 Y-2.986
N120 G03 X-4.001 Y-2.973 I-.656 J.364
N125 G01 X-3.951 Y-2.879
N130 G03 X-3.945 Y-2.866 I-.662 J.352
N135 G01 X-3.897 Y-2.771
N140 G03 X-3.89 Y-2.758 I-.669 J.339
N145 G01 X-3.844 Y-2.662
N150 G03 X-3.838 Y-2.649 I-.676 J.326
N155 G01 X-3.793 Y-2.551
N160 G03 X-3.787 Y-2.538 I-.682 J.312
N165 G01 X-3.744 Y-2.44
N170 G03 X-3.739 Y-2.426 I-.688 J.299
N175 G01 X-3.698 Y-2.327
N180 G03 X-3.692 Y-2.313 I-.694 J.285
N185 G01 X-3.653 Y-2.213
N190 G03 X-3.648 Y-2.199 I-.699 J.272
N195 G01 X-3.611 Y-2.098
N200 G03 X-3.606 Y-2.084 I-.704 J.258
N205 G01 X-3.571 Y-1.982
N210 G03 X-3.566 Y-1.968 I-.709 J.244
N215 G01 X-3.533 Y-1.865
N220 G03 X-3.529 Y-1.851 I-.714 J.23
N225 G01 X-3.498 Y-1.747
N230 G03 X-3.494 Y-1.733 I-.718 J.216
N235 G01 X-3.464 Y-1.628
N240 G03 X-3.461 Y-1.614 I-.722 J.201
N245 G01 X-3.434 Y-1.509
N250 G03 X-3.43 Y-1.494 I-.726 J.187
N255 G01 X-3.405 Y-1.388
N260 G03 X-3.402 Y-1.373 I-.73 J.172
N265 G01 X-3.379 Y-1.266
N270 G03 X-3.375 Y-1.251 I-.733 J.158
N275 G01 X-3.355 Y-1.144
N280 G03 X-3.352 Y-1.129 I-.736 J.143
N285 G01 X-3.333 Y-1.02
N290 G03 X-3.331 Y-1.005 I-.739 J.128
N295 G01 X-3.314 Y-.896
N300 G03 X-3.312 Y-.881 I-.741 J.113
N305 G01 X-3.297 Y-.771
N310 G03 X-3.295 Y-.756 I-.744 J.098
N315 G01 X-3.283 Y-.646
N320 G03 X-3.282 Y-.631 I-.745 J.083
N325 G01 X-3.271 Y-.519
N330 G03 X-3.27 Y-.504 I-.747 J.068
N335 G01 X-3.262 Y-.392
N340 G03 X-3.261 Y-.377 I-.748 J.053
N345 G01 X-3.256 Y-.265
N350 G03 X-3.255 Y-.249 I-.749 J.038
N355 G01 X-3.251 Y-.136
N360 G03 Y-.121 I-.75 J.023
N365 G01 X-3.25 Y-.008
N370 G03 Y.011 I-.75 J.008
N375 G01 X-3.252 Y.172
N380 G03 X-3.253 Y.194 I-.75 J-.011
N385 G01 X-3.26 Y.354
N390 G03 X-3.261 Y.372 I-.749 J-.032
N395 G01 X-3.268 Y.478
N400 G03 X-3.269 Y.494 I-.748 J-.05
N405 G01 X-3.282 Y.635
N410 G03 X-3.284 Y.657 I-.747 J-.067
N415 G01 X-3.307 Y.843
N420 G03 X-3.309 Y.862 I-.745 J-.089
N425 G01 X-3.325 Y.968
N430 G03 X-3.327 Y.983 I-.742 J-.109
N435 G01 X-3.347 Y1.103
N440 G03 X-3.35 Y1.12 I-.74 J-.124
N445 G01 X-3.376 Y1.255
N450 G03 X-3.38 Y1.275 I-.736 J-.142
N455 G01 X-3.414 Y1.429
N460 G03 X-3.42 Y1.451 I-.732 J-.162
N465 G01 X-3.463 Y1.624
N470 G03 X-3.47 Y1.65 I-.727 J-.184
N475 G01 X-3.527 Y1.845
N480 G03 X-3.533 Y1.865 I-.72 J-.209
N485 G01 X-3.566 Y1.968
N490 G03 X-3.571 Y1.982 I-.714 J-.23
N495 G01 X-3.606 Y2.084
N500 G03 X-3.611 Y2.098 I-.709 J-.244
N505 G01 X-3.648 Y2.199
N510 G03 X-3.653 Y2.213 I-.704 J-.258
N515 G01 X-3.692 Y2.313
N520 G03 X-3.698 Y2.327 I-.699 J-.272
N525 G01 X-3.739 Y2.426
N530 G03 X-3.744 Y2.44 I-.694 J-.285
N535 G01 X-3.787 Y2.538
N540 G03 X-3.793 Y2.551 I-.688 J-.299
N545 G01 X-3.838 Y2.649
N550 G03 X-3.844 Y2.662 I-.682 J-.312
N555 G01 X-3.89 Y2.758
N560 G03 X-3.897 Y2.771 I-.676 J-.326
N565 G01 X-3.945 Y2.866
N570 G03 X-3.951 Y2.879 I-.669 J-.339
N575 G01 X-4.001 Y2.973
N580 G03 X-4.008 Y2.986 I-.662 J-.352
N585 G01 X-4.06 Y3.079
N590 G03 X-4.067 Y3.092 I-.656 J-.364
N595 G01 X-4.121 Y3.183
N600 G03 X-4.128 Y3.196 I-.648 J-.377
N605 G01 X-4.183 Y3.287
N610 G03 X-4.191 Y3.299 I-.641 J-.389
N615 G01 X-4.247 Y3.388
N620 G03 X-4.255 Y3.401 I-.633 J-.402
N625 G01 X-4.314 Y3.489
N630 G03 X-4.322 Y3.501 I-.625 J-.414
N635 G01 X-4.382 Y3.588
N640 G03 X-4.39 Y3.6 I-.617 J-.426
N645 G01 X-4.452 Y3.686
N650 G03 X-4.461 Y3.697 I-.609 J-.438
N655 G01 X-4.524 Y3.782
N660 G03 X-4.533 Y3.793 I-.601 J-.449
N665 G01 X-4.598 Y3.877
N670 G03 X-4.606 Y3.888 I-.592 J-.461
N675 G01 X-4.673 Y3.97
N680 G03 X-4.682 Y3.981 I-.583 J-.472
N685 G01 X-4.75 Y4.062
N690 G03 X-4.759 Y4.073 I-.574 J-.483
N695 G01 X-4.829 Y4.153
N700 G03 X-4.838 Y4.163 I-.565 J-.494
N705 G01 X-4.909 Y4.241
N710 G03 X-4.919 Y4.252 I-.555 J-.504
N715 G01 X-4.992 Y4.329
N720 G03 X-5.002 Y4.339 I-.545 J-.515
N725 G01 X-5.076 Y4.414
N730 G03 X-5.086 Y4.424 I-.535 J-.525
N735 G01 X-5.161 Y4.498
N740 G03 X-5.171 Y4.508 I-.525 J-.535
N745 G01 X-5.248 Y4.581
N750 G03 X-5.259 Y4.59 I-.515 J-.545
N755 G01 X-5.337 Y4.662
N760 G03 X-5.347 Y4.671 I-.504 J-.555
N765 G01 X-5.427 Y4.741
N770 G03 X-5.438 Y4.75 I-.494 J-.565
N775 G01 X-5.519 Y4.818
N780 G03 X-5.53 Y4.827 I-.483 J-.574
N785 G01 X-5.612 Y4.894
N790 G03 X-5.623 Y4.902 I-.472 J-.583
N795 G01 X-5.706 Y4.967
N800 G03 X-5.718 Y4.976 I-.461 J-.592
N805 G01 X-5.803 Y5.039
N810 G03 X-5.814 Y5.048 I-.449 J-.601
N815 G01 X-5.9 Y5.11
N820 G03 X-5.912 Y5.118 I-.438 J-.609
N825 G01 X-5.999 Y5.178
N830 G03 X-6.011 Y5.186 I-.426 J-.617
N835 G01 X-6.099 Y5.245
N840 G03 X-6.112 Y5.252 I-.414 J-.625
N845 G01 X-6.201 Y5.309
N850 G03 X-6.213 Y5.317 I-.402 J-.633
N855 G01 X-6.304 Y5.372
N860 G03 X-6.317 Y5.379 I-.389 J-.641
N865 G01 X-6.408 Y5.433
N870 G03 X-6.421 Y5.44 I-.377 J-.648
N875 G01 X-6.514 Y5.492
N880 G03 X-6.527 Y5.499 I-.364 J-.656
N885 G01 X-6.621 Y5.549
N890 G03 X-6.634 Y5.555 I-.352 J-.662
N895 G01 X-6.729 Y5.603
N900 G03 X-6.742 Y5.61 I-.339 J-.669
N905 G01 X-6.838 Y5.656
N910 G03 X-6.851 Y5.662 I-.326 J-.676
N915 G01 X-6.949 Y5.707
N920 G03 X-6.962 Y5.713 I-.312 J-.682
N925 G01 X-7.06 Y5.756
N930 G03 X-7.074 Y5.761 I-.299 J-.688
N935 G01 X-7.173 Y5.802
N940 G03 X-7.187 Y5.808 I-.285 J-.694
N945 G01 X-7.287 Y5.847
N950 G03 X-7.301 Y5.852 I-.272 J-.699
N955 G01 X-7.402 Y5.889
N960 G03 X-7.416 Y5.894 I-.258 J-.704
N965 G01 X-7.518 Y5.929
N970 G03 X-7.532 Y5.934 I-.244 J-.709
N975 G01 X-7.635 Y5.967
N980 G03 X-7.649 Y5.971 I-.23 J-.714
N985 G01 X-7.753 Y6.002
N990 G03 X-7.767 Y6.006 I-.216 J-.718
N995 G01 X-7.872 Y6.036
N1000 G03 X-7.886 Y6.039 I-.201 J-.722
N1005 G01 X-7.991 Y6.066
N1010 G03 X-8.006 Y6.07 I-.187 J-.726
N1015 G01 X-8.112 Y6.095
N1020 G03 X-8.127 Y6.098 I-.172 J-.73
N1025 G01 X-8.234 Y6.121
N1030 G03 X-8.249 Y6.125 I-.158 J-.733
N1035 G01 X-8.356 Y6.145
N1040 G03 X-8.371 Y6.148 I-.143 J-.736
N1045 G01 X-8.48 Y6.167
N1050 G03 X-8.495 Y6.169 I-.128 J-.739
N1055 G01 X-8.604 Y6.186
N1060 G03 X-8.619 Y6.188 I-.113 J-.741
N1065 G01 X-8.729 Y6.203
N1070 G03 X-8.744 Y6.205 I-.098 J-.744
N1075 G01 X-8.854 Y6.217
N1080 G03 X-8.869 Y6.218 I-.083 J-.745
N1085 G01 X-8.981 Y6.229
N1090 G03 X-8.996 Y6.23 I-.068 J-.747
N1095 G01 X-9.108 Y6.238
N1100 G03 X-9.123 Y6.239 I-.053 J-.748
N1105 G01 X-9.235 Y6.244
N1110 G03 X-9.251 Y6.245 I-.038 J-.749
N1115 G01 X-9.364 Y6.249
N1120 G03 X-9.379 I-.023 J-.75
N1125 G01 X-9.492 Y6.25
N1130 G03 X-9.511 I-.008 J-.75
N1135 G01 X-9.672 Y6.248
N1140 G03 X-9.694 Y6.247 I.011 J-.75
N1145 G01 X-9.854 Y6.24
N1150 G03 X-9.872 Y6.239 I.032 J-.749
N1155 G01 X-9.978 Y6.232
N1160 G03 X-9.994 Y6.231 I.05 J-.748
N1165 G01 X-10.135 Y6.218
N1170 G03 X-10.157 Y6.216 I.067 J-.747
N1175 G01 X-10.343 Y6.193
N1180 G03 X-10.362 Y6.191 I.089 J-.745
N1185 G01 X-10.468 Y6.175
N1190 G03 X-10.483 Y6.173 I.109 J-.742
N1195 G01 X-10.603 Y6.153
N1200 G03 X-10.62 Y6.15 I.124 J-.74
N1205 G01 X-10.755 Y6.124
N1210 G03 X-10.775 Y6.12 I.142 J-.736
N1215 G01 X-10.929 Y6.086
N1220 G03 X-10.951 Y6.08 I.162 J-.732
N1225 G01 X-11.124 Y6.037
N1230 G03 X-11.15 Y6.03 I.184 J-.727
N1235 G01 X-11.345 Y5.973
N1240 G03 X-11.365 Y5.967 I.209 J-.72
N1245 G01 X-11.468 Y5.934
N1250 G03 X-11.482 Y5.929 I.23 J-.714
N1255 G01 X-11.584 Y5.894
N1260 G03 X-11.598 Y5.889 I.244 J-.709
N1265 G01 X-11.699 Y5.852
N1270 G03 X-11.713 Y5.847 I.258 J-.704
N1275 G01 X-11.813 Y5.808
N1280 G03 X-11.827 Y5.802 I.272 J-.699
N1285 G01 X-11.926 Y5.761
N1290 G03 X-11.94 Y5.756 I.285 J-.694
N1295 G01 X-12.038 Y5.713
N1300 G03 X-12.051 Y5.707 I.299 J-.688
N1305 G01 X-12.149 Y5.662
N1310 G03 X-12.162 Y5.656 I.312 J-.682
N1315 G01 X-12.258 Y5.61
N1320 G03 X-12.271 Y5.603 I.326 J-.676
N1325 G01 X-12.366 Y5.555
N1330 G03 X-12.379 Y5.549 I.339 J-.669
N1335 G01 X-12.473 Y5.499
N1340 G03 X-12.486 Y5.492 I.352 J-.662
N1345 G01 X-12.579 Y5.44
N1350 G03 X-12.592 Y5.433 I.364 J-.656
N1355 G01 X-12.683 Y5.379
N1360 G03 X-12.696 Y5.372 I.377 J-.648
N1365 G01 X-12.787 Y5.317
N1370 G03 X-12.799 Y5.309 I.389 J-.641
N1375 G01 X-12.888 Y5.253
N1380 G03 X-12.901 Y5.245 I.402 J-.633
N1385 G01 X-12.989 Y5.186
N1390 G03 X-13.001 Y5.178 I.414 J-.625
N1395 G01 X-13.088 Y5.118
N1400 G03 X-13.1 Y5.11 I.426 J-.617
N1405 G01 X-13.186 Y5.048
N1410 G03 X-13.197 Y5.039 I.438 J-.609
N1415 G01 X-13.282 Y4.976
N1420 G03 X-13.294 Y4.967 I.449 J-.601
N1425 G01 X-13.377 Y4.902
N1430 G03 X-13.388 Y4.894 I.461 J-.592
N1435 G01 X-13.47 Y4.827
N1440 G03 X-13.481 Y4.818 I.472 J-.583
N1445 G01 X-13.562 Y4.75
N1450 G03 X-13.573 Y4.741 I.483 J-.574
N1455 G01 X-13.653 Y4.671
N1460 G03 X-13.663 Y4.662 I.494 J-.565
N1465 G01 X-13.741 Y4.591
N1470 G03 X-13.752 Y4.581 I.504 J-.555
N1475 G01 X-13.829 Y4.508
N1480 G03 X-13.839 Y4.498 I.515 J-.545
N1485 G01 X-13.914 Y4.424
N1490 G03 X-13.924 Y4.414 I.525 J-.535
N1495 G01 X-13.998 Y4.339
N1500 G03 X-14.008 Y4.329 I.535 J-.525
N1505 G01 X-14.081 Y4.252
N1510 G03 X-14.091 Y4.241 I.545 J-.515
N1515 G01 X-14.162 Y4.163
N1520 G03 X-14.171 Y4.153 I.555 J-.504
N1525 G01 X-14.241 Y4.073
N1530 G03 X-14.25 Y4.062 I.565 J-.494
N1535 G01 X-14.318 Y3.981
N1540 G03 X-14.327 Y3.97 I.574 J-.483
N1545 G01 X-14.394 Y3.888
N1550 G03 X-14.402 Y3.877 I.583 J-.472
N1555 G01 X-14.467 Y3.794
N1560 G03 X-14.476 Y3.782 I.592 J-.461
N1565 G01 X-14.539 Y3.697
N1570 G03 X-14.548 Y3.686 I.601 J-.449
N1575 G01 X-14.61 Y3.6
N1580 G03 X-14.618 Y3.588 I.609 J-.438
N1585 G01 X-14.678 Y3.501
N1590 G03 X-14.686 Y3.489 I.617 J-.426
N1595 G01 X-14.745 Y3.401
N1600 G03 X-14.753 Y3.388 I.625 J-.414
N1605 G01 X-14.809 Y3.299
N1610 G03 X-14.817 Y3.287 I.633 J-.402
N1615 G01 X-14.872 Y3.196
N1620 G03 X-14.879 Y3.183 I.641 J-.389
N1625 G01 X-14.933 Y3.092
N1630 G03 X-14.94 Y3.079 I.648 J-.377
N1635 G01 X-14.992 Y2.986
N1640 G03 X-14.999 Y2.973 I.656 J-.364
N1645 G01 X-15.049 Y2.879
N1650 G03 X-15.055 Y2.866 I.662 J-.352
N1655 G01 X-15.103 Y2.771
N1660 G03 X-15.11 Y2.758 I.669 J-.339
N1665 G01 X-15.156 Y2.662
N1670 G03 X-15.162 Y2.649 I.676 J-.326
N1675 G01 X-15.207 Y2.551
N1680 G03 X-15.213 Y2.538 I.682 J-.312
N1685 G01 X-15.256 Y2.44
N1690 G03 X-15.261 Y2.426 I.688 J-.299
N1695 G01 X-15.302 Y2.327
N1700 G03 X-15.308 Y2.313 I.694 J-.285
N1705 G01 X-15.347 Y2.213
N1710 G03 X-15.352 Y2.199 I.699 J-.272
N1715 G01 X-15.361 Y2.175
N1720 X-15.332 Y2.371
N1725 X-15.273 Y2.716
N1730 X-15.206 Y3.059
N1735 X-15.132 Y3.401
N1740 X-15.05 Y3.74
